; generated by PrusaSlicer 2.5.0+win64 on 2022-12-08 at 04:13:59 UTC


;
;
; 

; external perimeters extrusion width = 0.60mm
; perimeters extrusion width = 0.50mm
; infill extrusion width = 0.50mm
; solid infill extrusion width = 0.50mm
; top infill extrusion width = 0.45mm
; support material extrusion width = 0.38mm
; first layer extrusion width = 0.42mm

M73 P0 R219
M73 Q0 S223
M201 X1000 Y1000 Z200 E5000 ; sets maximum accelerations, mm/sec^2
M203 X200 Y200 Z12 E120 ; sets maximum feedrates, mm / sec
M204 P1250 R1250 T1250 ; sets acceleration (P, T) and retract acceleration (R), mm/sec^2
M205 X8.00 Y8.00 Z0.40 E4.50 ; sets the jerk limits, mm/sec
M205 S0 T0 ; sets the minimum extruding and travel feed rate, mm/sec
M107
;TYPE:Custom
M862.3 P "MK3S" ; printer model check
M862.1 P0.4 ; nozzle diameter check
M115 U3.11.0 ; tell printer latest fw version
G90 ; use absolute coordinates
M83 ; extruder relative mode
M104 S215 ; set extruder temp
M140 S60 ; set bed temp
M190 S60 ; wait for bed temp
M109 S215 ; wait for extruder temp
G28 W ; home all without mesh bed level
G80 ; mesh bed leveling

G1 Z0.2 F720
G1 Y-3 F1000 ; go outside print area
G92 E0
G1 X60 E9 F1000 ; intro line
G1 X100 E12.5 F1000 ; intro line

G92 E0
M221 S95

; Don't change E values below. Excessive value can damage the printer.

M907 E538 ; set extruder motor current
G21 ; set units to millimeters
G90 ; use absolute coordinates
M83 ; use relative distances for extrusion
M900 K0.05 ; Filament gcode LA 1.5
M900 K30 ; Filament gcode LA 1.0
M107
;LAYER_CHANGE
;Z:0.2
;HEIGHT:0.2
;BEFORE_LAYER_CHANGE
G92 E0.0
;0.2


G1 E-.8 F2100
G1 Z.4 F720
;AFTER_LAYER_CHANGE
;0.2
G1 X86.577 Y67.156 F10800
G1 Z.2 F720
G1 E.8 F2100
M204 S800
;TYPE:Skirt/Brim
;WIDTH:0.42
G1 F1200
G1 X87.346 Y66.387 E.03408
G1 X87.919 Y66.03 E.02118
G1 X88.798 Y65.71 E.02932
G1 X89.665 Y65.607 E.0274
G1 X160.534 Y65.615 E2.22203
G1 X161.219 Y65.715 E.0217
G1 X162.081 Y66.03 E.02878
G1 X162.654 Y66.387 E.02118
G1 X163.157 Y66.838 E.02117
G1 X163.573 Y67.37 E.02117
G1 X163.89 Y67.966 E.02117
G1 X164.1 Y68.608 E.02117
G1 X164.203 Y69.479 E.02751
G1 X164.204 Y136.747 E2.10914
G1 X163.492 Y138.444 E.05769
M73 P0 R218
G1 X155.085 Y146.694 E.36933
G1 X153.42 Y147.375 E.0564
G1 X96.58 Y147.375 E1.78215
G1 X94.915 Y146.694 E.0564
G1 X86.508 Y138.444 E.36933
G1 X85.965 Y137.627 E.03076
G1 X82.794 Y129.668 E.26862
G1 X82.625 Y128.788 E.02809
G1 X82.631 Y113.46 E.48061
G1 X85.805 Y69.276 E1.38892
G1 X85.968 Y68.355 E.02933
G1 X86.22 Y67.729 E.02117
G1 X86.545 Y67.207 E.01929
M204 S1000
; printing object WaterPump-partial.stl id:0 copy 0
;WIPE_START
G1 F8640
G1 X87.346 Y66.387 E-.26448
G1 X87.919 Y66.03 E-.15594
G1 X88.798 Y65.71 E-.21594
G1 X89.329 Y65.647 E-.12363
;WIPE_END
G1 E-.04 F2100
G1 Z.6 F720
G1 X87.603 Y128.788 F10800
G1 Z.2 F720
G1 E.8 F2100
M204 S800
;TYPE:Support material
G1 F1200
G1 X85.002 Y128.788 E.08155
G1 X85.002 Y113.63 E.47527
G1 X87.603 Y113.63 E.08155
G1 X87.603 Y128.732 E.47349
M204 S1000
G1 X86.873 Y128.619 F10800
M204 S800
G1 F1200
G1 X86.873 Y113.97 E.4593
G1 X86.454 Y113.97 E.01314
G1 X86.454 Y128.449 E.45398
G1 X86.035 Y128.449 E.01314
G1 X86.035 Y113.97 E.45398
G1 X85.616 Y113.97 E.01314
G1 X85.616 Y128.619 E.4593
M204 S1000
;WIPE_START
G1 F8640
G1 X85.616 Y125.327 E-.76
;WIPE_END
G1 E-.04 F2100
G1 Z.6 F720
G1 X93.213 Y128.788 F10800
G1 Z.2 F720
G1 E.8 F2100
M204 S800
G1 F1200
G1 X90.243 Y128.788 E.09312
G1 X90.243 Y113.63 E.47527
G1 X93.213 Y113.63 E.09312
G1 X93.213 Y128.732 E.47349
M204 S1000
G1 X92.739 Y128.619 F10800
M204 S800
G1 F1200
G1 X92.739 Y113.97 E.4593
G1 X92.32 Y113.97 E.01314
G1 X92.32 Y128.449 E.45398
G1 X91.901 Y128.449 E.01314
G1 X91.901 Y113.97 E.45398
G1 X91.482 Y113.97 E.01314
G1 X91.482 Y128.449 E.45398
G1 X91.063 Y128.449 E.01314
G1 X91.063 Y113.97 E.45398
G1 X90.644 Y113.97 E.01314
G1 X90.644 Y128.619 E.4593
M204 S1000
;WIPE_START
G1 F8640
G1 X90.644 Y125.327 E-.76
;WIPE_END
G1 E-.04 F2100
G1 Z.6 F720
G1 X148.788 Y129.84 F10800
G1 Z.2 F720
G1 E.8 F2100
M204 S800
G1 F1200
G1 X153.42 Y129.84 E.14521
G1 X153.42 Y134.677 E.15167
G1 X96.58 Y134.677 E1.78215
G1 X96.58 Y129.84 E.15167
G1 X101.212 Y129.84 E.14521
G1 X101.212 Y83.527 E1.45209
G1 X148.788 Y83.527 E1.49173
G1 X148.788 Y129.783 E1.45032
M204 S1000
;WIPE_START
G1 F8640
G1 X148.788 Y126.492 E-.76
;WIPE_END
G1 E-.04 F2100
G1 Z.6 F720
G1 X121.001 Y105.632 F10800
G1 Z.2 F720
G1 E.8 F2100
M204 S800
G1 F1200
G1 X121.001 Y107.948 E.0726
G1 X116.37 Y107.948 E.14521
G1 X116.37 Y112.579 E.14521
G1 X114.054 Y112.579 E.0726
G1 X114.054 Y118.262 E.17818
G1 X116.37 Y118.262 E.0726
G1 X116.37 Y120.577 E.0726
G1 X118.685 Y120.577 E.0726
G1 X118.685 Y122.893 E.0726
G1 X121.001 Y122.893 E.0726
G1 X121.001 Y125.208 E.0726
G1 X128.999 Y125.208 E.25078
G1 X128.999 Y122.893 E.0726
G1 X131.315 Y122.893 E.0726
G1 X131.315 Y120.577 E.0726
G1 X133.63 Y120.577 E.0726
G1 X133.63 Y115.946 E.14521
G1 X135.946 Y115.946 E.0726
G1 X135.946 Y112.579 E.10557
G1 X133.63 Y112.579 E.0726
G1 X133.63 Y110.263 E.0726
G1 X131.315 Y110.263 E.0726
G1 X131.315 Y107.948 E.0726
G1 X128.999 Y107.948 E.0726
M73 Q0 S222
G1 X128.999 Y105.632 E.0726
G1 X121.057 Y105.632 E.24901
M204 S1000
;WIPE_START
G1 F8640
G1 X124.349 Y105.632 E-.76
;WIPE_END
G1 E-.04 F2100
G1 Z.6 F720
G1 X153.071 Y134.507 F10800
G1 Z.2 F720
G1 E.8 F2100
M204 S800
G1 F1200
G1 X153.071 Y130.179 E.13571
G1 X152.652 Y130.179 E.01314
G1 X152.652 Y134.338 E.13039
G1 X152.234 Y134.338 E.01314
G1 X152.234 Y130.179 E.13039
G1 X151.815 Y130.179 E.01314
G1 X151.815 Y134.338 E.13039
G1 X151.396 Y134.338 E.01314
G1 X151.396 Y130.179 E.13039
G1 X150.977 Y130.179 E.01314
G1 X150.977 Y134.338 E.13039
G1 X150.558 Y134.338 E.01314
G1 X150.558 Y130.179 E.13039
G1 X150.139 Y130.179 E.01314
G1 X150.139 Y134.338 E.13039
G1 X149.72 Y134.338 E.01314
G1 X149.72 Y130.179 E.13039
G1 X149.301 Y130.179 E.01314
G1 X149.301 Y134.338 E.13039
G1 X148.882 Y134.338 E.01314
G1 X148.882 Y130.179 E.13039
G1 X148.463 Y130.179 E.01314
G1 X148.463 Y134.338 E.13039
G1 X148.044 Y134.338 E.01314
G1 X148.044 Y83.867 E1.58248
G1 X147.625 Y83.867 E.01314
G1 X147.625 Y134.338 E1.58248
G1 X147.206 Y134.338 E.01314
G1 X147.206 Y83.867 E1.58248
G1 X146.787 Y83.867 E.01314
G1 X146.787 Y134.338 E1.58248
G1 X146.368 Y134.338 E.01314
G1 X146.368 Y83.867 E1.58248
G1 X145.949 Y83.867 E.01314
G1 X145.949 Y134.338 E1.58248
G1 X145.53 Y134.338 E.01314
G1 X145.53 Y83.867 E1.58248
G1 X145.111 Y83.867 E.01314
M73 P0 R217
G1 X145.111 Y134.338 E1.58248
G1 X144.692 Y134.338 E.01314
G1 X144.692 Y83.867 E1.58248
G1 X144.273 Y83.867 E.01314
G1 X144.273 Y134.338 E1.58248
G1 X143.854 Y134.338 E.01314
G1 X143.854 Y83.867 E1.58248
G1 X143.435 Y83.867 E.01314
G1 X143.435 Y134.338 E1.58248
G1 X143.016 Y134.338 E.01314
G1 X143.016 Y83.867 E1.58248
G1 X142.597 Y83.867 E.01314
G1 X142.597 Y134.338 E1.58248
G1 X142.178 Y134.338 E.01314
G1 X142.178 Y83.867 E1.58248
G1 X141.759 Y83.867 E.01314
G1 X141.759 Y134.338 E1.58248
G1 X141.34 Y134.338 E.01314
G1 X141.34 Y83.867 E1.58248
G1 X140.921 Y83.867 E.01314
G1 X140.921 Y134.338 E1.58248
G1 X140.502 Y134.338 E.01314
G1 X140.502 Y83.867 E1.58248
G1 X140.083 Y83.867 E.01314
G1 X140.083 Y134.338 E1.58248
G1 X139.664 Y134.338 E.01314
G1 X139.664 Y83.867 E1.58248
G1 X139.245 Y83.867 E.01314
G1 X139.245 Y134.338 E1.58248
G1 X138.826 Y134.338 E.01314
M73 Q0 S221
G1 X138.826 Y83.867 E1.58248
G1 X138.407 Y83.867 E.01314
G1 X138.407 Y134.338 E1.58248
G1 X137.988 Y134.338 E.01314
G1 X137.988 Y83.867 E1.58248
G1 X137.569 Y83.867 E.01314
G1 X137.569 Y134.338 E1.58248
G1 X137.15 Y134.338 E.01314
G1 X137.15 Y83.867 E1.58248
G1 X136.731 Y83.867 E.01314
G1 X136.731 Y134.338 E1.58248
G1 X136.312 Y134.338 E.01314
G1 X136.312 Y83.867 E1.58248
G1 X135.893 Y83.867 E.01314
G1 X135.893 Y112.24 E.88961
G1 X135.474 Y112.24 E.01314
G1 X135.474 Y83.867 E.88961
G1 X135.055 Y83.867 E.01314
M73 P1 R216
G1 X135.055 Y112.24 E.88961
G1 X134.636 Y112.24 E.01314
M73 Q1 S221
G1 X134.636 Y83.867 E.88961
G1 X134.217 Y83.867 E.01314
G1 X134.217 Y112.24 E.88961
G1 X133.97 Y112.24 E.00777
G1 X133.97 Y109.924 E.0726
G1 X133.799 Y109.924 E.00537
G1 X133.799 Y83.867 E.81701
G1 X133.38 Y83.867 E.01314
G1 X133.38 Y109.924 E.81701
G1 X132.961 Y109.924 E.01314
G1 X132.961 Y83.867 E.81701
G1 X132.542 Y83.867 E.01314
G1 X132.542 Y109.924 E.81701
G1 X132.123 Y109.924 E.01314
G1 X132.123 Y83.867 E.81701
G1 X131.704 Y83.867 E.01314
G1 X131.704 Y109.924 E.81701
G1 X131.654 Y109.924 E.00155
G1 X131.654 Y107.608 E.0726
G1 X131.285 Y107.608 E.01159
G1 X131.285 Y83.867 E.7444
G1 X130.866 Y83.867 E.01314
G1 X130.866 Y107.608 E.7444
G1 X130.447 Y107.608 E.01314
G1 X130.447 Y83.867 E.7444
G1 X130.028 Y83.867 E.01314
G1 X130.028 Y107.608 E.7444
G1 X129.609 Y107.608 E.01314
G1 X129.609 Y83.867 E.7444
G1 X129.19 Y83.867 E.01314
G1 X129.19 Y105.293 E.6718
G1 X128.771 Y105.293 E.01314
G1 X128.771 Y83.867 E.6718
G1 X128.352 Y83.867 E.01314
G1 X128.352 Y105.293 E.6718
G1 X127.933 Y105.293 E.01314
G1 X127.933 Y83.867 E.6718
G1 X127.514 Y83.867 E.01314
G1 X127.514 Y105.293 E.6718
G1 X127.095 Y105.293 E.01314
G1 X127.095 Y83.867 E.6718
G1 X126.676 Y83.867 E.01314
G1 X126.676 Y105.293 E.6718
G1 X126.257 Y105.293 E.01314
G1 X126.257 Y83.867 E.6718
G1 X125.838 Y83.867 E.01314
G1 X125.838 Y105.293 E.6718
G1 X125.419 Y105.293 E.01314
G1 X125.419 Y83.867 E.6718
G1 X125 Y83.867 E.01314
G1 X125 Y105.293 E.6718
G1 X124.581 Y105.293 E.01314
G1 X124.581 Y83.867 E.6718
G1 X124.162 Y83.867 E.01314
G1 X124.162 Y105.293 E.6718
G1 X123.743 Y105.293 E.01314
G1 X123.743 Y83.867 E.6718
G1 X123.324 Y83.867 E.01314
G1 X123.324 Y105.293 E.6718
G1 X122.905 Y105.293 E.01314
G1 X122.905 Y83.867 E.6718
G1 X122.486 Y83.867 E.01314
G1 X122.486 Y105.293 E.6718
G1 X122.067 Y105.293 E.01314
G1 X122.067 Y83.867 E.6718
G1 X121.648 Y83.867 E.01314
M73 Q1 S220
G1 X121.648 Y105.293 E.6718
G1 X121.229 Y105.293 E.01314
G1 X121.229 Y83.867 E.6718
G1 X120.81 Y83.867 E.01314
G1 X120.81 Y105.293 E.6718
G1 X120.661 Y105.293 E.00466
G1 X120.661 Y107.608 E.0726
G1 X120.391 Y107.608 E.00847
G1 X120.391 Y83.867 E.7444
G1 X119.972 Y83.867 E.01314
G1 X119.972 Y107.608 E.7444
G1 X119.553 Y107.608 E.01314
G1 X119.553 Y83.867 E.7444
G1 X119.134 Y83.867 E.01314
G1 X119.134 Y107.608 E.7444
G1 X118.715 Y107.608 E.01314
G1 X118.715 Y83.867 E.7444
G1 X118.296 Y83.867 E.01314
G1 X118.296 Y107.608 E.7444
G1 X117.877 Y107.608 E.01314
G1 X117.877 Y83.867 E.7444
G1 X117.458 Y83.867 E.01314
G1 X117.458 Y107.608 E.7444
G1 X117.039 Y107.608 E.01314
G1 X117.039 Y83.867 E.7444
G1 X116.62 Y83.867 E.01314
G1 X116.62 Y107.608 E.7444
G1 X116.201 Y107.608 E.01314
G1 X116.201 Y83.867 E.7444
G1 X115.783 Y83.867 E.01314
G1 X115.783 Y112.24 E.88961
G1 X115.364 Y112.24 E.01314
G1 X115.364 Y83.867 E.88961
G1 X114.945 Y83.867 E.01314
G1 X114.945 Y112.24 E.88961
G1 X114.526 Y112.24 E.01314
M73 P1 R215
G1 X114.526 Y83.867 E.88961
G1 X114.107 Y83.867 E.01314
G1 X114.107 Y112.24 E.88961
G1 X113.715 Y112.24 E.01229
G1 X113.715 Y118.601 E.19946
G1 X114.107 Y118.601 E.01229
G1 X114.107 Y134.338 E.49341
G1 X114.526 Y134.338 E.01314
G1 X114.526 Y118.601 E.49341
G1 X114.945 Y118.601 E.01314
G1 X114.945 Y134.338 E.49341
G1 X115.364 Y134.338 E.01314
G1 X115.364 Y118.601 E.49341
G1 X115.783 Y118.601 E.01314
G1 X115.783 Y134.338 E.49341
G1 X116.201 Y134.338 E.01314
G1 X116.201 Y120.917 E.42081
G1 X116.62 Y120.917 E.01314
G1 X116.62 Y134.338 E.42081
G1 X117.039 Y134.338 E.01314
G1 X117.039 Y120.917 E.42081
G1 X117.458 Y120.917 E.01314
G1 X117.458 Y134.338 E.42081
G1 X117.877 Y134.338 E.01314
G1 X117.877 Y120.917 E.42081
G1 X118.296 Y120.917 E.01314
G1 X118.296 Y134.338 E.42081
G1 X118.715 Y134.338 E.01314
G1 X118.715 Y123.232 E.3482
G1 X119.134 Y123.232 E.01314
G1 X119.134 Y134.338 E.3482
G1 X119.553 Y134.338 E.01314
G1 X119.553 Y123.232 E.3482
G1 X119.972 Y123.232 E.01314
G1 X119.972 Y134.338 E.3482
G1 X120.391 Y134.338 E.01314
G1 X120.391 Y123.232 E.3482
G1 X120.661 Y123.232 E.00847
G1 X120.661 Y125.548 E.0726
G1 X120.81 Y125.548 E.00466
G1 X120.81 Y134.338 E.2756
G1 X121.229 Y134.338 E.01314
G1 X121.229 Y125.548 E.2756
G1 X121.648 Y125.548 E.01314
G1 X121.648 Y134.338 E.2756
G1 X122.067 Y134.338 E.01314
G1 X122.067 Y125.548 E.2756
G1 X122.486 Y125.548 E.01314
G1 X122.486 Y134.338 E.2756
G1 X122.905 Y134.338 E.01314
G1 X122.905 Y125.548 E.2756
G1 X123.324 Y125.548 E.01314
G1 X123.324 Y134.338 E.2756
G1 X123.743 Y134.338 E.01314
G1 X123.743 Y125.548 E.2756
G1 X124.162 Y125.548 E.01314
G1 X124.162 Y134.338 E.2756
G1 X124.581 Y134.338 E.01314
G1 X124.581 Y125.548 E.2756
G1 X125 Y125.548 E.01314
G1 X125 Y134.338 E.2756
G1 X125.419 Y134.338 E.01314
G1 X125.419 Y125.548 E.2756
G1 X125.838 Y125.548 E.01314
G1 X125.838 Y134.338 E.2756
G1 X126.257 Y134.338 E.01314
G1 X126.257 Y125.548 E.2756
G1 X126.676 Y125.548 E.01314
G1 X126.676 Y134.338 E.2756
G1 X127.095 Y134.338 E.01314
G1 X127.095 Y125.548 E.2756
G1 X127.514 Y125.548 E.01314
G1 X127.514 Y134.338 E.2756
G1 X127.933 Y134.338 E.01314
G1 X127.933 Y125.548 E.2756
G1 X128.352 Y125.548 E.01314
G1 X128.352 Y134.338 E.2756
G1 X128.771 Y134.338 E.01314
G1 X128.771 Y125.548 E.2756
G1 X129.19 Y125.548 E.01314
G1 X129.19 Y134.338 E.2756
G1 X129.609 Y134.338 E.01314
G1 X129.609 Y123.232 E.3482
G1 X130.028 Y123.232 E.01314
G1 X130.028 Y134.338 E.3482
G1 X130.447 Y134.338 E.01314
G1 X130.447 Y123.232 E.3482
G1 X130.866 Y123.232 E.01314
G1 X130.866 Y134.338 E.3482
G1 X131.285 Y134.338 E.01314
G1 X131.285 Y123.232 E.3482
G1 X131.654 Y123.232 E.01159
G1 X131.654 Y120.917 E.0726
G1 X131.704 Y120.917 E.00155
G1 X131.704 Y134.338 E.42081
G1 X132.123 Y134.338 E.01314
G1 X132.123 Y120.917 E.42081
G1 X132.542 Y120.917 E.01314
G1 X132.542 Y134.338 E.42081
G1 X132.961 Y134.338 E.01314
G1 X132.961 Y120.917 E.42081
G1 X133.38 Y120.917 E.01314
G1 X133.38 Y134.338 E.42081
G1 X133.799 Y134.338 E.01314
G1 X133.799 Y120.917 E.42081
G1 X133.97 Y120.917 E.00537
G1 X133.97 Y116.285 E.14521
G1 X134.217 Y116.285 E.00777
G1 X134.217 Y134.338 E.56602
G1 X134.636 Y134.338 E.01314
G1 X134.636 Y116.285 E.56602
G1 X135.055 Y116.285 E.01314
G1 X135.055 Y134.338 E.56602
G1 X135.474 Y134.338 E.01314
G1 X135.474 Y116.285 E.56602
G1 X135.893 Y116.285 E.01314
G1 X135.893 Y134.507 E.57134
M204 S1000
G1 X113.688 Y134.507 F10800
M204 S800
G1 F1200
G1 X113.688 Y83.867 E1.5878
G1 X113.269 Y83.867 E.01314
M73 Q1 S219
G1 X113.269 Y134.338 E1.58248
G1 X112.85 Y134.338 E.01314
G1 X112.85 Y83.867 E1.58248
G1 X112.431 Y83.867 E.01314
G1 X112.431 Y134.338 E1.58248
G1 X112.012 Y134.338 E.01314
G1 X112.012 Y83.867 E1.58248
G1 X111.593 Y83.867 E.01314
G1 X111.593 Y134.338 E1.58248
G1 X111.174 Y134.338 E.01314
G1 X111.174 Y83.867 E1.58248
G1 X110.755 Y83.867 E.01314
G1 X110.755 Y134.338 E1.58248
G1 X110.336 Y134.338 E.01314
G1 X110.336 Y83.867 E1.58248
G1 X109.917 Y83.867 E.01314
M73 P1 R214
G1 X109.917 Y134.338 E1.58248
G1 X109.498 Y134.338 E.01314
G1 X109.498 Y83.867 E1.58248
G1 X109.079 Y83.867 E.01314
G1 X109.079 Y134.338 E1.58248
G1 X108.66 Y134.338 E.01314
G1 X108.66 Y83.867 E1.58248
G1 X108.241 Y83.867 E.01314
M73 P2 R214
G1 X108.241 Y134.338 E1.58248
G1 X107.822 Y134.338 E.01314
G1 X107.822 Y83.867 E1.58248
G1 X107.403 Y83.867 E.01314
M73 Q2 S219
G1 X107.403 Y134.338 E1.58248
G1 X106.984 Y134.338 E.01314
G1 X106.984 Y83.867 E1.58248
G1 X106.565 Y83.867 E.01314
G1 X106.565 Y134.338 E1.58248
G1 X106.146 Y134.338 E.01314
G1 X106.146 Y83.867 E1.58248
G1 X105.727 Y83.867 E.01314
G1 X105.727 Y134.338 E1.58248
G1 X105.308 Y134.338 E.01314
G1 X105.308 Y83.867 E1.58248
G1 X104.889 Y83.867 E.01314
G1 X104.889 Y134.338 E1.58248
G1 X104.47 Y134.338 E.01314
G1 X104.47 Y83.867 E1.58248
G1 X104.051 Y83.867 E.01314
G1 X104.051 Y134.338 E1.58248
G1 X103.632 Y134.338 E.01314
M73 Q2 S218
G1 X103.632 Y83.867 E1.58248
G1 X103.213 Y83.867 E.01314
G1 X103.213 Y134.338 E1.58248
G1 X102.794 Y134.338 E.01314
G1 X102.794 Y83.867 E1.58248
G1 X102.375 Y83.867 E.01314
G1 X102.375 Y134.338 E1.58248
G1 X101.956 Y134.338 E.01314
G1 X101.956 Y83.867 E1.58248
G1 X101.551 Y83.867 E.0127
G1 X101.551 Y130.179 E1.45209
G1 X101.537 Y130.179 E.00043
G1 X101.537 Y134.338 E.13039
