; generated by PrusaSlicer 2.5.0+win64 on 2022-12-10 at 21:50:25 UTC


;
;
; 

; external perimeters extrusion width = 0.45mm
; perimeters extrusion width = 0.45mm
; infill extrusion width = 0.45mm
; solid infill extrusion width = 0.45mm
; top infill extrusion width = 0.40mm
; first layer extrusion width = 0.42mm

M73 P0 R53
M73 Q0 S54
M201 X1000 Y1000 Z200 E5000 ; sets maximum accelerations, mm/sec^2
M203 X200 Y200 Z12 E120 ; sets maximum feedrates, mm / sec
M204 P1250 R1250 T1250 ; sets acceleration (P, T) and retract acceleration (R), mm/sec^2
M205 X8.00 Y8.00 Z0.40 E4.50 ; sets the jerk limits, mm/sec
M205 S0 T0 ; sets the minimum extruding and travel feed rate, mm/sec
M107
;TYPE:Custom
M862.3 P "MK3S" ; printer model check
M862.1 P0.4 ; nozzle diameter check
M115 U3.11.0 ; tell printer latest fw version
G90 ; use absolute coordinates
M83 ; extruder relative mode
M104 S215 ; set extruder temp
M140 S60 ; set bed temp
M190 S60 ; wait for bed temp
M109 S215 ; wait for extruder temp
G28 W ; home all without mesh bed level
G80 ; mesh bed leveling

G1 Z0.2 F720
G1 Y-3 F1000 ; go outside print area
G92 E0
G1 X60 E9 F1000 ; intro line
G1 X100 E12.5 F1000 ; intro line

G92 E0
M221 S95

; Don't change E values below. Excessive value can damage the printer.

M907 E538 ; set extruder motor current
G21 ; set units to millimeters
G90 ; use absolute coordinates
M83 ; use relative distances for extrusion
M900 K0.05 ; Filament gcode LA 1.5
M900 K30 ; Filament gcode LA 1.0
M107
;LAYER_CHANGE
;Z:0.2
;HEIGHT:0.2
;BEFORE_LAYER_CHANGE
G92 E0.0
;0.2


G1 E-.8 F2100
G1 Z.4 F720
;AFTER_LAYER_CHANGE
;0.2
G1 X86.813 Y70.127 F10800
G1 Z.2 F720
G1 E.8 F2100
M204 S800
;TYPE:Skirt/Brim
;WIDTH:0.42
G1 F1200
G1 X87.295 Y69.571 E.02308
G1 X87.682 Y69.257 E.01561
G1 X88.314 Y68.906 E.02267
G1 X88.963 Y68.7 E.02137
G1 X89.646 Y68.627 E.02154
G1 X160.639 Y68.644 E2.22591
G1 X161.686 Y68.906 E.03386
G1 X162.318 Y69.257 E.02267
G1 X162.874 Y69.74 E.02308
G1 X163.187 Y70.127 E.01561
G1 X163.539 Y70.758 E.02267
G1 X163.745 Y71.408 E.02137
G1 X163.818 Y72.091 E.02154
G1 X163.816 Y139.382 E2.10985
G1 X163.425 Y140.689 E.04278
G1 X162.379 Y141.565 E.04278
G1 X161.439 Y141.759 E.03008
G1 X88.561 Y141.759 E2.28504
G1 X87.254 Y141.367 E.04278
G1 X86.378 Y140.322 E.04278
G1 X86.184 Y139.382 E.03008
G1 X86.182 Y72.091 E2.10985
M73 P0 R52
G1 X86.234 Y71.53 E.01766
G1 X86.461 Y70.759 E.02522
G1 X86.783 Y70.179 E.02079
M204 S1000
; printing object Water pump holder - bottom cover.stl id:0 copy 0
;WIPE_START
G1 F8640
G1 X87.295 Y69.571 E-.18354
G1 X87.682 Y69.257 E-.11495
G1 X88.314 Y68.906 E-.16691
G1 X88.963 Y68.7 E-.15737
G1 X89.554 Y68.637 E-.13722
;WIPE_END
G1 E-.04 F2100
G1 Z.6 F720
G1 X160.067 Y72.378 F10800
G1 Z.2 F720
G1 E.8 F2100
M204 S800
;TYPE:Perimeter
;WIDTH:0.419999
G1 F1200
G1 X160.067 Y138.595 E2.07617
G1 X148.734 Y138.595 E.35534
G1 X146.897 Y138.158 E.05921
G1 X144.97 Y137.742 E.06181
G1 X143.024 Y137.362 E.06217
G1 X141.065 Y137.021 E.06235
G1 X139.099 Y136.72 E.06235
G1 X137.133 Y136.459 E.06217
G1 X136.068 Y136.34 E.0336
G1 X135.163 Y136.239 E.02857
G1 X133.188 Y136.058 E.06217
G1 X131.705 Y135.953 E.04662
M73 Q0 S53
G1 X129.228 Y135.817 E.07778
G1 X127.894 Y135.781 E.04187
G1 X128.397 Y135.547 E.01739
G1 X129.287 Y134.995 E.03286
G1 X129.72 Y134.649 E.01737
G1 X130.146 Y134.246 E.01837
G1 X130.514 Y133.834 E.01733
G1 X130.847 Y133.394 E.01732
G1 X131.272 Y132.661 E.02656
G1 X131.623 Y131.911 E.02595
G1 X131.923 Y130.87 E.03396
G1 X132.011 Y130.324 E.01736
G1 X132.053 Y129.772 E.01736
G1 X132.051 Y129.218 E.01736
G1 X132.004 Y128.667 E.01736
G1 X131.905 Y128.099 E.01808
G1 X131.595 Y127.061 E.03396
G1 X131.373 Y126.554 E.01736
G1 X131.111 Y126.066 E.01736
G1 X130.81 Y125.602 E.01736
G1 X130.472 Y125.164 E.01736
G1 X130.082 Y124.739 E.01808
G1 X129.315 Y124.075 E.0318
G1 X128.799 Y123.727 E.01952
G1 X128.315 Y123.458 E.01736
G1 X127.81 Y123.23 E.01736
G1 X127.289 Y123.044 E.01736
G1 X126.731 Y122.898 E.01808
G1 X125.727 Y122.754 E.0318
G1 X125.105 Y122.74 E.01952
G1 X124.553 Y122.776 E.01736
G1 X123.983 Y122.862 E.01808
G1 X122.939 Y123.151 E.03396
G1 X122.427 Y123.362 E.01736
G1 X121.934 Y123.615 E.01736
G1 X121.445 Y123.92 E.01808
G1 X120.653 Y124.553 E.0318
G1 X120.216 Y124.997 E.01952
G1 X119.864 Y125.424 E.01736
G1 X119.536 Y125.898 E.01808
G1 X119.031 Y126.856 E.03396
G1 X118.834 Y127.374 E.01736
G1 X118.631 Y128.143 E.02496
G1 X118.543 Y128.777 E.02006
G1 X118.485 Y129.551 E.02433
G1 X118.509 Y130.104 E.01736
G1 X118.579 Y130.653 E.01736
G1 X118.7 Y131.217 E.01808
G1 X119.026 Y132.177 E.0318
G1 X119.296 Y132.742 E.01962
G1 X119.577 Y133.217 E.01731
G1 X119.868 Y133.631 E.01588
G1 X120.639 Y134.485 E.03606
G1 X121.06 Y134.847 E.0174
G1 X121.553 Y135.199 E.01898
G1 X122.654 Y135.781 E.03906
G1 X121.301 Y135.818 E.04244
G1 X119.318 Y135.919 E.06226
G1 X116.778 Y136.111 E.07988
G1 X115.44 Y136.233 E.04212
G1 X113.396 Y136.461 E.0645
G1 X110.151 Y136.918 E.10272
G1 X107.521 Y137.362 E.08363
G1 X105.573 Y137.742 E.06224
G1 X103.646 Y138.158 E.06181
G1 X101.809 Y138.595 E.05921
G1 X89.933 Y138.595 E.37236
G1 X89.933 Y72.378 E2.07619
G1 X160.007 Y72.378 E2.19711
M204 S1000
M73 P1 R52
M73 Q1 S53
G1 X160.444 Y72.175 F10800
M204 S800
;TYPE:External perimeter
G1 F1200
G1 X160.444 Y138.972 E2.09438
G1 X148.69 Y138.972 E.36855
G1 X146.817 Y138.527 E.06035
G1 X144.89 Y138.11 E.06181
G1 X142.948 Y137.732 E.06203
G1 X141.004 Y137.393 E.06189
G1 X139.052 Y137.094 E.06192
G1 X137.091 Y136.834 E.062
G1 X135.129 Y136.614 E.06193
G1 X133.162 Y136.434 E.06193
G1 X131.688 Y136.33 E.04633
G1 X129.218 Y136.194 E.07755
G1 X127.233 Y136.141 E.06225
;WIDTH:0.439242
G1 X126.163 Y136.188 E.0353
;WIDTH:0.422573
G1 X125.27 Y136.21 E.02822
G1 X124.638 Y136.191 E.01995
;WIDTH:0.424193
G1 X124.07 Y136.166 E.01804
;WIDTH:0.45683
G1 X123.565 Y136.131 E.01743
G1 X123.023 Y136.148 E.01864
;WIDTH:0.419999
G1 X121.32 Y136.195 E.05342
G1 X119.347 Y136.295 E.06196
G1 X116.815 Y136.486 E.0796
G1 X115.474 Y136.609 E.04221
G1 X113.447 Y136.835 E.06397
G1 X110.208 Y137.291 E.10253
G1 X107.593 Y137.732 E.08315
G1 X105.652 Y138.11 E.062
G1 X103.722 Y138.528 E.06193
G1 X101.853 Y138.972 E.06023
G1 X89.556 Y138.972 E.38557
G1 X89.556 Y72.178 E2.09427
G1 X89.588 Y72.076 E.00334
G1 X89.704 Y72 E.00433
G1 X160.267 Y72.001 E2.21245
G1 X160.419 Y72.069 E.00522
G1 X160.43 Y72.116 E.00153
M204 S1000
G1 X160.163 Y72.458 F10800
;WIPE_START
G1 F8640
G1 X160.431 Y75.408 E-.76
;WIPE_END
G1 E-.04 F2100
G1 Z.6 F720
G1 X124.071 Y123.229 F10800
G1 Z.2 F720
G1 E.8 F2100
M204 S800
G1 F1200
G1 X124.606 Y123.149 E.01696
G1 X125.128 Y123.116 E.01639
G1 X125.674 Y123.128 E.01712
G1 X126.678 Y123.271 E.0318
G1 X127.19 Y123.408 E.01663
G1 X127.682 Y123.585 E.01639
G1 X128.158 Y123.801 E.01639
G1 X128.622 Y124.06 E.01663
G1 X129.068 Y124.36 E.01688
G1 X129.835 Y125.024 E.0318
G1 X130.192 Y125.416 E.01663
G1 X130.51 Y125.831 E.01639
G1 X130.794 Y126.27 E.01639
G1 X131.041 Y126.731 E.01639
G1 X131.249 Y127.211 E.01639
G1 X131.544 Y128.205 E.03252
G1 X131.632 Y128.728 E.01663
G1 X131.675 Y129.249 E.01639
G1 X131.676 Y129.772 E.01639
G1 X131.635 Y130.293 E.01639
G1 X131.551 Y130.81 E.01639
G1 X131.261 Y131.805 E.03252
G1 X130.932 Y132.497 E.02403
G1 X130.529 Y133.19 E.02512
G1 X130.214 Y133.606 E.01636
G1 X129.865 Y133.994 E.01636
G1 X129.462 Y134.374 E.01738
G1 X129.053 Y134.7 E.01638
G1 X128.199 Y135.226 E.03145
G1 X127.689 Y135.46 E.01761
G1 X127.194 Y135.633 E.01644
;WIDTH:0.439242
G1 X126.691 Y135.759 E.01709
G1 X126.158 Y135.809 E.01763
;WIDTH:0.421831
G1 X125.646 Y135.832 E.01614
;WIDTH:0.419257
G1 X124.668 Y135.821 E.03061
;WIDTH:0.42271
G1 X124.126 Y135.789 E.01714
;WIDTH:0.45683
G1 X123.606 Y135.72 E.01806
G1 X123.101 Y135.554 E.01831
;WIDTH:0.419999
G1 X122.613 Y135.357 E.01647
G1 X121.736 Y134.87 E.03147
G1 X121.282 Y134.541 E.01758
G1 X120.886 Y134.2 E.01639
G1 X120.177 Y133.415 E.03318
G1 X119.886 Y133 E.01588
G1 X119.621 Y132.551 E.01635
G1 X119.383 Y132.056 E.01721
G1 X119.057 Y131.093 E.03188
G1 X118.948 Y130.577 E.01655
G1 X118.884 Y130.058 E.01639
G1 X118.861 Y129.535 E.0164
G1 X118.919 Y128.808 E.02289
G1 X119.001 Y128.22 E.01862
G1 X119.196 Y127.48 E.02399
G1 X119.393 Y126.971 E.01712
G1 X119.869 Y126.075 E.0318
G1 X120.172 Y125.64 E.01663
G1 X120.506 Y125.237 E.01639
G1 X120.871 Y124.863 E.0164
G1 X121.681 Y124.215 E.03252
G1 X122.132 Y123.936 E.01663
G1 X122.598 Y123.699 E.01639
G1 X123.103 Y123.493 E.01712
G1 X124.014 Y123.245 E.02958
M204 S1000
G1 X124.198 Y122.85 F10800
;WIPE_START
G1 F8640
G1 X124.606 Y123.149 E-.13868
G1 X125.128 Y123.116 E-.12072
G1 X125.674 Y123.128 E-.12604
G1 X126.678 Y123.271 E-.23416
G1 X127.19 Y123.408 E-.12249
G1 X127.263 Y123.435 E-.0179
;WIPE_END
G1 E-.04 F2100
G1 Z.6 F720
G1 X159.189 Y72.491 F10800
G1 Z.2 F720
G1 E.8 F2100
M204 S800
;TYPE:Solid infill
;WIDTH:0.421455
G1 F1200
G1 X159.784 Y73.087 E.02652
G1 X159.784 Y73.622 E.01685
G1 X158.823 Y72.661 E.04279
G1 X158.288 Y72.661 E.01685
G1 X159.784 Y74.158 E.06662
G1 X159.784 Y74.693 E.01685
G1 X157.752 Y72.661 E.09045
G1 X157.217 Y72.661 E.01685
G1 X159.784 Y75.228 E.11428
G1 X159.784 Y75.764 E.01685
G1 X156.682 Y72.661 E.13811
G1 X156.146 Y72.661 E.01685
G1 X159.784 Y76.299 E.16194
G1 X159.784 Y76.834 E.01685
G1 X155.611 Y72.661 E.18577
G1 X155.076 Y72.661 E.01685
G1 X159.784 Y77.37 E.2096
G1 X159.784 Y77.905 E.01685
G1 X154.54 Y72.661 E.23343
G1 X154.005 Y72.661 E.01685
G1 X159.784 Y78.44 E.25725
G1 X159.784 Y78.976 E.01685
G1 X153.47 Y72.661 E.28108
G1 X152.934 Y72.661 E.01685
G1 X159.784 Y79.511 E.30491
G1 X159.784 Y80.046 E.01685
G1 X152.399 Y72.661 E.32874
G1 X151.864 Y72.661 E.01685
G1 X159.784 Y80.582 E.35257
G1 X159.784 Y81.117 E.01685
G1 X151.328 Y72.661 E.3764
G1 X150.793 Y72.661 E.01685
G1 X159.784 Y81.652 E.40023
G1 X159.784 Y82.188 E.01685
G1 X150.258 Y72.661 E.42406
G1 X149.722 Y72.661 E.01685
G1 X159.784 Y82.723 E.44789
G1 X159.784 Y83.258 E.01685
G1 X149.187 Y72.661 E.47172
G1 X148.652 Y72.661 E.01685
M73 P2 R52
G1 X159.784 Y83.794 E.49555
G1 X159.784 Y84.329 E.01685
M73 Q2 S53
G1 X148.116 Y72.661 E.51938
G1 X147.581 Y72.661 E.01685
G1 X159.784 Y84.864 E.54321
G1 X159.784 Y85.4 E.01685
G1 X147.046 Y72.661 E.56703
G1 X146.51 Y72.661 E.01685
G1 X159.784 Y85.935 E.59086
G1 X159.784 Y86.47 E.01685
G1 X145.975 Y72.661 E.61469
G1 X145.44 Y72.661 E.01685
G1 X159.784 Y87.006 E.63852
G1 X159.784 Y87.541 E.01685
G1 X144.904 Y72.661 E.66235
G1 X144.369 Y72.661 E.01685
G1 X159.784 Y88.076 E.68618
G1 X159.784 Y88.612 E.01685
G1 X143.834 Y72.661 E.71001
G1 X143.298 Y72.661 E.01685
G1 X159.784 Y89.147 E.73384
G1 X159.784 Y89.682 E.01685
G1 X142.763 Y72.661 E.75767
G1 X142.228 Y72.661 E.01685
G1 X159.784 Y90.218 E.7815
G1 X159.784 Y90.753 E.01685
G1 X141.692 Y72.661 E.80533
G1 X141.157 Y72.661 E.01685
M73 P2 R51
G1 X159.784 Y91.288 E.82916
G1 X159.784 Y91.824 E.01685
G1 X140.622 Y72.661 E.85299
G1 X140.086 Y72.661 E.01685
G1 X159.784 Y92.359 E.87682
G1 X159.784 Y92.894 E.01685
G1 X139.551 Y72.661 E.90064
G1 X139.016 Y72.661 E.01685
G1 X159.784 Y93.43 E.92447
G1 X159.784 Y93.965 E.01685
G1 X138.48 Y72.661 E.9483
G1 X137.945 Y72.661 E.01685
M73 Q2 S52
G1 X159.784 Y94.5 E.97213
G1 X159.784 Y95.036 E.01685
G1 X137.41 Y72.661 E.99596
G1 X136.874 Y72.661 E.01685
G1 X159.784 Y95.571 E1.01979
G1 X159.784 Y96.106 E.01685
G1 X136.339 Y72.661 E1.04362
G1 X135.804 Y72.661 E.01685
G1 X159.784 Y96.642 E1.06745
G1 X159.784 Y97.177 E.01685
M73 P3 R51
G1 X135.268 Y72.661 E1.09128
G1 X134.733 Y72.661 E.01685
M73 Q3 S52
G1 X159.784 Y97.712 E1.11511
G1 X159.784 Y98.248 E.01685
G1 X134.198 Y72.661 E1.13894
G1 X133.662 Y72.661 E.01685
G1 X159.784 Y98.783 E1.16277
G1 X159.784 Y99.318 E.01685
G1 X133.127 Y72.661 E1.1866
G1 X132.592 Y72.661 E.01685
G1 X159.784 Y99.854 E1.21042
G1 X159.784 Y100.389 E.01685
G1 X132.056 Y72.661 E1.23425
G1 X131.521 Y72.661 E.01685
G1 X159.784 Y100.924 E1.25808
G1 X159.784 Y101.46 E.01685
G1 X130.986 Y72.661 E1.28191
G1 X130.45 Y72.661 E.01685
G1 X159.784 Y101.995 E1.30574
G1 X159.784 Y102.53 E.01685
G1 X129.915 Y72.661 E1.32957
G1 X129.38 Y72.661 E.01685
G1 X159.784 Y103.065 E1.3534
G1 X159.784 Y103.601 E.01685
G1 X128.844 Y72.661 E1.37723
G1 X128.309 Y72.661 E.01685
G1 X159.784 Y104.136 E1.40106
G1 X159.784 Y104.671 E.01685
G1 X127.774 Y72.661 E1.42489
G1 X127.238 Y72.661 E.01685
G1 X159.784 Y105.207 E1.44872
G1 X159.784 Y105.742 E.01685
M73 P4 R51
G1 X126.703 Y72.661 E1.47255
G1 X126.168 Y72.661 E.01685
M73 Q4 S52
G1 X159.784 Y106.277 E1.49638
G1 X159.784 Y106.813 E.01685
G1 X125.632 Y72.661 E1.52021
G1 X125.097 Y72.661 E.01685
G1 X159.784 Y107.348 E1.54403
G1 X159.784 Y107.883 E.01685
M73 P4 R50
G1 X124.562 Y72.661 E1.56786
G1 X124.026 Y72.661 E.01685
G1 X159.784 Y108.419 E1.59169
G1 X159.784 Y108.954 E.01685
G1 X123.491 Y72.661 E1.61552
G1 X122.956 Y72.661 E.01685
G1 X159.784 Y109.489 E1.63935
G1 X159.784 Y110.025 E.01685
M73 Q4 S51
G1 X122.42 Y72.661 E1.66318
G1 X121.885 Y72.661 E.01685
G1 X159.784 Y110.56 E1.68701
G1 X159.784 Y111.095 E.01685
G1 X121.35 Y72.661 E1.71084
G1 X120.814 Y72.661 E.01685
G1 X159.784 Y111.631 E1.73467
G1 X159.784 Y112.166 E.01685
M73 P5 R50
G1 X120.279 Y72.661 E1.7585
G1 X119.744 Y72.661 E.01685
M73 Q5 S51
G1 X159.784 Y112.701 E1.78233
G1 X159.784 Y113.237 E.01685
G1 X119.208 Y72.661 E1.80616
G1 X118.673 Y72.661 E.01685
G1 X159.784 Y113.772 E1.82999
G1 X159.784 Y114.307 E.01685
G1 X118.138 Y72.661 E1.85381
G1 X117.602 Y72.661 E.01685
G1 X159.784 Y114.843 E1.87764
G1 X159.784 Y115.378 E.01685
G1 X117.067 Y72.661 E1.90147
G1 X116.532 Y72.661 E.01685
G1 X159.784 Y115.913 E1.9253
G1 X159.784 Y116.449 E.01685
G1 X115.996 Y72.661 E1.94913
G1 X115.461 Y72.661 E.01685
G1 X159.784 Y116.984 E1.97296
G1 X159.784 Y117.519 E.01685
G1 X114.926 Y72.661 E1.99679
G1 X114.39 Y72.661 E.01685
M73 P6 R50
G1 X159.784 Y118.055 E2.02062
G1 X159.784 Y118.59 E.01685
M73 Q6 S51
G1 X113.855 Y72.661 E2.04445
G1 X113.32 Y72.661 E.01685
M73 P6 R49
G1 X159.784 Y119.125 E2.06828
G1 X159.784 Y119.661 E.01685
G1 X112.784 Y72.661 E2.09211
G1 X112.249 Y72.661 E.01685
G1 X159.784 Y120.196 E2.11594
G1 X159.784 Y120.731 E.01685
M73 Q6 S50
G1 X111.714 Y72.661 E2.13977
G1 X111.178 Y72.661 E.01685
G1 X159.784 Y121.267 E2.1636
G1 X159.784 Y121.802 E.01685
G1 X110.643 Y72.661 E2.18742
G1 X110.108 Y72.661 E.01685
G1 X159.784 Y122.337 E2.21125
G1 X159.784 Y122.873 E.01685
M73 P7 R49
G1 X109.572 Y72.661 E2.23508
G1 X109.037 Y72.661 E.01685
G1 X159.784 Y123.408 E2.25891
G1 X159.784 Y123.943 E.01685
M73 Q7 S50
G1 X108.502 Y72.661 E2.28274
G1 X107.966 Y72.661 E.01685
G1 X159.784 Y124.479 E2.30657
G1 X159.784 Y125.014 E.01685
G1 X107.431 Y72.661 E2.3304
G1 X106.896 Y72.661 E.01685
G1 X159.784 Y125.549 E2.35423
G1 X159.784 Y126.085 E.01685
G1 X106.36 Y72.661 E2.37806
G1 X105.825 Y72.661 E.01685
G1 X159.784 Y126.62 E2.40189
G1 X159.784 Y127.155 E.01685
G1 X105.29 Y72.661 E2.42572
G1 X104.754 Y72.661 E.01685
M73 P8 R49
G1 X159.784 Y127.691 E2.44955
G1 X159.784 Y128.226 E.01685
M73 P8 R48
M73 Q8 S50
G1 X104.219 Y72.661 E2.47338
G1 X103.684 Y72.661 E.01685
G1 X159.784 Y128.761 E2.4972
G1 X159.784 Y129.297 E.01685
M73 Q8 S49
G1 X103.148 Y72.66 E2.52103
G1 X102.613 Y72.66 E.01685
G1 X159.784 Y129.832 E2.54486
G1 X159.784 Y130.367 E.01685
G1 X102.078 Y72.66 E2.56869
G1 X101.542 Y72.66 E.01685
G1 X159.784 Y130.903 E2.59252
G1 X159.784 Y131.438 E.01685
G1 X101.007 Y72.66 E2.61635
G1 X100.472 Y72.66 E.01685
M73 P9 R48
G1 X159.784 Y131.973 E2.64018
G1 X159.784 Y132.509 E.01685
M73 Q9 S49
G1 X99.936 Y72.66 E2.66401
G1 X99.401 Y72.66 E.01685
G1 X159.784 Y133.044 E2.68784
G1 X159.784 Y133.579 E.01685
G1 X98.866 Y72.66 E2.71167
G1 X98.33 Y72.66 E.01685
G1 X159.784 Y134.115 E2.7355
G1 X159.784 Y134.65 E.01685
G1 X97.795 Y72.66 E2.75933
G1 X97.26 Y72.66 E.01685
G1 X159.784 Y135.185 E2.78316
G1 X159.784 Y135.721 E.01685
M73 P10 R47
G1 X96.724 Y72.66 E2.80699
G1 X96.189 Y72.66 E.01685
G1 X159.784 Y136.256 E2.83081
G1 X159.784 Y136.791 E.01685
M73 Q10 S48
G1 X95.654 Y72.66 E2.85464
G1 X95.118 Y72.66 E.01685
G1 X159.784 Y137.327 E2.87847
G1 X159.784 Y137.862 E.01685
G1 X94.583 Y72.66 E2.9023
G1 X94.048 Y72.66 E.01685
