; generated by PrusaSlicer 2.5.0+win64 on 2022-12-10 at 21:48:59 UTC


;
;
; 

; external perimeters extrusion width = 0.45mm
; perimeters extrusion width = 0.45mm
; infill extrusion width = 0.45mm
; solid infill extrusion width = 0.45mm
; top infill extrusion width = 0.40mm
; first layer extrusion width = 0.42mm

M73 P0 R66
M73 Q0 S67
M201 X1000 Y1000 Z200 E5000 ; sets maximum accelerations, mm/sec^2
M203 X200 Y200 Z12 E120 ; sets maximum feedrates, mm / sec
M204 P1250 R1250 T1250 ; sets acceleration (P, T) and retract acceleration (R), mm/sec^2
M205 X8.00 Y8.00 Z0.40 E4.50 ; sets the jerk limits, mm/sec
M205 S0 T0 ; sets the minimum extruding and travel feed rate, mm/sec
M107
;TYPE:Custom
M862.3 P "MK3S" ; printer model check
M862.1 P0.4 ; nozzle diameter check
M115 U3.11.0 ; tell printer latest fw version
G90 ; use absolute coordinates
M83 ; extruder relative mode
M104 S215 ; set extruder temp
M140 S60 ; set bed temp
M190 S60 ; wait for bed temp
M109 S215 ; wait for extruder temp
G28 W ; home all without mesh bed level
G80 ; mesh bed leveling

G1 Z0.2 F720
G1 Y-3 F1000 ; go outside print area
G92 E0
G1 X60 E9 F1000 ; intro line
G1 X100 E12.5 F1000 ; intro line

G92 E0
M221 S95

; Don't change E values below. Excessive value can damage the printer.

M907 E538 ; set extruder motor current
G21 ; set units to millimeters
G90 ; use absolute coordinates
M83 ; use relative distances for extrusion
M900 K0.05 ; Filament gcode LA 1.5
M900 K30 ; Filament gcode LA 1.0
M107
;LAYER_CHANGE
;Z:0.2
;HEIGHT:0.2
;BEFORE_LAYER_CHANGE
G92 E0.0
;0.2


G1 E-.8 F2100
G1 Z.4 F720
;AFTER_LAYER_CHANGE
;0.2
G1 X86.575 Y69.311 F10800
G1 Z.2 F720
G1 E.8 F2100
M204 S800
;TYPE:Skirt/Brim
;WIDTH:0.42
G1 F1200
G1 X87.621 Y68.435 E.04278
G1 X88.561 Y68.241 E.03008
G1 X161.439 Y68.241 E2.28504
G1 X162.746 Y68.633 E.04278
G1 X163.622 Y69.678 E.04278
G1 X163.816 Y70.618 E.03008
G1 X163.816 Y137.882 E2.109
G1 X163.773 Y138.43 E.01725
G1 X163.588 Y139.11 E.02209
G1 X163.261 Y139.763 E.0229
G1 X162.781 Y140.358 E.02396
G1 X162.315 Y140.744 E.01898
G1 X161.752 Y141.068 E.02035
G1 X160.852 Y141.331 E.02943
G1 X160.327 Y141.371 E.01651
G1 X89.673 Y141.371 E2.21528
G1 X89.125 Y141.328 E.01725
M73 P0 R65
G1 X88.445 Y141.144 E.02209
G1 X87.792 Y140.816 E.0229
G1 X87.197 Y140.337 E.02396
G1 X86.811 Y139.87 E.01898
G1 X86.487 Y139.308 E.02035
G1 X86.224 Y138.407 E.02942
G1 X86.184 Y137.882 E.01651
G1 X86.184 Y70.618 E2.109
G1 X86.558 Y69.369 E.0409
M204 S1000
; printing object Water pump holder - top cover.stl id:0 copy 0
;WIPE_START
G1 F8640
G1 X87.621 Y68.435 E-.32671
G1 X88.561 Y68.241 E-.22155
G1 X89.478 Y68.241 E-.21174
;WIPE_END
G1 E-.04 F2100
G1 Z.6 F720
G1 X160.067 Y71.405 F10800
G1 Z.2 F720
G1 E.8 F2100
M204 S800
;TYPE:Perimeter
;WIDTH:0.419999
G1 F1200
G1 X160.067 Y137.622 E2.07619
G1 X89.933 Y137.622 E2.19901
G1 X89.933 Y71.405 E2.07619
G1 X160.007 Y71.405 E2.19713
M204 S1000
G1 X160.444 Y71.028 F10800
M204 S800
;TYPE:External perimeter
G1 F1200
G1 X160.444 Y137.796 E2.09346
G1 X160.4 Y137.948 E.00497
M73 Q0 S66
G1 X160.284 Y137.999 E.00399
G1 X89.759 Y137.999 E2.21125
G1 X89.607 Y137.955 E.00497
M73 P1 R65
M73 Q1 S66
G1 X89.556 Y137.839 E.00399
G1 X89.556 Y71.028 E2.0948
G1 X160.384 Y71.028 E2.22078
M204 S1000
G1 X160.337 Y71.414 F10800
;WIPE_START
G1 F8640
G1 X160.387 Y74.32 E-.76
;WIPE_END
G1 E-.04 F2100
G1 Z.6 F720
G1 X159.189 Y71.518 F10800
G1 Z.2 F720
G1 E.8 F2100
M204 S800
;TYPE:Solid infill
;WIDTH:0.421457
G1 F1200
G1 X159.784 Y72.114 E.02652
G1 X159.784 Y72.649 E.01685
G1 X158.823 Y71.688 E.04279
G1 X158.288 Y71.688 E.01685
G1 X159.784 Y73.185 E.06662
G1 X159.784 Y73.72 E.01685
G1 X157.752 Y71.688 E.09045
G1 X157.217 Y71.688 E.01685
G1 X159.784 Y74.255 E.11428
G1 X159.784 Y74.791 E.01685
G1 X156.682 Y71.688 E.13811
G1 X156.146 Y71.688 E.01685
G1 X159.784 Y75.326 E.16194
G1 X159.784 Y75.861 E.01685
G1 X155.611 Y71.688 E.18577
G1 X155.076 Y71.688 E.01685
G1 X159.784 Y76.397 E.2096
G1 X159.784 Y76.932 E.01685
G1 X154.54 Y71.688 E.23343
G1 X154.005 Y71.688 E.01685
G1 X159.784 Y77.467 E.25725
G1 X159.784 Y78.003 E.01685
G1 X153.47 Y71.688 E.28108
G1 X152.934 Y71.688 E.01685
G1 X159.784 Y78.538 E.30491
G1 X159.784 Y79.073 E.01685
G1 X152.399 Y71.688 E.32874
G1 X151.864 Y71.688 E.01685
G1 X159.784 Y79.609 E.35257
G1 X159.784 Y80.144 E.01685
G1 X151.328 Y71.688 E.3764
G1 X150.793 Y71.688 E.01685
G1 X159.784 Y80.679 E.40023
G1 X159.784 Y81.215 E.01685
G1 X150.258 Y71.688 E.42406
G1 X149.722 Y71.688 E.01685
G1 X159.784 Y81.75 E.44789
G1 X159.784 Y82.285 E.01685
G1 X149.187 Y71.688 E.47172
G1 X148.652 Y71.688 E.01685
G1 X159.784 Y82.821 E.49555
G1 X159.784 Y83.356 E.01685
G1 X148.116 Y71.688 E.51938
G1 X147.581 Y71.688 E.01685
G1 X159.784 Y83.891 E.54321
G1 X159.784 Y84.427 E.01685
G1 X147.046 Y71.688 E.56704
G1 X146.51 Y71.688 E.01685
G1 X159.784 Y84.962 E.59086
G1 X159.784 Y85.497 E.01685
G1 X145.975 Y71.688 E.61469
G1 X145.44 Y71.688 E.01685
G1 X159.784 Y86.033 E.63852
G1 X159.784 Y86.568 E.01685
G1 X144.904 Y71.688 E.66235
G1 X144.369 Y71.688 E.01685
G1 X159.784 Y87.103 E.68618
G1 X159.784 Y87.639 E.01685
G1 X143.834 Y71.688 E.71001
G1 X143.298 Y71.688 E.01685
G1 X159.784 Y88.174 E.73384
G1 X159.784 Y88.709 E.01685
G1 X142.763 Y71.688 E.75767
G1 X142.228 Y71.688 E.01685
G1 X159.784 Y89.245 E.7815
G1 X159.784 Y89.78 E.01685
G1 X141.692 Y71.688 E.80533
G1 X141.157 Y71.688 E.01685
G1 X159.784 Y90.315 E.82916
G1 X159.784 Y90.851 E.01685
G1 X140.622 Y71.688 E.85299
G1 X140.086 Y71.688 E.01685
G1 X159.784 Y91.386 E.87682
G1 X159.784 Y91.921 E.01685
M73 P1 R64
G1 X139.551 Y71.688 E.90065
G1 X139.016 Y71.688 E.01685
M73 P2 R64
G1 X159.784 Y92.457 E.92447
G1 X159.784 Y92.992 E.01685
M73 Q2 S66
G1 X138.48 Y71.688 E.9483
G1 X137.945 Y71.688 E.01685
G1 X159.784 Y93.527 E.97213
G1 X159.784 Y94.063 E.01685
G1 X137.41 Y71.688 E.99596
G1 X136.874 Y71.688 E.01685
G1 X159.784 Y94.598 E1.01979
G1 X159.784 Y95.133 E.01685
G1 X136.339 Y71.688 E1.04362
G1 X135.804 Y71.688 E.01685
G1 X159.784 Y95.669 E1.06745
G1 X159.784 Y96.204 E.01685
G1 X135.268 Y71.688 E1.09128
G1 X134.733 Y71.688 E.01685
G1 X159.784 Y96.739 E1.11511
G1 X159.784 Y97.275 E.01685
G1 X134.198 Y71.688 E1.13894
G1 X133.662 Y71.688 E.01685
G1 X159.784 Y97.81 E1.16277
G1 X159.784 Y98.345 E.01685
G1 X133.127 Y71.688 E1.1866
G1 X132.592 Y71.688 E.01685
M73 Q2 S65
G1 X159.784 Y98.881 E1.21043
G1 X159.784 Y99.416 E.01685
G1 X132.056 Y71.688 E1.23425
G1 X131.521 Y71.688 E.01685
G1 X159.784 Y99.951 E1.25808
G1 X159.784 Y100.487 E.01685
G1 X130.986 Y71.688 E1.28191
G1 X130.45 Y71.688 E.01685
G1 X159.784 Y101.022 E1.30574
G1 X159.784 Y101.557 E.01685
G1 X129.915 Y71.688 E1.32957
G1 X129.38 Y71.688 E.01685
G1 X159.784 Y102.093 E1.3534
G1 X159.784 Y102.628 E.01685
G1 X128.844 Y71.688 E1.37723
G1 X128.309 Y71.688 E.01685
G1 X159.784 Y103.163 E1.40106
G1 X159.784 Y103.699 E.01685
M73 P3 R64
G1 X127.774 Y71.688 E1.42489
G1 X127.238 Y71.688 E.01685
M73 Q3 S65
G1 X159.784 Y104.234 E1.44872
G1 X159.784 Y104.769 E.01685
G1 X126.703 Y71.688 E1.47255
G1 X126.168 Y71.688 E.01685
G1 X159.784 Y105.305 E1.49638
G1 X159.784 Y105.84 E.01685
G1 X125.632 Y71.688 E1.52021
G1 X125.097 Y71.688 E.01685
G1 X159.784 Y106.375 E1.54404
G1 X159.784 Y106.911 E.01685
G1 X124.562 Y71.688 E1.56786
G1 X124.026 Y71.688 E.01685
G1 X159.784 Y107.446 E1.59169
G1 X159.784 Y107.981 E.01685
M73 P3 R63
G1 X123.491 Y71.688 E1.61552
G1 X122.956 Y71.688 E.01685
G1 X159.784 Y108.517 E1.63935
G1 X159.784 Y109.052 E.01685
G1 X122.42 Y71.688 E1.66318
G1 X121.885 Y71.688 E.01685
G1 X159.784 Y109.587 E1.68701
G1 X159.784 Y110.123 E.01685
G1 X121.35 Y71.688 E1.71084
G1 X120.814 Y71.688 E.01685
G1 X159.784 Y110.658 E1.73467
G1 X159.784 Y111.193 E.01685
G1 X120.279 Y71.688 E1.7585
G1 X119.744 Y71.688 E.01685
G1 X159.784 Y111.729 E1.78233
G1 X159.784 Y112.264 E.01685
M73 P4 R63
M73 Q3 S64
G1 X119.208 Y71.688 E1.80616
G1 X118.673 Y71.688 E.01685
M73 Q4 S64
G1 X159.784 Y112.799 E1.82999
G1 X159.784 Y113.335 E.01685
G1 X118.138 Y71.688 E1.85382
G1 X117.602 Y71.688 E.01685
G1 X159.784 Y113.87 E1.87765
G1 X159.784 Y114.405 E.01685
G1 X117.067 Y71.688 E1.90147
G1 X116.532 Y71.688 E.01685
G1 X159.784 Y114.941 E1.9253
G1 X159.784 Y115.476 E.01685
G1 X115.997 Y71.688 E1.94913
G1 X115.461 Y71.688 E.01685
G1 X159.784 Y116.011 E1.97296
G1 X159.784 Y116.547 E.01685
G1 X114.926 Y71.688 E1.99679
G1 X114.391 Y71.688 E.01685
G1 X159.784 Y117.082 E2.02062
G1 X159.784 Y117.617 E.01685
G1 X113.855 Y71.688 E2.04445
G1 X113.32 Y71.688 E.01685
G1 X159.784 Y118.153 E2.06828
G1 X159.784 Y118.688 E.01685
M73 P4 R62
G1 X112.785 Y71.688 E2.09211
G1 X112.249 Y71.688 E.01685
M73 P5 R62
G1 X159.784 Y119.223 E2.11594
G1 X159.784 Y119.759 E.01685
M73 Q5 S64
G1 X111.714 Y71.688 E2.13977
G1 X111.179 Y71.688 E.01685
G1 X159.784 Y120.294 E2.1636
G1 X159.784 Y120.829 E.01685
G1 X110.643 Y71.688 E2.18743
G1 X110.108 Y71.688 E.01685
G1 X159.784 Y121.365 E2.21125
G1 X159.784 Y121.9 E.01685
G1 X109.573 Y71.688 E2.23508
G1 X109.037 Y71.688 E.01685
M73 Q5 S63
G1 X159.784 Y122.435 E2.25891
G1 X159.784 Y122.971 E.01685
G1 X108.502 Y71.688 E2.28274
G1 X107.967 Y71.688 E.01685
G1 X159.784 Y123.506 E2.30657
G1 X159.784 Y124.041 E.01685
G1 X107.431 Y71.688 E2.3304
G1 X106.896 Y71.688 E.01685
G1 X159.784 Y124.577 E2.35423
G1 X159.784 Y125.112 E.01685
M73 P6 R62
G1 X106.361 Y71.688 E2.37806
G1 X105.825 Y71.688 E.01685
M73 Q6 S63
G1 X159.784 Y125.647 E2.40189
G1 X159.784 Y126.183 E.01685
G1 X105.29 Y71.688 E2.42572
G1 X104.755 Y71.688 E.01685
G1 X159.784 Y126.718 E2.44955
G1 X159.784 Y127.253 E.01685
G1 X104.219 Y71.688 E2.47338
G1 X103.684 Y71.688 E.01685
M73 P6 R61
G1 X159.784 Y127.789 E2.49721
G1 X159.784 Y128.324 E.01685
G1 X103.149 Y71.688 E2.52104
G1 X102.613 Y71.688 E.01685
G1 X159.784 Y128.859 E2.54486
G1 X159.784 Y129.395 E.01685
G1 X102.078 Y71.688 E2.56869
G1 X101.543 Y71.688 E.01685
G1 X159.784 Y129.93 E2.59252
G1 X159.784 Y130.465 E.01685
M73 P7 R61
M73 Q6 S62
G1 X101.007 Y71.688 E2.61635
G1 X100.472 Y71.688 E.01685
M73 Q7 S62
G1 X159.784 Y131.001 E2.64018
G1 X159.784 Y131.536 E.01685
G1 X99.937 Y71.688 E2.66401
G1 X99.401 Y71.688 E.01685
G1 X159.784 Y132.071 E2.68784
G1 X159.784 Y132.607 E.01685
G1 X98.866 Y71.688 E2.71167
G1 X98.331 Y71.688 E.01685
G1 X159.784 Y133.142 E2.7355
G1 X159.784 Y133.677 E.01685
G1 X97.795 Y71.688 E2.75933
G1 X97.26 Y71.688 E.01685
G1 X159.784 Y134.213 E2.78316
G1 X159.784 Y134.748 E.01685
G1 X96.725 Y71.688 E2.80699
G1 X96.189 Y71.688 E.01685
M73 P8 R60
G1 X159.784 Y135.283 E2.83082
G1 X159.784 Y135.819 E.01685
M73 Q8 S62
G1 X95.654 Y71.688 E2.85465
G1 X95.119 Y71.688 E.01685
G1 X159.784 Y136.354 E2.87847
G1 X159.784 Y136.889 E.01685
G1 X94.583 Y71.688 E2.9023
G1 X94.048 Y71.688 E.01685
G1 X159.699 Y137.34 E2.92235
G1 X159.164 Y137.34 E.01685
M73 Q8 S61
G1 X93.513 Y71.688 E2.92235
G1 X92.977 Y71.688 E.01685
G1 X158.629 Y137.34 E2.92235
G1 X158.093 Y137.34 E.01685
G1 X92.442 Y71.688 E2.92235
G1 X91.907 Y71.688 E.01685
G1 X157.558 Y137.34 E2.92235
G1 X157.023 Y137.34 E.01685
M73 P9 R60
G1 X91.371 Y71.688 E2.92235
G1 X90.836 Y71.688 E.01685
M73 Q9 S61
G1 X156.487 Y137.34 E2.92235
G1 X155.952 Y137.34 E.01685
G1 X90.301 Y71.688 E2.92235
G1 X90.216 Y71.688 E.00267
G1 X90.216 Y72.138 E.01418
G1 X155.417 Y137.34 E2.9023
G1 X154.881 Y137.34 E.01685
M73 P9 R59
G1 X90.216 Y72.674 E2.87847
G1 X90.216 Y73.209 E.01685
G1 X154.346 Y137.34 E2.85464
G1 X153.811 Y137.34 E.01685
G1 X90.216 Y73.744 E2.83081
G1 X90.216 Y74.28 E.01685
G1 X153.275 Y137.34 E2.80699
G1 X152.74 Y137.34 E.01685
M73 P10 R59
G1 X90.216 Y74.815 E2.78316
G1 X90.216 Y75.35 E.01685
M73 Q9 S60
G1 X152.205 Y137.34 E2.75933
G1 X151.669 Y137.34 E.01685
M73 Q10 S60
G1 X90.216 Y75.886 E2.7355
G1 X90.216 Y76.421 E.01685
G1 X151.134 Y137.34 E2.71167
G1 X150.599 Y137.34 E.01685
G1 X90.216 Y76.956 E2.68784
G1 X90.216 Y77.492 E.01685
G1 X150.063 Y137.34 E2.66401
G1 X149.528 Y137.34 E.01685
G1 X90.216 Y78.027 E2.64018
G1 X90.216 Y78.562 E.01685
G1 X148.993 Y137.34 E2.61635
G1 X148.457 Y137.34 E.01685
G1 X90.216 Y79.098 E2.59252
G1 X90.216 Y79.633 E.01685
M73 P11 R58
G1 X147.922 Y137.34 E2.56869
G1 X147.387 Y137.34 E.01685
G1 X90.216 Y80.168 E2.54486
G1 X90.216 Y80.704 E.01685
G1 X146.851 Y137.34 E2.52103
G1 X146.316 Y137.34 E.01685
M73 Q11 S60
G1 X90.216 Y81.239 E2.4972
G1 X90.216 Y81.774 E.01685
G1 X145.781 Y137.34 E2.47338
G1 X145.245 Y137.34 E.01685
G1 X90.216 Y82.31 E2.44955
G1 X90.216 Y82.845 E.01685
M73 Q11 S59
G1 X144.71 Y137.34 E2.42572
G1 X144.175 Y137.34 E.01685
G1 X90.216 Y83.38 E2.40189
G1 X90.216 Y83.916 E.01685
G1 X143.639 Y137.34 E2.37806
G1 X143.104 Y137.34 E.01685
G1 X90.216 Y84.451 E2.35423
G1 X90.216 Y84.986 E.01685
G1 X142.569 Y137.34 E2.3304
M73 P12 R58
G1 X142.033 Y137.34 E.01685
G1 X90.216 Y85.522 E2.30657
G1 X90.216 Y86.057 E.01685
G1 X141.498 Y137.34 E2.28274
G1 X140.963 Y137.34 E.01685
M73 Q12 S59
G1 X90.216 Y86.592 E2.25891
G1 X90.216 Y87.128 E.01685
G1 X140.427 Y137.34 E2.23508
G1 X139.892 Y137.34 E.01685
G1 X90.216 Y87.663 E2.21125
G1 X90.216 Y88.198 E.01685
M73 P12 R57
G1 X139.357 Y137.34 E2.18742
G1 X138.821 Y137.34 E.01685
G1 X90.216 Y88.734 E2.1636
G1 X90.216 Y89.269 E.01685
G1 X138.286 Y137.34 E2.13977
G1 X137.751 Y137.34 E.01685
G1 X90.216 Y89.804 E2.11594
G1 X90.216 Y90.34 E.01685
G1 X137.215 Y137.34 E2.09211
G1 X136.68 Y137.34 E.01685
G1 X90.216 Y90.875 E2.06828
G1 X90.216 Y91.41 E.01685
M73 P13 R57
G1 X136.145 Y137.34 E2.04445
G1 X135.609 Y137.34 E.01685
M73 Q12 S58
G1 X90.216 Y91.946 E2.02062
G1 X90.216 Y92.481 E.01685
G1 X135.074 Y137.34 E1.99679
G1 X134.539 Y137.34 E.01685
M73 Q13 S58
G1 X90.216 Y93.016 E1.97296
G1 X90.216 Y93.552 E.01685
G1 X134.003 Y137.34 E1.94913
G1 X133.468 Y137.34 E.01685
G1 X90.216 Y94.087 E1.9253
G1 X90.216 Y94.622 E.01685
G1 X132.933 Y137.34 E1.90147
G1 X132.397 Y137.34 E.01685
G1 X90.216 Y95.158 E1.87764
G1 X90.216 Y95.693 E.01685
G1 X131.862 Y137.34 E1.85381
G1 X131.327 Y137.34 E.01685
G1 X90.216 Y96.228 E1.82999
G1 X90.216 Y96.764 E.01685
G1 X130.791 Y137.34 E1.80616
G1 X130.256 Y137.34 E.01685
G1 X90.216 Y97.299 E1.78233
G1 X90.216 Y97.834 E.01685
G1 X129.721 Y137.34 E1.7585
G1 X129.185 Y137.34 E.01685
M73 P14 R56
G1 X90.216 Y98.37 E1.73467
G1 X90.216 Y98.905 E.01685
G1 X128.65 Y137.34 E1.71084
G1 X128.115 Y137.34 E.01685
G1 X90.216 Y99.44 E1.68701
G1 X90.216 Y99.976 E.01685
G1 X127.579 Y137.34 E1.66318
G1 X127.044 Y137.34 E.01685
M73 Q14 S58
G1 X90.216 Y100.511 E1.63935
G1 X90.216 Y101.046 E.01685
G1 X126.509 Y137.34 E1.61552
G1 X125.973 Y137.34 E.01685
G1 X90.216 Y101.582 E1.59169
G1 X90.216 Y102.117 E.01685
G1 X125.438 Y137.34 E1.56786
G1 X124.903 Y137.34 E.01685
M73 Q14 S57
G1 X90.216 Y102.652 E1.54403
G1 X90.216 Y103.188 E.01685
G1 X124.367 Y137.34 E1.5202
G1 X123.832 Y137.34 E.01685
G1 X90.216 Y103.723 E1.49638
G1 X90.216 Y104.258 E.01685
G1 X123.297 Y137.34 E1.47255
G1 X122.762 Y137.34 E.01685
G1 X90.216 Y104.794 E1.44872
G1 X90.216 Y105.329 E.01685
G1 X122.226 Y137.34 E1.42489
G1 X121.691 Y137.34 E.01685
G1 X90.216 Y105.864 E1.40106
G1 X90.216 Y106.4 E.01685
M73 P15 R56
G1 X121.156 Y137.34 E1.37723
G1 X120.62 Y137.34 E.01685
G1 X90.216 Y106.935 E1.3534
G1 X90.216 Y107.47 E.01685
G1 X120.085 Y137.34 E1.32957
G1 X119.55 Y137.34 E.01685
G1 X90.216 Y108.006 E1.30574
G1 X90.216 Y108.541 E.01685
G1 X119.014 Y137.34 E1.28191
G1 X118.479 Y137.34 E.01685
G1 X90.216 Y109.076 E1.25808
G1 X90.216 Y109.612 E.01685
M73 Q15 S57
G1 X117.944 Y137.34 E1.23425
G1 X117.408 Y137.34 E.01685
G1 X90.216 Y110.147 E1.21042
G1 X90.216 Y110.682 E.01685
G1 X116.873 Y137.34 E1.1866
G1 X116.338 Y137.34 E.01685
G1 X90.216 Y111.218 E1.16277
G1 X90.216 Y111.753 E.01685
M73 P15 R55
G1 X115.802 Y137.34 E1.13894
G1 X115.267 Y137.34 E.01685
G1 X90.216 Y112.288 E1.11511
G1 X90.216 Y112.824 E.01685
G1 X114.732 Y137.34 E1.09128
G1 X114.196 Y137.34 E.01685
G1 X90.216 Y113.359 E1.06745
G1 X90.216 Y113.894 E.01685
G1 X113.661 Y137.34 E1.04362
G1 X113.126 Y137.34 E.01685
G1 X90.216 Y114.43 E1.01979
G1 X90.216 Y114.965 E.01685
G1 X112.59 Y137.34 E.99596
G1 X112.055 Y137.34 E.01685
G1 X90.216 Y115.5 E.97213
G1 X90.216 Y116.036 E.01685
G1 X111.52 Y137.34 E.9483
