; generated by PrusaSlicer 2.5.0+win64 on 2022-12-12 at 04:42:09 UTC


;
;
; 

; external perimeters extrusion width = 0.60mm
; perimeters extrusion width = 0.50mm
; infill extrusion width = 0.50mm
; solid infill extrusion width = 0.50mm
; top infill extrusion width = 0.45mm
; support material extrusion width = 0.38mm
; first layer extrusion width = 0.42mm

M73 P0 R294
M73 Q0 S295
M201 X1000 Y1000 Z200 E5000 ; sets maximum accelerations, mm/sec^2
M203 X200 Y200 Z12 E120 ; sets maximum feedrates, mm / sec
M204 P1250 R1250 T1250 ; sets acceleration (P, T) and retract acceleration (R), mm/sec^2
M205 X8.00 Y8.00 Z0.40 E4.50 ; sets the jerk limits, mm/sec
M205 S0 T0 ; sets the minimum extruding and travel feed rate, mm/sec
M107
;TYPE:Custom
M862.3 P "MK3S" ; printer model check
M862.1 P0.4 ; nozzle diameter check
M115 U3.11.0 ; tell printer latest fw version
G90 ; use absolute coordinates
M83 ; extruder relative mode
M104 S215 ; set extruder temp
M140 S60 ; set bed temp
M190 S60 ; wait for bed temp
M109 S215 ; wait for extruder temp
G28 W ; home all without mesh bed level
G80 ; mesh bed leveling

G1 Z0.2 F720
G1 Y-3 F1000 ; go outside print area
G92 E0
G1 X60 E9 F1000 ; intro line
G1 X100 E12.5 F1000 ; intro line

G92 E0
M221 S95

; Don't change E values below. Excessive value can damage the printer.

M907 E538 ; set extruder motor current
G21 ; set units to millimeters
G90 ; use absolute coordinates
M83 ; use relative distances for extrusion
M900 K0.05 ; Filament gcode LA 1.5
M900 K30 ; Filament gcode LA 1.0
M107
;LAYER_CHANGE
;Z:0.2
;HEIGHT:0.2
;BEFORE_LAYER_CHANGE
G92 E0.0
;0.2


G1 E-.8 F2100
G1 Z.4 F720
;AFTER_LAYER_CHANGE
;0.2
G1 X78.806 Y44.673 F10800
G1 Z.2 F720
G1 E.8 F2100
M204 S800
;TYPE:Skirt/Brim
;WIDTH:0.42
G1 F1200
G1 X81.437 Y42.372 E.10959
G1 X83.002 Y41.785 E.0524
G1 X93.285 Y41.786 E.32243
G1 X169.385 Y44.101 E2.38716
G1 X170.679 Y44.533 E.04278
G1 X171.523 Y45.604 E.04278
G1 X171.685 Y46.337 E.02353
M73 P0 R293
G1 X172.001 Y51.819 E.17217
G1 X169.373 Y165.893 E3.57765
G1 X168.952 Y167.191 E.04278
G1 X167.886 Y168.043 E.04278
G1 X166.997 Y168.215 E.0284
G1 X156.713 Y168.214 E.32243
G1 X80.614 Y165.899 E2.38716
G1 X79.319 Y165.467 E.04278
G1 X78.475 Y164.395 E.04278
G1 X78.312 Y163.642 E.02417
G1 X78.043 Y158.238 E.16966
G1 X77.993 Y46.462 E3.50464
G1 X78.781 Y44.727 E.05974
M204 S1000
; printing object Screen-box.stl id:0 copy 0
;WIPE_START
G1 F8640
G1 X81.244 Y42.544 E-.76
;WIPE_END
G1 E-.04 F2100
G1 Z.6 F720
G1 X83.592 Y47.109 F10800
G1 Z.2 F720
G1 E.8 F2100
M204 S800
;TYPE:Support material interface
;WIDTH:0.38
G1 F1200
G1 X83.318 Y47.109 E.00768
G1 X83.318 Y48.801 E.04741
G1 X83.363 Y48.758 E.00175
G1 X83.75 Y48.769 E.01083
G1 X83.75 Y47.109 E.04652
G1 X84.265 Y47.109 E.01445
G1 X84.265 Y48.784 E.04694
G1 X84.781 Y48.799 E.01446
G1 X84.781 Y47.109 E.04736
G1 X85.296 Y47.109 E.01445
G1 X85.296 Y125.841 E2.2067
G1 X84.781 Y125.841 E.01445
G1 X84.781 Y60.478 E1.83201
G1 X85.044 Y51.356 E.25576
M204 S1000
;WIPE_START
G1 F8640
G1 X84.949 Y54.646 E-.76
;WIPE_END
G1 E-.04 F2100
G1 Z.6 F720
G1 X84.651 Y49.163 F10800
G1 Z.2 F720
G1 E.8 F2100
M204 S800
;TYPE:Support material
;WIDTH:0.42
G1 F1200
G1 X84.737 Y49.254 E.00389
G1 X83.002 Y109.401 E1.88665
G1 X83.002 Y98.129 E.35342
G1 X84.414 Y49.157 E1.53613
G1 X84.595 Y49.162 E.00566
M204 S1000
;WIPE_START
G1 F8640
G1 X84.414 Y49.157 E-.04171
G1 X84.325 Y52.266 E-.71829
;WIPE_END
G1 E-.04 F2100
G1 Z.6 F720
G1 X85.454 Y47.109 F10800
G1 Z.2 F720
G1 E.8 F2100
M204 S800
;TYPE:Support material interface
;WIDTH:0.38
G1 F1200
G1 X85.634 Y47.109 E.00503
G1 X85.634 Y125.841 E2.2067
G1 X85.454 Y125.841 E.00503
M204 S1000
;WIPE_START
M73 Q0 S294
G1 F8640
G1 X85.634 Y125.841 E-.04141
G1 X85.634 Y122.729 E-.71859
;WIPE_END
G1 E-.04 F2100
G1 Z.6 F720
G1 X82.718 Y131.975 F10800
G1 Z.2 F720
G1 E.8 F2100
M204 S800
G1 F1200
G1 X82.718 Y160.575 E.80159
G1 X83.234 Y160.575 E.01445
G1 X83.234 Y114.101 E1.30258
G1 X83.497 Y104.98 E.25576
M204 S1000
;WIPE_START
G1 F8640
G1 X83.402 Y108.27 E-.76
;WIPE_END
G1 E-.04 F2100
G1 Z.6 F720
G1 X83.75 Y96.226 F10800
G1 Z.2 F720
G1 E.8 F2100
M204 S800
G1 F1200
G1 X83.75 Y125.841 E.83003
G1 X84.265 Y125.841 E.01445
G1 X84.265 Y78.352 E1.33102
G1 X84.528 Y69.231 E.25576
M204 S1000
;WIPE_START
G1 F8640
G1 X84.433 Y72.521 E-.76
;WIPE_END
G1 E-.04 F2100
G1 Z.6 F720
G1 X93.213 Y46.477 F10800
G1 Z.2 F720
G1 E.8 F2100
M204 S800
;TYPE:Support material
;WIDTH:0.42
G1 F1200
G1 X169.312 Y46.477 E2.38606
G1 X169.312 Y49.057 E.08089
G1 X166.312 Y49.057 E.09406
G1 X166.312 Y83.791 E1.08907
G1 X163.997 Y83.791 E.0726
G1 X163.997 Y163.258 E2.49163
G1 X166.997 Y163.258 E.09406
G1 X166.997 Y165.838 E.08089
G1 X156.786 Y165.838 E.32016
G1 X156.786 Y163.523 E.0726
G1 X80.686 Y163.523 E2.38606
G1 X80.686 Y160.943 E.08089
M73 P0 R292
G1 X83.686 Y160.943 E.09406
G1 X83.686 Y126.208 E1.08907
G1 X86.002 Y126.208 E.0726
G1 X86.002 Y46.742 E2.49163
G1 X82.95 Y46.742 E.09568
G1 X82.95 Y49.462 E.0853
G1 X82.987 Y49.462 E.00117
G1 X82.87 Y53.538 E.12784
G1 X80.37 Y53.502 E.07838
G1 X80.37 Y46.462 E.22072
G1 X83.002 Y46.462 E.0825
G1 X83.002 Y44.162 E.07213
G1 X93.213 Y44.162 E.32016
G1 X93.213 Y46.421 E.07083
M204 S1000
G1 X100.159 Y138.051 F10800
M204 S800
G1 F1200
G1 X100.159 Y148.365 E.32339
G1 X138.261 Y148.365 E1.19464
G1 X138.261 Y140.366 E.25078
G1 X122.051 Y140.366 E.50823
G1 X122.051 Y138.051 E.0726
G1 X100.216 Y138.051 E.68463
M204 S1000
;WIPE_START
G1 F8640
G1 X103.507 Y138.051 E-.76
;WIPE_END
G1 E-.04 F2100
G1 Z.6 F720
G1 X168.573 Y48.888 F10800
G1 Z.2 F720
G1 E.8 F2100
M204 S800
G1 F1200
G1 X168.573 Y46.817 E.06493
G1 X168.154 Y46.817 E.01314
G1 X168.154 Y48.718 E.05961
G1 X167.735 Y48.718 E.01314
G1 X167.735 Y46.817 E.05961
G1 X167.316 Y46.817 E.01314
G1 X167.316 Y48.718 E.05961
G1 X166.897 Y48.718 E.01314
G1 X166.897 Y46.817 E.05961
G1 X166.478 Y46.817 E.01314
G1 X166.478 Y48.718 E.05961
G1 X166.059 Y48.718 E.01314
G1 X166.059 Y46.817 E.05961
G1 X165.64 Y46.817 E.01314
G1 X165.64 Y83.452 E1.14868
G1 X165.221 Y83.452 E.01314
G1 X165.221 Y46.817 E1.14868
G1 X164.802 Y46.817 E.01314
G1 X164.802 Y83.452 E1.14868
G1 X164.383 Y83.452 E.01314
G1 X164.383 Y46.817 E1.14868
G1 X163.964 Y46.817 E.01314
G1 X163.964 Y83.452 E1.14868
G1 X163.657 Y83.452 E.00961
G1 X163.657 Y163.598 E2.51291
G1 X163.964 Y163.598 E.00961
G1 X163.964 Y165.499 E.05961
G1 X164.383 Y165.499 E.01314
G1 X164.383 Y163.598 E.05961
G1 X164.802 Y163.598 E.01314
G1 X164.802 Y165.499 E.05961
G1 X165.221 Y165.499 E.01314
G1 X165.221 Y163.598 E.05961
G1 X165.64 Y163.598 E.01314
G1 X165.64 Y165.499 E.05961
G1 X166.059 Y165.499 E.01314
G1 X166.059 Y163.598 E.05961
G1 X166.478 Y163.598 E.01314
G1 X166.478 Y165.669 E.06493
M204 S1000
G1 X163.545 Y165.669 F10800
M204 S800
G1 F1200
G1 X163.545 Y46.817 E3.72651
G1 X163.126 Y46.817 E.01314
M73 Q0 S293
G1 X163.126 Y165.499 E3.72119
G1 X162.707 Y165.499 E.01314
G1 X162.707 Y46.817 E3.72119
G1 X162.288 Y46.817 E.01314
G1 X162.288 Y165.499 E3.72119
G1 X161.869 Y165.499 E.01314
G1 X161.869 Y46.817 E3.72119
G1 X161.45 Y46.817 E.01314
M73 P0 R291
G1 X161.45 Y165.499 E3.72119
G1 X161.031 Y165.499 E.01314
G1 X161.031 Y46.817 E3.72119
G1 X160.612 Y46.817 E.01314
G1 X160.612 Y165.499 E3.72119
G1 X160.193 Y165.499 E.01314
G1 X160.193 Y46.817 E3.72119
G1 X159.774 Y46.817 E.01314
G1 X159.774 Y165.499 E3.72119
G1 X159.355 Y165.499 E.01314
G1 X159.355 Y46.817 E3.72119
G1 X158.936 Y46.817 E.01314
M73 Q0 S292
G1 X158.936 Y165.499 E3.72119
G1 X158.517 Y165.499 E.01314
G1 X158.517 Y46.817 E3.72119
G1 X158.098 Y46.817 E.01314
M73 P1 R291
M73 Q1 S292
G1 X158.098 Y165.499 E3.72119
G1 X157.679 Y165.499 E.01314
G1 X157.679 Y46.817 E3.72119
G1 X157.26 Y46.817 E.01314
M73 P1 R290
G1 X157.26 Y165.499 E3.72119
G1 X157.125 Y165.499 E.00424
G1 X157.125 Y163.183 E.0726
G1 X156.841 Y163.183 E.0089
G1 X156.841 Y46.817 E3.64859
G1 X156.422 Y46.817 E.01314
G1 X156.422 Y163.183 E3.64859
G1 X156.003 Y163.183 E.01314
G1 X156.003 Y46.817 E3.64859
G1 X155.584 Y46.817 E.01314
G1 X155.584 Y163.183 E3.64859
G1 X155.165 Y163.183 E.01314
G1 X155.165 Y46.817 E3.64859
G1 X154.747 Y46.817 E.01314
M73 Q1 S291
G1 X154.746 Y163.183 E3.64859
G1 X154.328 Y163.183 E.01314
G1 X154.328 Y46.817 E3.64859
G1 X153.909 Y46.817 E.01314
G1 X153.909 Y163.183 E3.64859
G1 X153.49 Y163.183 E.01314
G1 X153.49 Y46.817 E3.64859
G1 X153.071 Y46.817 E.01314
G1 X153.071 Y163.183 E3.64859
G1 X152.652 Y163.183 E.01314
M73 P1 R289
G1 X152.652 Y46.817 E3.64859
G1 X152.233 Y46.817 E.01314
G1 X152.233 Y163.183 E3.64859
G1 X151.814 Y163.183 E.01314
G1 X151.814 Y46.817 E3.64859
G1 X151.395 Y46.817 E.01314
G1 X151.395 Y163.183 E3.64859
G1 X150.976 Y163.183 E.01314
G1 X150.976 Y46.817 E3.64859
G1 X150.557 Y46.817 E.01314
M73 Q1 S290
G1 X150.557 Y163.183 E3.64859
G1 X150.138 Y163.183 E.01314
G1 X150.138 Y46.817 E3.64859
G1 X149.719 Y46.817 E.01314
G1 X149.719 Y163.183 E3.64859
G1 X149.3 Y163.183 E.01314
G1 X149.3 Y46.817 E3.64859
G1 X148.881 Y46.817 E.01314
G1 X148.881 Y163.183 E3.64859
G1 X148.462 Y163.183 E.01314
M73 P1 R288
G1 X148.462 Y46.817 E3.64859
G1 X148.043 Y46.817 E.01314
G1 X148.043 Y163.183 E3.64859
G1 X147.624 Y163.183 E.01314
G1 X147.624 Y46.817 E3.64859
G1 X147.205 Y46.817 E.01314
G1 X147.205 Y163.183 E3.64859
G1 X146.786 Y163.183 E.01314
G1 X146.786 Y46.817 E3.64859
G1 X146.367 Y46.817 E.01314
G1 X146.367 Y163.183 E3.64859
G1 X145.948 Y163.183 E.01314
M73 Q1 S289
G1 X145.948 Y46.817 E3.64859
G1 X145.529 Y46.817 E.01314
M73 P2 R288
M73 Q2 S289
G1 X145.529 Y163.183 E3.64859
G1 X145.11 Y163.183 E.01314
G1 X145.11 Y46.817 E3.64859
G1 X144.691 Y46.817 E.01314
G1 X144.691 Y163.183 E3.64859
G1 X144.272 Y163.183 E.01314
M73 P2 R287
G1 X144.272 Y46.817 E3.64859
G1 X143.853 Y46.817 E.01314
G1 X143.853 Y163.183 E3.64859
G1 X143.434 Y163.183 E.01314
G1 X143.434 Y46.817 E3.64859
G1 X143.015 Y46.817 E.01314
G1 X143.015 Y163.183 E3.64859
G1 X142.596 Y163.183 E.01314
G1 X142.596 Y46.817 E3.64859
G1 X142.177 Y46.817 E.01314
G1 X142.177 Y163.183 E3.64859
G1 X141.758 Y163.183 E.01314
M73 Q2 S288
G1 X141.758 Y46.817 E3.64859
G1 X141.339 Y46.817 E.01314
G1 X141.339 Y163.183 E3.64859
G1 X140.92 Y163.183 E.01314
G1 X140.92 Y46.817 E3.64859
G1 X140.501 Y46.817 E.01314
G1 X140.501 Y163.183 E3.64859
G1 X140.082 Y163.183 E.01314
M73 P2 R286
G1 X140.082 Y46.817 E3.64859
G1 X139.663 Y46.817 E.01314
G1 X139.663 Y163.183 E3.64859
G1 X139.244 Y163.183 E.01314
G1 X139.244 Y46.817 E3.64859
G1 X138.825 Y46.817 E.01314
G1 X138.825 Y163.183 E3.64859
G1 X138.406 Y163.183 E.01314
G1 X138.406 Y148.704 E.45398
G1 X137.987 Y148.704 E.01314
G1 X137.987 Y163.183 E.45398
G1 X137.568 Y163.183 E.01314
G1 X137.568 Y148.704 E.45398
G1 X137.149 Y148.704 E.01314
G1 X137.149 Y163.183 E.45398
G1 X136.73 Y163.183 E.01314
G1 X136.73 Y148.704 E.45398
G1 X136.312 Y148.704 E.01314
G1 X136.312 Y163.183 E.45398
G1 X135.893 Y163.183 E.01314
G1 X135.893 Y148.704 E.45398
G1 X135.474 Y148.704 E.01314
G1 X135.474 Y163.183 E.45398
G1 X135.055 Y163.183 E.01314
G1 X135.055 Y148.704 E.45398
G1 X134.636 Y148.704 E.01314
G1 X134.636 Y163.183 E.45398
G1 X134.217 Y163.183 E.01314
G1 X134.217 Y148.704 E.45398
G1 X133.798 Y148.704 E.01314
G1 X133.798 Y163.183 E.45398
G1 X133.379 Y163.183 E.01314
M73 Q2 S287
G1 X133.379 Y148.704 E.45398
G1 X132.96 Y148.704 E.01314
G1 X132.96 Y163.183 E.45398
G1 X132.541 Y163.183 E.01314
G1 X132.541 Y148.704 E.45398
G1 X132.122 Y148.704 E.01314
G1 X132.122 Y163.183 E.45398
G1 X131.703 Y163.183 E.01314
G1 X131.703 Y148.704 E.45398
G1 X131.284 Y148.704 E.01314
G1 X131.284 Y163.183 E.45398
G1 X130.865 Y163.183 E.01314
G1 X130.865 Y148.704 E.45398
G1 X130.446 Y148.704 E.01314
G1 X130.446 Y163.183 E.45398
G1 X130.027 Y163.183 E.01314
G1 X130.027 Y148.704 E.45398
G1 X129.608 Y148.704 E.01314
G1 X129.608 Y163.183 E.45398
G1 X129.189 Y163.183 E.01314
G1 X129.189 Y148.704 E.45398
G1 X128.77 Y148.704 E.01314
G1 X128.77 Y163.183 E.45398
G1 X128.351 Y163.183 E.01314
G1 X128.351 Y148.704 E.45398
G1 X127.932 Y148.704 E.01314
G1 X127.932 Y163.183 E.45398
G1 X127.513 Y163.183 E.01314
G1 X127.513 Y148.704 E.45398
G1 X127.094 Y148.704 E.01314
G1 X127.094 Y163.183 E.45398
G1 X126.675 Y163.183 E.01314
G1 X126.675 Y148.704 E.45398
G1 X126.256 Y148.704 E.01314
G1 X126.256 Y163.183 E.45398
G1 X125.837 Y163.183 E.01314
G1 X125.837 Y148.704 E.45398
G1 X125.418 Y148.704 E.01314
G1 X125.418 Y163.183 E.45398
G1 X124.999 Y163.183 E.01314
G1 X124.999 Y148.704 E.45398
G1 X124.58 Y148.704 E.01314
G1 X124.58 Y163.183 E.45398
G1 X124.161 Y163.183 E.01314
G1 X124.161 Y148.704 E.45398
G1 X123.742 Y148.704 E.01314
G1 X123.742 Y163.183 E.45398
G1 X123.323 Y163.183 E.01314
G1 X123.323 Y148.704 E.45398
G1 X122.904 Y148.704 E.01314
G1 X122.904 Y163.183 E.45398
G1 X122.485 Y163.183 E.01314
G1 X122.485 Y148.704 E.45398
G1 X122.066 Y148.704 E.01314
G1 X122.066 Y163.183 E.45398
G1 X121.647 Y163.183 E.01314
G1 X121.647 Y148.704 E.45398
G1 X121.228 Y148.704 E.01314
G1 X121.228 Y163.183 E.45398
G1 X120.809 Y163.183 E.01314
G1 X120.809 Y148.704 E.45398
G1 X120.39 Y148.704 E.01314
G1 X120.39 Y163.183 E.45398
G1 X119.971 Y163.183 E.01314
G1 X119.971 Y148.704 E.45398
G1 X119.552 Y148.704 E.01314
G1 X119.552 Y163.183 E.45398
G1 X119.133 Y163.183 E.01314
G1 X119.133 Y148.704 E.45398
G1 X118.714 Y148.704 E.01314
M73 P2 R285
G1 X118.714 Y163.183 E.45398
G1 X118.295 Y163.183 E.01314
G1 X118.295 Y148.704 E.45398
G1 X117.877 Y148.704 E.01314
G1 X117.877 Y163.183 E.45398
G1 X117.458 Y163.183 E.01314
G1 X117.458 Y148.704 E.45398
G1 X117.039 Y148.704 E.01314
G1 X117.039 Y163.183 E.45398
G1 X116.62 Y163.183 E.01314
G1 X116.62 Y148.704 E.45398
G1 X116.201 Y148.704 E.01314
G1 X116.201 Y163.183 E.45398
G1 X115.782 Y163.183 E.01314
G1 X115.782 Y148.704 E.45398
G1 X115.363 Y148.704 E.01314
G1 X115.363 Y163.183 E.45398
G1 X114.944 Y163.183 E.01314
G1 X114.944 Y148.704 E.45398
G1 X114.525 Y148.704 E.01314
G1 X114.525 Y163.183 E.45398
G1 X114.106 Y163.183 E.01314
G1 X114.106 Y148.704 E.45398
G1 X113.687 Y148.704 E.01314
G1 X113.687 Y163.183 E.45398
G1 X113.268 Y163.183 E.01314
G1 X113.268 Y148.704 E.45398
G1 X112.849 Y148.704 E.01314
G1 X112.849 Y163.183 E.45398
G1 X112.43 Y163.183 E.01314
G1 X112.43 Y148.704 E.45398
G1 X112.011 Y148.704 E.01314
G1 X112.011 Y163.183 E.45398
G1 X111.592 Y163.183 E.01314
G1 X111.592 Y148.704 E.45398
G1 X111.173 Y148.704 E.01314
G1 X111.173 Y163.183 E.45398
G1 X110.754 Y163.183 E.01314
G1 X110.754 Y148.704 E.45398
G1 X110.335 Y148.704 E.01314
G1 X110.335 Y163.183 E.45398
G1 X109.916 Y163.183 E.01314
G1 X109.916 Y148.704 E.45398
G1 X109.497 Y148.704 E.01314
G1 X109.497 Y163.183 E.45398
G1 X109.078 Y163.183 E.01314
G1 X109.078 Y148.704 E.45398
G1 X108.659 Y148.704 E.01314
G1 X108.659 Y163.183 E.45398
G1 X108.24 Y163.183 E.01314
G1 X108.24 Y148.704 E.45398
G1 X107.821 Y148.704 E.01314
G1 X107.821 Y163.183 E.45398
G1 X107.402 Y163.183 E.01314
G1 X107.402 Y148.704 E.45398
G1 X106.983 Y148.704 E.01314
G1 X106.983 Y163.183 E.45398
G1 X106.564 Y163.183 E.01314
G1 X106.564 Y148.704 E.45398
G1 X106.145 Y148.704 E.01314
G1 X106.145 Y163.183 E.45398
G1 X105.726 Y163.183 E.01314
G1 X105.726 Y148.704 E.45398
G1 X105.307 Y148.704 E.01314
G1 X105.307 Y163.183 E.45398
G1 X104.888 Y163.183 E.01314
G1 X104.888 Y148.704 E.45398
G1 X104.469 Y148.704 E.01314
G1 X104.469 Y163.183 E.45398
G1 X104.05 Y163.183 E.01314
G1 X104.05 Y148.704 E.45398
G1 X103.631 Y148.704 E.01314
G1 X103.631 Y163.183 E.45398
G1 X103.212 Y163.183 E.01314
G1 X103.212 Y148.704 E.45398
G1 X102.793 Y148.704 E.01314
G1 X102.793 Y163.183 E.45398
G1 X102.374 Y163.183 E.01314
G1 X102.374 Y148.704 E.45398
G1 X101.955 Y148.704 E.01314
G1 X101.955 Y163.183 E.45398
G1 X101.536 Y163.183 E.01314
G1 X101.536 Y148.704 E.45398
G1 X101.117 Y148.704 E.01314
G1 X101.117 Y163.183 E.45398
G1 X100.698 Y163.183 E.01314
G1 X100.698 Y148.704 E.45398
G1 X100.279 Y148.704 E.01314
M73 Q2 S286
G1 X100.279 Y163.183 E.45398
G1 X99.861 Y163.183 E.01314
G1 X99.861 Y46.817 E3.64859
G1 X100.279 Y46.817 E.01314
M73 P3 R285
M73 Q3 S286
G1 X100.279 Y137.711 E2.84994
G1 X100.698 Y137.711 E.01314
G1 X100.698 Y46.817 E2.84994
G1 X101.117 Y46.817 E.01314
