; generated by PrusaSlicer 2.5.0+win64 on 2022-12-12 at 04:39:08 UTC


;
;
; 

; external perimeters extrusion width = 0.45mm
; perimeters extrusion width = 0.45mm
; infill extrusion width = 0.45mm
; solid infill extrusion width = 0.45mm
; top infill extrusion width = 0.40mm
; first layer extrusion width = 0.42mm

M73 P0 R32
M73 Q0 S33
M201 X1000 Y1000 Z200 E5000 ; sets maximum accelerations, mm/sec^2
M203 X200 Y200 Z12 E120 ; sets maximum feedrates, mm / sec
M204 P1250 R1250 T1250 ; sets acceleration (P, T) and retract acceleration (R), mm/sec^2
M205 X8.00 Y8.00 Z0.40 E4.50 ; sets the jerk limits, mm/sec
M205 S0 T0 ; sets the minimum extruding and travel feed rate, mm/sec
M107
;TYPE:Custom
M862.3 P "MK3S" ; printer model check
M862.1 P0.4 ; nozzle diameter check
M115 U3.11.0 ; tell printer latest fw version
G90 ; use absolute coordinates
M83 ; extruder relative mode
M104 S215 ; set extruder temp
M140 S60 ; set bed temp
M190 S60 ; wait for bed temp
M109 S215 ; wait for extruder temp
G28 W ; home all without mesh bed level
G80 ; mesh bed leveling

G1 Z0.2 F720
G1 Y-3 F1000 ; go outside print area
G92 E0
G1 X60 E9 F1000 ; intro line
G1 X100 E12.5 F1000 ; intro line

G92 E0
M221 S95

; Don't change E values below. Excessive value can damage the printer.

M907 E538 ; set extruder motor current
G21 ; set units to millimeters
G90 ; use absolute coordinates
M83 ; use relative distances for extrusion
M900 K0.05 ; Filament gcode LA 1.5
M900 K30 ; Filament gcode LA 1.0
M107
;LAYER_CHANGE
;Z:0.2
;HEIGHT:0.2
;BEFORE_LAYER_CHANGE
G92 E0.0
;0.2


G1 E-.8 F2100
G1 Z.4 F720
;AFTER_LAYER_CHANGE
;0.2
G1 X100.778 Y68.468 F10800
G1 Z.2 F720
G1 E.8 F2100
M204 S800
;TYPE:Skirt/Brim
;WIDTH:0.42
G1 F1200
G1 X101.388 Y67.572 E.034
G1 X102.818 Y67.039 E.04787
G1 X143.218 Y65.862 E1.26724
G1 X144.536 Y66.215 E.04278
G1 X145.509 Y67.392 E.04787
G1 X170.249 Y132.339 E2.17912
G1 X170.348 Y133.7 E.04278
G1 X169.683 Y134.891 E.04278
G1 X168.853 Y135.415 E.03076
G1 X166.568 Y136.261 E.0764
G1 X159.498 Y138.585 E.23333
G1 X154.675 Y139.925 E.15695
G1 X147.463 Y141.571 E.23194
G1 X142.58 Y142.45 E.15557
G1 X137.624 Y143.152 E.15695
G1 X130.259 Y143.848 E.23195
G1 X125.259 Y144.087 E.15695
G1 X117.862 Y144.097 E.23195
G1 X112.905 Y143.873 E.15556
G1 X107.916 Y143.46 E.15695
G1 X100.58 Y142.509 E.23194
G1 X95.651 Y141.635 E.15695
G1 X88.392 Y139.996 E.23333
G1 X81.278 Y137.967 E.23195
G1 X80.143 Y137.211 E.04278
G1 X79.61 Y135.955 E.04278
G1 X79.706 Y134.978 E.03076
G1 X100.621 Y68.7 E2.17912
G1 X100.744 Y68.518 E.0069
M204 S1000
; printing object Screen-body-cover.stl id:0 copy 0
;WIPE_START
M73 P1 R32
M73 Q1 S33
G1 F8640
G1 X101.388 Y67.572 E-.26422
G1 X102.818 Y67.039 E-.3525
G1 X103.439 Y67.021 E-.14328
;WIPE_END
G1 E-.04 F2100
G1 Z.6 F720
G1 X103.405 Y70.393 F10800
G1 Z.2 F720
G1 E.8 F2100
M204 S800
;TYPE:Perimeter
;WIDTH:0.419999
G1 F1200
G1 X104.245 Y70.646 E.0275
G1 X105.793 Y71.067 E.05032
G1 X107.481 Y71.479 E.05447
G1 X109.182 Y71.843 E.05454
G1 X110.737 Y72.135 E.04962
G1 X112.4 Y72.4 E.0528
G1 X114.04 Y72.618 E.05186
G1 X115.7 Y72.792 E.05233
G1 X117.379 Y72.924 E.0528
G1 X119.031 Y73.008 E.05186
G1 X120.699 Y73.049 E.05233
G1 X122.386 Y73.045 E.0529
G1 X124.453 Y72.974 E.06485
G1 X125.703 Y72.904 E.03923
G1 X127.381 Y72.765 E.0528
G1 X129.04 Y72.582 E.05233
G1 X130.679 Y72.358 E.05186
G1 X132.341 Y72.084 E.05281
G1 X133.965 Y71.772 E.05186
G1 X135.511 Y71.432 E.04964
G1 X137.229 Y71.007 E.05549
G1 X138.838 Y70.561 E.05233
G1 X140.419 Y70.077 E.05185
G1 X142.004 Y69.545 E.05244
G1 X142.828 Y69.244 E.02751
G1 X167.009 Y132.723 E2.12985
G1 X165.476 Y133.291 E.05126
G1 X163.189 Y134.09 E.07595
G1 X160.888 Y134.846 E.07594
G1 X158.574 Y135.559 E.07594
G1 X156.246 Y136.229 E.07593
M73 P1 R31
G1 X153.907 Y136.855 E.07594
G1 X151.556 Y137.438 E.07594
G1 X149.194 Y137.977 E.07594
G1 X146.824 Y138.472 E.07594
G1 X144.444 Y138.923 E.07594
G1 X142.056 Y139.33 E.07594
G1 X139.661 Y139.692 E.07594
G1 X137.26 Y140.009 E.07594
G1 X134.854 Y140.282 E.07594
G1 X132.442 Y140.51 E.07595
G1 X130.027 Y140.693 E.07594
G1 X127.609 Y140.831 E.07594
G1 X125.189 Y140.924 E.07594
G1 X122.767 Y140.972 E.07594
G1 X120.345 Y140.975 E.07594
G1 X117.924 Y140.933 E.07594
G1 X115.503 Y140.846 E.07594
G1 X113.085 Y140.714 E.07593
G1 X110.669 Y140.537 E.07595
G1 X108.258 Y140.315 E.07594
G1 X105.85 Y140.048 E.07594
G1 X103.448 Y139.736 E.07594
G1 X101.053 Y139.38 E.07594
G1 X98.664 Y138.98 E.07594
G1 X96.283 Y138.535 E.07594
G1 X93.911 Y138.046 E.07594
G1 X91.549 Y137.512 E.07594
G1 X89.196 Y136.935 E.07594
G1 X86.855 Y136.315 E.07594
G1 X84.526 Y135.65 E.07594
G1 X82.962 Y135.173 E.05126
G1 X103.386 Y70.45 E2.12797
M204 S1000
G1 X103.157 Y69.925 F10800
M204 S800
;TYPE:External perimeter
G1 F1200
G1 X104.344 Y70.282 E.03886
G1 X105.892 Y70.703 E.05032
G1 X107.56 Y71.111 E.05382
G1 X109.265 Y71.475 E.05469
G1 X110.812 Y71.765 E.04933
G1 X112.45 Y72.027 E.05201
G1 X114.095 Y72.244 E.05202
G1 X115.739 Y72.417 E.05186
G1 X117.393 Y72.547 E.05201
G1 X119.05 Y72.632 E.05201
M73 Q1 S32
G1 X120.708 Y72.673 E.05201
G1 X122.373 Y72.669 E.05221
G1 X124.44 Y72.597 E.06485
G1 X125.682 Y72.528 E.03898
G1 X127.335 Y72.391 E.05201
G1 X128.984 Y72.209 E.05201
G1 X130.627 Y71.984 E.05201
G1 X132.269 Y71.714 E.05217
G1 X133.894 Y71.402 E.05186
G1 X135.43 Y71.064 E.04933
G1 X137.129 Y70.644 E.05486
G1 X138.727 Y70.201 E.05201
G1 X140.308 Y69.717 E.05185
G1 X141.884 Y69.188 E.05213
G1 X143.048 Y68.762 E.03886
G1 X167.497 Y132.945 E2.15345
G1 X165.604 Y133.646 E.0633
M73 P2 R31
M73 Q2 S32
G1 X163.31 Y134.447 E.07617
G1 X161.003 Y135.205 E.07616
G1 X158.681 Y135.92 E.07616
G1 X156.347 Y136.592 E.07615
G1 X154.001 Y137.22 E.07616
G1 X151.643 Y137.805 E.07616
G1 X149.275 Y138.346 E.07616
G1 X146.897 Y138.842 E.07616
G1 X144.511 Y139.294 E.07616
G1 X142.116 Y139.702 E.07616
G1 X139.714 Y140.065 E.07616
G1 X137.306 Y140.383 E.07616
G1 X134.893 Y140.657 E.07616
G1 X132.474 Y140.886 E.07617
G1 X130.052 Y141.069 E.07616
G1 X127.627 Y141.208 E.07616
G1 X125.2 Y141.301 E.07616
G1 X122.771 Y141.349 E.07616
G1 X120.342 Y141.352 E.07616
G1 X117.914 Y141.31 E.07616
G1 X115.486 Y141.223 E.07616
G1 X113.061 Y141.09 E.07615
G1 X110.638 Y140.913 E.07617
G1 X108.22 Y140.69 E.07616
G1 X105.805 Y140.422 E.07616
G1 X103.396 Y140.11 E.07616
G1 X100.994 Y139.753 E.07616
G1 X98.598 Y139.351 E.07616
G1 X96.21 Y138.905 E.07616
G1 X93.832 Y138.414 E.07616
G1 X91.462 Y137.879 E.07616
G1 X89.103 Y137.301 E.07616
G1 X86.755 Y136.678 E.07616
G1 X84.419 Y136.012 E.07616
G1 X82.488 Y135.422 E.0633
G1 X103.139 Y69.982 E2.15157
M204 S1000
G1 X103.433 Y70.215 F10800
;WIPE_START
G1 F8640
G1 X104.344 Y70.282 E-.28668
G1 X105.892 Y70.703 E-.37056
G1 X106.324 Y70.809 E-.10276
;WIPE_END
G1 E-.04 F2100
G1 Z.6 F720
G1 X142.202 Y69.593 F10800
G1 Z.2 F720
G1 E.8 F2100
M204 S800
;TYPE:Solid infill
;WIDTH:0.42036
G1 F1200
G1 X142.94 Y70.332 E.03279
G1 X143.269 Y71.194 E.02896
G1 X141.94 Y69.865 E.05899
G1 X141.54 Y69.999 E.01323
G1 X143.597 Y72.057 E.09131
G1 X143.926 Y72.919 E.02896
G1 X141.14 Y70.133 E.12363
G1 X140.741 Y70.267 E.01323
G1 X144.254 Y73.781 E.15594
G1 X144.582 Y74.643 E.02896
G1 X140.337 Y70.398 E.18842
G1 X139.929 Y70.523 E.01341
G1 X144.911 Y75.505 E.22114
G1 X145.239 Y76.368 E.02896
G1 X139.52 Y70.648 E.25385
G1 X139.111 Y70.773 E.01341
G1 X145.568 Y77.23 E.28657
G1 X145.896 Y78.092 E.02896
G1 X138.698 Y70.894 E.3195
G1 X138.28 Y71.009 E.01361
G1 X146.225 Y78.954 E.35263
G1 X146.553 Y79.816 E.02896
G1 X137.862 Y71.125 E.38575
G1 X137.444 Y71.241 E.01361
G1 X146.882 Y80.679 E.41888
G1 X147.21 Y81.541 E.02896
G1 X137.019 Y71.35 E.4523
G1 X136.591 Y71.456 E.01384
G1 X147.538 Y82.403 E.48587
G1 X147.867 Y83.265 E.02896
G1 X136.163 Y71.562 E.51945
G1 X135.735 Y71.668 E.01384
G1 X148.195 Y84.128 E.55302
G1 X148.524 Y84.99 E.02896
G1 X135.301 Y71.767 E.58686
G1 X134.864 Y71.864 E.01406
G1 X148.852 Y85.852 E.62086
G1 X149.181 Y86.714 E.02896
M73 P3 R31
G1 X134.426 Y71.96 E.65486
G1 X133.988 Y72.055 E.01408
M73 Q3 S32
G1 X149.509 Y87.576 E.68888
G1 X149.837 Y88.439 E.02896
G1 X133.54 Y72.142 E.72333
G1 X133.093 Y72.228 E.01431
G1 X150.166 Y89.301 E.75778
G1 X150.494 Y90.163 E.02896
G1 X132.645 Y72.314 E.79223
G1 X132.193 Y72.395 E.01443
G1 X150.823 Y91.025 E.82689
G1 X151.151 Y91.888 E.02896
G1 X131.734 Y72.471 E.86181
G1 X131.276 Y72.546 E.01458
G1 X151.48 Y92.75 E.89673
G1 X151.808 Y93.612 E.02896
G1 X130.817 Y72.621 E.93165
G1 X130.35 Y72.688 E.01481
G1 X152.137 Y94.474 E.96696
G1 X152.465 Y95.336 E.02896
G1 X129.881 Y72.752 E1.00237
G1 X129.411 Y72.817 E.01487
G1 X152.793 Y96.199 E1.03778
G1 X153.122 Y97.061 E.02896
G1 X128.939 Y72.878 E1.07332
G1 X128.458 Y72.931 E.01519
G1 X153.45 Y97.923 E1.10925
G1 X153.779 Y98.785 E.02896
M73 P4 R31
G1 X127.977 Y72.984 E1.14517
G1 X127.496 Y73.037 E.01519
M73 Q4 S32
G1 X154.107 Y99.648 E1.1811
G1 X154.436 Y100.51 E.02896
G1 X127.006 Y73.08 E1.21744
G1 X126.513 Y73.121 E.01552
G1 X154.764 Y101.372 E1.25389
G1 X155.092 Y102.234 E.02896
G1 X126.02 Y73.162 E1.29034
M73 P4 R30
G1 X125.522 Y73.197 E.01568
G1 X155.421 Y103.096 E1.32704
G1 X155.749 Y103.959 E.02896
G1 X125.017 Y73.226 E1.36405
G1 X124.511 Y73.254 E.01589
G1 X156.078 Y104.821 E1.40105
G1 X156.406 Y105.683 E.02896
M73 Q4 S31
G1 X123.996 Y73.273 E1.43851
G1 X123.48 Y73.29 E.0162
M73 P5 R30
G1 X156.735 Y106.545 E1.47599
G1 X157.063 Y107.407 E.02896
M73 Q5 S31
G1 X122.964 Y73.308 E1.51347
G1 X122.448 Y73.326 E.0162
G1 X157.392 Y108.27 E1.55095
G1 X157.72 Y109.132 E.02896
G1 X121.918 Y73.33 E1.58905
G1 X121.385 Y73.331 E.01672
G1 X158.048 Y109.994 E1.62727
G1 X158.377 Y110.856 E.02896
G1 X120.852 Y73.332 E1.66549
G1 X120.31 Y73.323 E.01704
G1 X158.705 Y111.719 E1.70416
G1 X159.034 Y112.581 E.02896
G1 X119.762 Y73.309 E1.74302
G1 X119.215 Y73.296 E.01718
M73 P6 R30
G1 X159.362 Y113.443 E1.78188
G1 X159.691 Y114.305 E.02896
M73 Q6 S31
G1 X118.658 Y73.272 E1.82121
G1 X118.095 Y73.243 E.01768
G1 X160.019 Y115.167 E1.86076
G1 X160.347 Y116.03 E.02896
G1 X117.532 Y73.215 E1.90031
G1 X116.959 Y73.175 E.01805
G1 X160.676 Y116.892 E1.94035
G1 X161.004 Y117.754 E.02896
G1 X116.38 Y73.129 E1.98063
G1 X115.8 Y73.084 E.01823
M73 P7 R30
G1 X161.333 Y118.616 E2.02091
G1 X161.661 Y119.479 E.02896
M73 Q7 S31
G1 X115.208 Y73.025 E2.0618
G1 X114.611 Y72.962 E.01883
G1 X161.99 Y120.341 E2.10285
G1 X162.318 Y121.203 E.02896
M73 P7 R29
G1 X114.014 Y72.899 E2.14392
G1 X113.399 Y72.818 E.01947
G1 X162.647 Y122.065 E2.1858
G1 X162.975 Y122.927 E.02896
G1 X112.784 Y72.736 E2.22768
G1 X112.163 Y72.649 E.0197
M73 P8 R29
M73 Q7 S30
G1 X163.303 Y123.79 E2.26984
G1 X163.632 Y124.652 E.02896
M73 Q8 S30
G1 X111.527 Y72.547 E2.31261
G1 X110.892 Y72.446 E.02019
G1 X163.96 Y125.514 E2.35538
G1 X164.289 Y126.376 E.02896
G1 X110.242 Y72.33 E2.39881
G1 X109.585 Y72.207 E.02098
G1 X164.617 Y127.239 E2.44254
G1 X164.946 Y128.101 E.02896
M73 P9 R29
G1 X108.922 Y72.077 E2.48657
G1 X108.243 Y71.931 E.0218
M73 Q9 S30
G1 X165.274 Y128.963 E2.53129
G1 X165.602 Y129.825 E.02896
G1 X107.563 Y71.786 E2.57601
G1 X106.863 Y71.619 E.0226
G1 X165.931 Y130.687 E2.62168
G1 X166.259 Y131.55 E.02896
G1 X106.157 Y71.447 E2.6676
G1 X105.44 Y71.264 E.02321
M73 P10 R29
G1 X166.588 Y132.412 E2.71398
G1 X166.643 Y132.557 E.00488
M73 Q10 S30
G1 X166.319 Y132.677 E.01084
G1 X104.707 Y71.064 E2.73462
G1 X103.965 Y70.857 E.02416
G1 X165.93 Y132.821 E2.75023
G1 X165.54 Y132.966 E.01304
M73 P10 R28
G1 X103.525 Y70.951 E2.75248
G1 X103.397 Y71.356 E.01335
M73 P11 R28
M73 Q10 S29
G1 X165.147 Y133.106 E2.74072
G1 X164.752 Y133.244 E.01315
G1 X103.269 Y71.762 E2.72884
G1 X103.141 Y72.168 E.01335
M73 Q11 S29
G1 X164.356 Y133.383 E2.71696
G1 X163.96 Y133.521 E.01315
G1 X103.013 Y72.574 E2.70509
G1 X102.885 Y72.979 E.01335
G1 X163.565 Y133.659 E2.69321
G1 X163.169 Y133.797 E.01315
M73 P12 R28
G1 X102.757 Y73.385 E2.68134
G1 X102.629 Y73.791 E.01335
M73 Q12 S29
G1 X162.768 Y133.93 E2.66924
G1 X162.367 Y134.062 E.01327
G1 X102.501 Y74.196 E2.65709
G1 X102.373 Y74.602 E.01335
G1 X161.965 Y134.194 E2.64494
G1 X161.563 Y134.326 E.01327
M73 P13 R28
G1 X102.245 Y75.008 E2.63279
G1 X102.117 Y75.414 E.01335
G1 X161.161 Y134.458 E2.62064
G1 X160.759 Y134.59 E.01329
M73 Q13 S29
G1 X101.989 Y75.819 E2.60846
G1 X101.861 Y76.225 E.01335
G1 X160.351 Y134.715 E2.59603
G1 X159.943 Y134.841 E.0134
M73 P13 R27
G1 X101.733 Y76.631 E2.5836
G1 X101.605 Y77.037 E.01335
M73 P14 R27
M73 Q13 S28
G1 X159.535 Y134.967 E2.57117
G1 X159.127 Y135.093 E.0134
G1 X101.477 Y77.442 E2.55875
G1 X101.349 Y77.848 E.01335
M73 Q14 S28
G1 X158.719 Y135.218 E2.54632
G1 X158.308 Y135.341 E.01346
G1 X101.22 Y78.254 E2.53376
G1 X101.092 Y78.66 E.01335
G1 X157.893 Y135.46 E2.52105
G1 X157.479 Y135.58 E.01354
M73 P15 R27
G1 X100.964 Y79.065 E2.50833
G1 X100.836 Y79.471 E.01335
G1 X157.064 Y135.699 E2.49562
G1 X156.65 Y135.818 E.01354
M73 Q15 S28
G1 X100.708 Y79.877 E2.48291
G1 X100.58 Y80.283 E.01335
G1 X156.235 Y135.938 E2.47019
G1 X155.815 Y136.051 E.01366
M73 P16 R27
G1 X100.452 Y80.688 E2.45723
G1 X100.324 Y81.094 E.01335
G1 X155.394 Y136.164 E2.44423
G1 X154.973 Y136.277 E.01368
G1 X100.196 Y81.5 E2.43123
G1 X100.068 Y81.906 E.01335
M73 Q16 S28
G1 X154.552 Y136.39 E2.41822
G1 X154.131 Y136.502 E.01368
M73 P16 R26
G1 X99.94 Y82.311 E2.40522
G1 X99.812 Y82.717 E.01335
M73 P17 R26
G1 X153.708 Y136.613 E2.39212
G1 X153.28 Y136.719 E.01383
G1 X99.684 Y83.123 E2.37882
G1 X99.556 Y83.529 E.01335
M73 Q16 S27
G1 X152.853 Y136.825 E2.36552
G1 X152.425 Y136.931 E.01383
M73 Q17 S27
G1 X99.428 Y83.934 E2.35222
G1 X99.3 Y84.34 E.01335
G1 X151.997 Y137.037 E2.33892
G1 X151.569 Y137.143 E.01383
G1 X99.172 Y84.746 E2.32562
G1 X99.044 Y85.152 E.01335
M73 P18 R26
G1 X151.136 Y137.244 E2.31207
G1 X150.702 Y137.343 E.01399
G1 X98.916 Y85.557 E2.29846
G1 X98.788 Y85.963 E.01335
G1 X150.267 Y137.442 E2.28486
G1 X149.832 Y137.541 E.01399
M73 Q18 S27
G1 X98.66 Y86.369 E2.27125
G1 X98.532 Y86.775 E.01335
G1 X149.398 Y137.641 E2.25765
G1 X148.961 Y137.737 E.01405
M73 P19 R26
G1 X98.404 Y87.18 E2.24392
G1 X98.276 Y87.586 E.01335
G1 X148.519 Y137.829 E2.23
G1 X148.077 Y137.922 E.01416
G1 X98.148 Y87.992 E2.21609
G1 X98.02 Y88.397 E.01335
M73 Q19 S27
G1 X147.636 Y138.014 E2.20217
G1 X147.194 Y138.106 E.01416
G1 X97.891 Y88.803 E2.18825
G1 X97.763 Y89.209 E.01335
M73 P20 R25
G1 X146.752 Y138.198 E2.17433
G1 X146.304 Y138.283 E.01433
G1 X97.635 Y89.615 E2.16009
G1 X97.507 Y90.02 E.01335
M73 Q19 S26
G1 X145.855 Y138.368 E2.14586
G1 X145.406 Y138.453 E.01433
G1 X97.379 Y90.426 E2.13162
G1 X97.251 Y90.832 E.01335
M73 Q20 S26
G1 X144.957 Y138.538 E2.11739
G1 X144.509 Y138.623 E.01433
G1 X97.123 Y91.238 E2.10315
G1 X96.995 Y91.643 E.01335
M73 P21 R25
G1 X144.054 Y138.703 E2.08867
G1 X143.598 Y138.78 E.01452
G1 X96.867 Y92.049 E2.07411
G1 X96.739 Y92.455 E.01335
G1 X143.142 Y138.858 E2.05955
G1 X142.686 Y138.936 E.01452
G1 X96.611 Y92.861 E2.04499
G1 X96.483 Y93.266 E.01335
M73 Q21 S26
G1 X142.23 Y139.013 E2.03043
G1 X141.77 Y139.087 E.01462
G1 X96.355 Y93.672 E2.01569
G1 X96.227 Y94.078 E.01335
M73 P22 R25
G1 X141.306 Y139.157 E2.00079
G1 X140.842 Y139.227 E.01472
G1 X96.099 Y94.484 E1.9859
G1 X95.971 Y94.889 E.01335
G1 X140.379 Y139.297 E1.971
G1 X139.915 Y139.367 E.01472
G1 X95.843 Y95.295 E1.9561
G1 X95.715 Y95.701 E.01335
M73 Q22 S26
G1 X139.449 Y139.435 E1.94108
G1 X138.977 Y139.497 E.01492
G1 X95.587 Y96.107 E1.92584
G1 X95.459 Y96.512 E.01335
M73 P23 R24
G1 X138.506 Y139.559 E1.9106
G1 X138.034 Y139.622 E.01492
G1 X95.331 Y96.918 E1.89535
G1 X95.203 Y97.324 E.01335
M73 Q22 S25
G1 X137.563 Y139.684 E1.88011
G1 X137.089 Y139.744 E.01499
G1 X95.075 Y97.73 E1.86477
G1 X94.947 Y98.135 E.01335
G1 X136.61 Y139.798 E1.84917
G1 X136.13 Y139.853 E.01514
M73 Q23 S25
G1 X94.819 Y98.541 E1.83357
G1 X94.691 Y98.947 E.01335
M73 P24 R24
G1 X135.651 Y139.907 E1.81798
G1 X135.171 Y139.961 E.01514
G1 X94.563 Y99.353 E1.80238
G1 X94.434 Y99.758 E.01335
G1 X134.689 Y140.013 E1.78668
G1 X134.202 Y140.059 E.01537
G1 X94.306 Y100.164 E1.77072
G1 X94.178 Y100.57 E.01335
G1 X133.714 Y140.105 E1.75476
G1 X133.226 Y140.152 E.01537
G1 X94.05 Y100.976 E1.73879
G1 X93.922 Y101.381 E.01335
