; generated by PrusaSlicer 2.5.0+win64 on 2022-12-12 at 04:37:00 UTC


;
;
; 

; external perimeters extrusion width = 0.60mm
; perimeters extrusion width = 0.50mm
; infill extrusion width = 0.50mm
; solid infill extrusion width = 0.50mm
; top infill extrusion width = 0.45mm
; support material extrusion width = 0.38mm
; first layer extrusion width = 0.42mm

M73 P0 R248
M73 Q0 S250
M201 X1000 Y1000 Z200 E5000 ; sets maximum accelerations, mm/sec^2
M203 X200 Y200 Z12 E120 ; sets maximum feedrates, mm / sec
M204 P1250 R1250 T1250 ; sets acceleration (P, T) and retract acceleration (R), mm/sec^2
M205 X8.00 Y8.00 Z0.40 E4.50 ; sets the jerk limits, mm/sec
M205 S0 T0 ; sets the minimum extruding and travel feed rate, mm/sec
M107
;TYPE:Custom
M862.3 P "MK3S" ; printer model check
M862.1 P0.4 ; nozzle diameter check
M115 U3.11.0 ; tell printer latest fw version
G90 ; use absolute coordinates
M83 ; extruder relative mode
M104 S215 ; set extruder temp
M140 S60 ; set bed temp
M190 S60 ; wait for bed temp
M109 S215 ; wait for extruder temp
G28 W ; home all without mesh bed level
G80 ; mesh bed leveling

G1 Z0.2 F720
G1 Y-3 F1000 ; go outside print area
G92 E0
G1 X60 E9 F1000 ; intro line
G1 X100 E12.5 F1000 ; intro line

G92 E0
M221 S95

; Don't change E values below. Excessive value can damage the printer.

M907 E538 ; set extruder motor current
G21 ; set units to millimeters
G90 ; use absolute coordinates
M83 ; use relative distances for extrusion
M900 K0.05 ; Filament gcode LA 1.5
M900 K30 ; Filament gcode LA 1.0
M107
;LAYER_CHANGE
;Z:0.2
;HEIGHT:0.2
;BEFORE_LAYER_CHANGE
G92 E0.0
;0.2


G1 E-.8 F2100
G1 Z.4 F720
;AFTER_LAYER_CHANGE
;0.2
G1 X100.726 Y68.426 F10800
G1 Z.2 F720
G1 E.8 F2100
M204 S800
;TYPE:Skirt/Brim
;WIDTH:0.42
G1 F1200
G1 X101.625 Y67.4 E.04278
G1 X102.818 Y67.038 E.03911
G1 X143.218 Y65.86 E1.26724
G1 X144.739 Y66.354 E.05014
G1 X152.556 Y72.383 E.3095
G1 X153.276 Y73.299 E.03656
G1 X162.539 Y94.14 E.71507
G1 X169.539 Y112.796 E.62476
G1 X169.689 Y113.544 E.02392
G1 X170.403 Y133.097 E.6135
G1 X170.059 Y134.418 E.04278
G1 X169.271 Y135.21 E.03503
G1 X150.032 Y147.023 E.70787
G1 X148.788 Y147.375 E.04053
G1 X94.265 Y147.375 E1.70954
G1 X92.83 Y146.893 E.04745
G1 X80.538 Y137.587 E.48339
G1 X79.732 Y136.486 E.04278
G1 X79.597 Y135.615 E.02764
G1 X80.311 Y113.553 E.6921
G1 X80.525 Y112.643 E.02934
G1 X100.701 Y68.481 E1.52233
M204 S1000
; printing object Screen-body.stl id:0 copy 0
;WIPE_START
G1 F8640
G1 X101.625 Y67.4 E-.32835
G1 X102.818 Y67.038 E-.288
G1 X103.44 Y67.02 E-.14365
;WIPE_END
G1 E-.04 F2100
G1 Z.6 F720
G1 X151.104 Y82.744 F10800
G1 Z.2 F720
G1 E.8 F2100
M204 S800
;TYPE:Support material
G1 F1200
G1 X149.534 Y83.033 E.05006
G1 X146.194 Y74.265 E.2942
G1 X151.104 Y74.265 E.15396
G1 X151.104 Y82.688 E.26409
M204 S1000
G1 X150.558 Y82.672 F10800
M204 S800
G1 F1200
G1 X150.558 Y74.604 E.25297
G1 X150.139 Y74.604 E.01314
G1 X150.139 Y82.577 E.24998
G1 X149.75 Y82.648 E.01238
G1 X149.72 Y82.568 E.0027
G1 X149.72 Y74.604 E.24969
G1 X149.301 Y74.604 E.01314
G1 X149.301 Y81.468 E.2152
G1 X148.882 Y80.368 E.0369
G1 X148.882 Y74.604 E.18072
G1 X148.463 Y74.604 E.01314
G1 X148.463 Y79.268 E.14623
G1 X148.044 Y78.168 E.0369
G1 X148.044 Y74.604 E.11174
G1 X147.625 Y74.604 E.01314
G1 X147.625 Y77.068 E.07726
G1 X147.206 Y75.968 E.0369
G1 X147.206 Y74.604 E.04277
G1 X146.787 Y74.604 E.01314
G1 X146.787 Y75.345 E.02323
M204 S1000
;WIPE_START
G1 F8640
G1 X146.787 Y74.604 E-.17107
G1 X147.206 Y74.604 E-.09674
G1 X147.206 Y75.968 E-.31497
G1 X147.479 Y76.686 E-.17722
;WIPE_END
G1 E-.04 F2100
G1 Z.6 F720
G1 X158.051 Y95.105 F10800
G1 Z.2 F720
G1 E.8 F2100
M204 S800
G1 F1200
G1 X160.366 Y95.105 E.0726
G1 X160.366 Y103.316 E.25745
G1 X157.26 Y103.316 E.09739
G1 X153.25 Y92.79 E.35319
G1 X158.051 Y92.79 E.15052
G1 X158.051 Y95.049 E.07083
M204 S1000
G1 X159.775 Y103.147 F10800
M204 S800
G1 F1200
G1 X159.775 Y95.445 E.24149
G1 X159.356 Y95.445 E.01314
G1 X159.356 Y102.977 E.23617
G1 X158.937 Y102.977 E.01314
G1 X158.937 Y95.445 E.23617
G1 X158.518 Y95.445 E.01314
G1 X158.518 Y102.977 E.23617
G1 X158.099 Y102.977 E.01314
G1 X158.099 Y95.445 E.23617
G1 X157.711 Y95.445 E.01216
G1 X157.711 Y93.129 E.0726
G1 X157.68 Y93.129 E.00098
G1 X157.68 Y102.977 E.30877
G1 X157.494 Y102.977 E.00584
G1 X157.261 Y102.366 E.0205
G1 X157.261 Y93.129 E.28961
G1 X156.842 Y93.129 E.01314
G1 X156.842 Y101.266 E.25513
G1 X156.423 Y100.166 E.0369
G1 X156.423 Y93.129 E.22064
G1 X156.004 Y93.129 E.01314
G1 X156.004 Y99.066 E.18615
G1 X155.585 Y97.966 E.0369
G1 X155.585 Y93.129 E.15167
G1 X155.166 Y93.129 E.01314
G1 X155.166 Y96.866 E.11718
G1 X154.747 Y95.767 E.0369
G1 X154.747 Y93.129 E.08269
G1 X154.328 Y93.129 E.01314
G1 X154.328 Y94.667 E.04821
G1 X153.909 Y93.567 E.0369
G1 X153.909 Y92.959 E.01904
M204 S1000
;WIPE_START
G1 F8640
G1 X153.909 Y93.567 E-.14022
G1 X154.328 Y94.667 E-.27177
G1 X154.328 Y93.159 E-.34801
;WIPE_END
G1 E-.04 F2100
G1 Z.6 F720
G1 X164.998 Y113.63 F10800
G1 Z.2 F720
G1 E.8 F2100
M204 S800
G1 F1200
G1 X167.313 Y113.63 E.0726
G1 X167.313 Y125.297 E.36581
G1 X165.743 Y125.586 E.05006
G1 X159.425 Y108.999 E.55653
G1 X164.998 Y108.999 E.17473
G1 X164.998 Y113.574 E.14344
M204 S1000
G1 X166.898 Y125.201 F10800
M204 S800
G1 F1200
G1 X166.898 Y113.97 E.35215
G1 X166.479 Y113.97 E.01314
G1 X166.479 Y125.106 E.34916
G1 X166.06 Y125.183 E.01336
G1 X166.06 Y113.97 E.35158
G1 X165.641 Y113.97 E.01314
G1 X165.641 Y124.364 E.3259
G1 X165.222 Y123.264 E.0369
G1 X165.222 Y113.97 E.29142
G1 X164.803 Y113.97 E.01314
M73 Q0 S249
G1 X164.803 Y122.164 E.25693
G1 X164.384 Y121.064 E.0369
G1 X164.384 Y109.339 E.36765
G1 X163.965 Y109.339 E.01314
G1 X163.965 Y119.964 E.33317
G1 X163.546 Y118.865 E.0369
G1 X163.546 Y109.339 E.29868
G1 X163.127 Y109.339 E.01314
G1 X163.127 Y117.765 E.26419
G1 X162.708 Y116.665 E.0369
M73 P0 R247
G1 X162.708 Y109.339 E.22971
G1 X162.289 Y109.339 E.01314
G1 X162.289 Y115.565 E.19522
G1 X161.87 Y114.465 E.0369
G1 X161.87 Y109.339 E.16073
G1 X161.451 Y109.339 E.01314
G1 X161.451 Y113.365 E.12625
G1 X161.032 Y112.265 E.0369
G1 X161.032 Y109.339 E.09176
G1 X160.613 Y109.339 E.01314
G1 X160.613 Y111.165 E.05727
G1 X160.194 Y110.065 E.0369
G1 X160.194 Y109.169 E.02811
M204 S1000
;WIPE_START
G1 F8640
G1 X160.194 Y110.065 E-.20699
G1 X160.613 Y111.165 E-.27177
G1 X160.613 Y109.947 E-.28124
;WIPE_END
G1 E-.04 F2100
G1 Z.6 F720
G1 X164.7 Y131.669 F10800
G1 Z.2 F720
G1 E.8 F2100
M204 S800
G1 F1200
G1 X162.829 Y132.328 E.0622
G1 X160.395 Y133.13 E.08036
G1 X157.945 Y133.884 E.08036
G1 X155.481 Y134.589 E.08036
G1 X153.003 Y135.244 E.08036
G1 X150.513 Y135.85 E.08035
G1 X148.011 Y136.407 E.08036
G1 X145.499 Y136.913 E.08036
G1 X142.995 Y137.365 E.07977
G1 X140.464 Y137.771 E.08037
G1 X137.925 Y138.126 E.08038
G1 X135.38 Y138.431 E.08038
G1 X132.829 Y138.685 E.08037
G1 X130.274 Y138.887 E.08038
G1 X127.715 Y139.039 E.08038
G1 X125.153 Y139.14 E.08038
G1 X122.59 Y139.189 E.08037
G1 X120.027 Y139.187 E.08037
G1 X117.464 Y139.135 E.08037
G1 X114.903 Y139.031 E.08038
G1 X112.344 Y138.875 E.08038
G1 X109.789 Y138.669 E.08038
G1 X107.238 Y138.412 E.08037
G1 X104.694 Y138.104 E.08037
G1 X102.155 Y137.745 E.08038
G1 X99.625 Y137.336 E.08037
G1 X97.093 Y136.874 E.0807
G1 X94.579 Y136.364 E.08041
G1 X92.078 Y135.804 E.08036
G1 X89.589 Y135.194 E.08036
G1 X87.113 Y134.535 E.08036
G1 X85.206 Y133.986 E.06221
G1 X104.853 Y71.725 E2.04705
G1 X106.084 Y72.051 E.03993
G1 X107.85 Y72.466 E.05687
G1 X109.644 Y72.832 E.05738
G1 X111.438 Y73.145 E.05713
G1 X113.233 Y73.405 E.05687
G1 X115.043 Y73.615 E.05713
G1 X116.859 Y73.772 E.05713
G1 X118.686 Y73.877 E.05738
G1 X120.507 Y73.929 E.05713
G1 X122.329 Y73.928 E.05713
G1 X124.142 Y73.875 E.05687
G1 X125.961 Y73.77 E.05713
G1 X127.784 Y73.611 E.05738
G1 X129.594 Y73.4 E.05713
G1 X131.397 Y73.138 E.05713
G1 X133.184 Y72.825 E.05687
G1 X134.969 Y72.459 E.05713
G1 X136.75 Y72.04 E.05738
G1 X138.511 Y71.572 E.05713
G1 X140.25 Y71.055 E.05687
G1 X141.46 Y70.658 E.03994
G1 X164.68 Y131.616 E2.04527
M204 S1000
G1 X163.965 Y131.748 F10800
M204 S800
G1 F1200
G1 X163.965 Y130.692 E.0331
G1 X163.546 Y129.592 E.0369
G1 X163.546 Y131.715 E.06657
G1 X163.127 Y131.863 E.01393
G1 X163.127 Y128.492 E.10568
G1 X162.708 Y127.392 E.0369
G1 X162.708 Y132.01 E.14479
G1 X162.289 Y132.148 E.01383
G1 X162.289 Y126.292 E.1836
G1 X161.87 Y125.193 E.0369
G1 X161.87 Y132.286 E.22242
G1 X161.451 Y132.425 E.01383
G1 X161.451 Y124.093 E.26124
G1 X161.032 Y122.993 E.0369
G1 X161.032 Y132.563 E.30006
G1 X160.613 Y132.701 E.01383
G1 X160.613 Y121.893 E.33888
G1 X160.194 Y120.793 E.0369
G1 X160.194 Y132.837 E.37763
G1 X159.775 Y132.966 E.01374
G1 X159.775 Y119.693 E.41616
G1 X159.356 Y118.593 E.0369
G1 X159.356 Y133.095 E.45469
G1 X158.937 Y133.224 E.01374
G1 X158.937 Y117.493 E.49322
G1 X158.518 Y116.393 E.0369
G1 X158.518 Y133.353 E.53175
G1 X158.099 Y133.482 E.01374
G1 X158.099 Y115.293 E.57028
G1 X157.68 Y114.194 E.0369
G1 X157.68 Y133.607 E.60869
G1 X157.261 Y133.727 E.01366
G1 X157.261 Y113.094 E.64694
G1 X156.842 Y111.994 E.0369
G1 X156.842 Y133.847 E.68518
G1 X156.423 Y133.966 E.01366
G1 X156.423 Y110.894 E.72342
G1 X156.004 Y109.794 E.0369
G1 X156.004 Y134.086 E.76167
G1 X155.585 Y134.206 E.01366
G1 X155.585 Y108.694 E.79991
G1 X155.166 Y107.594 E.0369
G1 X155.166 Y134.321 E.83801
G1 X154.747 Y134.432 E.01359
G1 X154.747 Y106.494 E.87597
G1 X154.328 Y105.394 E.0369
G1 X154.328 Y134.543 E.91393
G1 X153.909 Y134.654 E.01359
G1 X153.909 Y104.294 E.95189
G1 X153.49 Y103.195 E.0369
G1 X153.49 Y134.765 E.98986
G1 X153.071 Y134.875 E.01359
G1 X153.071 Y102.095 E1.02782
G1 X152.652 Y100.995 E.0369
G1 X152.652 Y134.981 E1.0656
G1 X152.234 Y135.083 E.01352
G1 X152.234 Y99.895 E1.10329
G1 X151.815 Y98.795 E.0369
G1 X151.815 Y135.184 E1.14097
G1 X151.396 Y135.286 E.01352
G1 X151.396 Y97.695 E1.17865
G1 X150.977 Y96.595 E.0369
G1 X150.977 Y135.388 E1.21634
G1 X150.558 Y135.49 E.01352
G1 X150.558 Y95.495 E1.25402
G1 X150.139 Y94.395 E.0369
G1 X150.139 Y135.586 E1.29151
G1 X149.72 Y135.679 E.01346
G1 X149.72 Y93.295 E1.32891
G1 X149.301 Y92.196 E.0369
G1 X149.301 Y135.772 E1.36632
G1 X148.882 Y135.865 E.01346
M73 Q0 S248
G1 X148.882 Y91.096 E1.40373
G1 X148.463 Y89.996 E.0369
G1 X148.463 Y135.959 E1.44113
G1 X148.044 Y136.052 E.01346
M73 P0 R246
G1 X148.044 Y88.896 E1.47854
G1 X147.625 Y87.796 E.0369
G1 X147.625 Y136.138 E1.51574
G1 X147.206 Y136.223 E.0134
G1 X147.206 Y86.696 E1.55287
G1 X146.787 Y85.596 E.0369
G1 X146.787 Y136.307 E1.59001
G1 X146.368 Y136.391 E.0134
G1 X146.368 Y84.496 E1.62714
G1 X145.949 Y83.396 E.0369
G1 X145.949 Y136.476 E1.66427
G1 X145.53 Y136.56 E.0134
G1 X145.53 Y82.296 E1.7014
G1 X145.111 Y81.196 E.0369
G1 X145.111 Y136.638 E1.73833
G1 X144.692 Y136.714 E.01335
G1 X144.692 Y80.097 E1.77519
G1 X144.273 Y78.997 E.0369
G1 X144.273 Y136.789 E1.81205
G1 X143.854 Y136.865 E.01335
G1 X143.854 Y77.897 E1.84891
G1 X143.435 Y76.797 E.0369
G1 X143.435 Y136.941 E1.88577
G1 X143.016 Y137.017 E.01335
G1 X143.016 Y75.697 E1.92264
G1 X142.597 Y74.597 E.0369
G1 X142.597 Y137.086 E1.95929
G1 X142.178 Y137.153 E.0133
G1 X142.178 Y73.497 E1.99588
G1 X141.759 Y72.397 E.0369
G1 X141.759 Y137.22 E2.03247
G1 X141.34 Y137.287 E.0133
M73 P1 R246
M73 Q1 S248
G1 X141.34 Y71.297 E2.06906
G1 X141.258 Y71.081 E.00725
G1 X140.921 Y71.192 E.01111
G1 X140.921 Y137.354 E2.07447
G1 X140.502 Y137.421 E.0133
G1 X140.502 Y71.33 E2.07226
G1 X140.083 Y71.459 E.01375
M73 Q1 S247
G1 X140.083 Y137.482 E2.07011
G1 X139.664 Y137.541 E.01326
M73 P1 R245
G1 X139.664 Y71.583 E2.06805
G1 X139.245 Y71.708 E.0137
G1 X139.245 Y137.599 E2.06598
G1 X138.826 Y137.658 E.01326
G1 X138.826 Y71.832 E2.06392
G1 X138.407 Y71.951 E.01365
G1 X138.407 Y137.716 E2.06204
G1 X137.988 Y137.775 E.01326
G1 X137.988 Y72.062 E2.06038
G1 X137.569 Y72.174 E.01359
G1 X137.569 Y137.828 E2.05854
G1 X137.15 Y137.878 E.01323
G1 X137.15 Y72.285 E2.05661
G1 X136.731 Y72.393 E.01357
G1 X136.731 Y137.928 E2.05478
G1 X136.312 Y137.978 E.01323
G1 X136.312 Y72.492 E2.05326
G1 X135.893 Y72.591 E.0135
G1 X135.893 Y138.028 E2.05174
G1 X135.474 Y138.078 E.01323
G1 X135.474 Y72.689 E2.05022
G1 X135.055 Y72.788 E.0135
G1 X135.055 Y138.123 E2.04853
G1 X134.636 Y138.164 E.0132
G1 X134.636 Y72.874 E2.04713
G1 X134.217 Y72.96 E.01341
G1 X134.217 Y138.206 E2.04575
G1 X133.799 Y138.247 E.0132
G1 X133.799 Y73.046 E2.04436
G1 X133.38 Y73.132 E.01341
G1 X133.38 Y138.289 E2.04297
G1 X132.961 Y138.331 E.0132
G1 X132.961 Y73.209 E2.04185
G1 X132.542 Y73.282 E.01334
M73 Q1 S246
G1 X132.542 Y138.367 E2.04071
G1 X132.123 Y138.401 E.01318
M73 P1 R244
G1 X132.123 Y73.355 E2.03945
G1 X131.704 Y73.429 E.01334
G1 X131.704 Y138.434 E2.03819
G1 X131.285 Y138.467 E.01318
G1 X131.285 Y73.497 E2.03708
G1 X130.866 Y73.558 E.01328
G1 X130.866 Y138.5 E2.0362
G1 X130.447 Y138.533 E.01318
G1 X130.447 Y73.619 E2.03533
G1 X130.028 Y73.68 E.01328
G1 X130.028 Y138.562 E2.03433
G1 X129.609 Y138.587 E.01316
G1 X129.609 Y73.741 E2.03322
G1 X129.19 Y73.789 E.01323
G1 X129.19 Y138.612 E2.03247
G1 X128.771 Y138.637 E.01316
G1 X128.771 Y73.838 E2.03172
G1 X128.352 Y73.887 E.01323
G1 X128.352 Y138.662 E2.03097
G1 X127.933 Y138.686 E.01316
G1 X127.933 Y73.935 E2.03022
G1 X127.514 Y73.975 E.0132
G1 X127.514 Y138.708 E2.02964
G1 X127.095 Y138.724 E.01315
G1 X127.095 Y74.012 E2.02901
G1 X126.676 Y74.048 E.01319
G1 X126.676 Y138.741 E2.02838
G1 X126.257 Y138.757 E.01315
G1 X126.257 Y74.085 E2.02776
G1 X125.838 Y74.117 E.01318
G1 X125.838 Y138.773 E2.02726
G1 X125.419 Y138.79 E.01315
G1 X125.419 Y74.141 E2.02702
G1 X125 Y74.165 E.01316
G1 X125 Y138.804 E2.02669
G1 X124.581 Y138.812 E.01314
M73 Q1 S245
G1 X124.581 Y74.19 E2.02618
G1 X124.162 Y74.214 E.01316
M73 P1 R243
G1 X124.162 Y138.82 E2.02567
G1 X123.743 Y138.828 E.01314
G1 X123.743 Y74.226 E2.02553
G1 X123.324 Y74.238 E.01314
G1 X123.324 Y138.836 E2.0254
G1 X122.905 Y138.844 E.01314
G1 X122.905 Y74.251 E2.02527
G1 X122.486 Y74.263 E.01314
M73 P2 R243
G1 X122.486 Y138.85 E2.02509
G1 X122.067 Y138.85 E.01314
M73 Q2 S245
G1 X122.067 Y74.267 E2.02493
G1 X121.648 Y74.268 E.01314
G1 X121.648 Y138.849 E2.02492
G1 X121.229 Y138.849 E.01314
G1 X121.229 Y74.268 E2.0249
G1 X120.81 Y74.268 E.01314
G1 X120.81 Y138.849 E2.02489
G1 X120.391 Y138.848 E.01314
G1 X120.391 Y74.265 E2.02497
G1 X119.972 Y74.253 E.01314
G1 X119.972 Y138.847 E2.02531
G1 X119.553 Y138.838 E.01314
G1 X119.553 Y74.241 E2.02541
G1 X119.134 Y74.229 E.01314
G1 X119.134 Y138.83 E2.02551
G1 X118.715 Y138.821 E.01314
G1 X118.715 Y74.217 E2.02562
G1 X118.296 Y74.194 E.01316
G1 X118.296 Y138.812 E2.02605
G1 X117.877 Y138.804 E.01314
G1 X117.877 Y74.17 E2.02654
G1 X117.458 Y74.146 E.01316
G1 X117.458 Y138.795 E2.02701
G1 X117.039 Y138.778 E.01315
M73 Q2 S244
G1 X117.039 Y74.122 E2.02724
G1 X116.62 Y74.092 E.01317
M73 P2 R242
G1 X116.62 Y138.761 E2.02765
G1 X116.201 Y138.744 E.01315
G1 X116.201 Y74.056 E2.02826
G1 X115.783 Y74.019 E.01319
G1 X115.783 Y138.727 E2.02886
G1 X115.364 Y138.71 E.01315
G1 X115.364 Y73.983 E2.02946
G1 X114.945 Y73.945 E.01319
G1 X114.945 Y138.693 E2.03012
G1 X114.526 Y138.668 E.01316
G1 X114.526 Y73.896 E2.03086
G1 X114.107 Y73.848 E.01322
G1 X114.107 Y138.642 E2.03159
G1 X113.688 Y138.617 E.01316
G1 X113.688 Y73.8 E2.03231
G1 X113.269 Y73.751 E.01322
G1 X113.269 Y138.592 E2.03303
G1 X112.85 Y138.566 E.01316
G1 X112.85 Y73.693 E2.03406
G1 X112.431 Y73.632 E.01327
G1 X112.431 Y138.541 E2.03517
G1 X112.012 Y138.508 E.01318
G1 X112.012 Y73.571 E2.03606
G1 X111.593 Y73.51 E.01327
G1 X111.593 Y138.475 E2.0369
G1 X111.174 Y138.441 E.01318
G1 X111.174 Y73.444 E2.03794
G1 X110.755 Y73.371 E.01334
G1 X110.755 Y138.407 E2.03917
G1 X110.336 Y138.373 E.01318
G1 X110.336 Y73.297 E2.0404
G1 X109.917 Y73.224 E.01334
G1 X109.917 Y138.339 E2.04163
G1 X109.498 Y138.299 E.0132
M73 Q2 S243
G1 X109.498 Y73.149 E2.04274
G1 X109.079 Y73.063 E.01341
M73 P2 R241
G1 X109.079 Y138.257 E2.0441
G1 X108.66 Y138.214 E.0132
G1 X108.66 Y72.978 E2.04546
G1 X108.241 Y72.892 E.01341
G1 X108.241 Y138.172 E2.04682
G1 X107.822 Y138.13 E.0132
G1 X107.822 Y72.806 E2.04818
G1 X107.403 Y72.709 E.01348
G1 X107.403 Y138.088 E2.04989
