; generated by PrusaSlicer 2.5.0+win64 on 2022-12-12 at 04:43:35 UTC


;
;
; 

; external perimeters extrusion width = 0.45mm
; perimeters extrusion width = 0.45mm
; infill extrusion width = 0.45mm
; solid infill extrusion width = 0.45mm
; top infill extrusion width = 0.40mm
; first layer extrusion width = 0.42mm

M73 P0 R64
M73 Q0 S66
M201 X1000 Y1000 Z200 E5000 ; sets maximum accelerations, mm/sec^2
M203 X200 Y200 Z12 E120 ; sets maximum feedrates, mm / sec
M204 P1250 R1250 T1250 ; sets acceleration (P, T) and retract acceleration (R), mm/sec^2
M205 X8.00 Y8.00 Z0.40 E4.50 ; sets the jerk limits, mm/sec
M205 S0 T0 ; sets the minimum extruding and travel feed rate, mm/sec
M107
;TYPE:Custom
M862.3 P "MK3S" ; printer model check
M862.1 P0.4 ; nozzle diameter check
M115 U3.11.0 ; tell printer latest fw version
G90 ; use absolute coordinates
M83 ; extruder relative mode
M104 S215 ; set extruder temp
M140 S60 ; set bed temp
M190 S60 ; wait for bed temp
M109 S215 ; wait for extruder temp
G28 W ; home all without mesh bed level
G80 ; mesh bed leveling

G1 Z0.2 F720
G1 Y-3 F1000 ; go outside print area
G92 E0
G1 X60 E9 F1000 ; intro line
G1 X100 E12.5 F1000 ; intro line

G92 E0
M221 S95

; Don't change E values below. Excessive value can damage the printer.

M907 E538 ; set extruder motor current
G21 ; set units to millimeters
G90 ; use absolute coordinates
M83 ; use relative distances for extrusion
M900 K0.05 ; Filament gcode LA 1.5
M900 K30 ; Filament gcode LA 1.0
M107
;LAYER_CHANGE
;Z:0.2
;HEIGHT:0.2
;BEFORE_LAYER_CHANGE
G92 E0.0
;0.2


G1 E-.8 F2100
G1 Z.4 F720
;AFTER_LAYER_CHANGE
;0.2
G1 X81.5 Y47.956 F10800
G1 Z.2 F720
G1 E.8 F2100
M204 S800
;TYPE:Skirt/Brim
;WIDTH:0.42
G1 F1200
G1 X82.57 Y47.109 E.04278
G1 X83.515 Y46.942 E.03008
G1 X169.579 Y49.346 E2.69953
G1 X170.875 Y49.774 E.04278
M73 Q0 S65
G1 X171.722 Y50.844 E.04278
G1 X171.889 Y51.788 E.03008
G1 X168.845 Y160.746 E3.41762
G1 X168.418 Y162.042 E.04278
M73 P0 R63
G1 X167.348 Y162.888 E.04278
G1 X166.403 Y163.056 E.03008
G1 X80.339 Y160.652 E2.69953
G1 X79.043 Y160.224 E.04278
G1 X78.196 Y159.154 E.04278
G1 X78.029 Y158.209 E.03008
G1 X81.073 Y49.252 E3.41762
G1 X81.482 Y48.013 E.0409
M204 S1000
; printing object Screen-box-cover.stl id:0 copy 0
;WIPE_START
G1 F8640
G1 X82.57 Y47.109 E-.32671
G1 X83.515 Y46.942 E-.22155
G1 X84.432 Y46.968 E-.21174
;WIPE_END
G1 E-.04 F2100
G1 Z.6 F720
G1 X168.704 Y52.487 F10800
G1 Z.2 F720
G1 E.8 F2100
M204 S800
;TYPE:Perimeter
;WIDTH:0.419999
G1 F1200
G1 X165.705 Y159.871 E3.36826
G1 X81.214 Y157.511 E2.65017
G1 X84.213 Y50.127 E3.36826
G1 X168.644 Y52.485 E2.64829
M204 S1000
M73 P1 R63
M73 Q1 S65
G1 X169.091 Y52.12 F10800
M204 S800
;TYPE:External perimeter
G1 F1200
G1 X166.071 Y160.258 E3.3919
G1 X80.826 Y157.877 E2.67382
G1 X83.847 Y49.739 E3.3919
G1 X169.032 Y52.119 E2.67194
M204 S1000
G1 X168.992 Y52.508 F10800
;WIPE_START
G1 F8640
G1 X168.941 Y55.409 E-.76
;WIPE_END
G1 E-.04 F2100
G1 Z.6 F720
G1 X112.497 Y121.357 F10800
G1 Z.2 F720
G1 E.8 F2100
M204 S800
;TYPE:Perimeter
G1 F1200
G1 X112.474 Y120.864 E.01547
G1 X113.379 Y88.462 E1.01633
G1 X113.427 Y87.964 E.01569
M73 Q1 S64
G1 X113.547 Y87.458 E.0163
G1 X113.723 Y86.995 E.01553
G1 X113.941 Y86.593 E.01433
G1 X114.232 Y86.178 E.0159
G1 X114.59 Y85.798 E.01635
G1 X114.974 Y85.486 E.01553
G1 X115.396 Y85.227 E.01553
G1 X115.848 Y85.024 E.01553
G1 X116.323 Y84.883 E.01553
G1 X116.812 Y84.805 E.01553
G1 X117.237 Y84.79 E.01332
G1 X133.771 Y85.25 E.51862
G1 X134.269 Y85.298 E.01569
G1 X134.775 Y85.418 E.0163
G1 X135.238 Y85.594 E.01553
G1 X135.674 Y85.83 E.01553
G1 X136.075 Y86.12 E.01553
G1 X136.435 Y86.461 E.01553
G1 X136.747 Y86.845 E.01553
G1 X137.006 Y87.267 E.01553
G1 X137.209 Y87.719 E.01553
G1 X137.35 Y88.194 E.01553
G1 X137.428 Y88.683 E.01553
G1 X137.444 Y89.134 E.01415
G1 X136.539 Y121.536 E1.01633
G1 X136.491 Y122.034 E.01569
M73 P1 R62
G1 X136.371 Y122.54 E.0163
G1 X136.195 Y123.003 E.01553
G1 X135.959 Y123.438 E.01553
G1 X135.668 Y123.84 E.01553
G1 X135.328 Y124.199 E.01553
G1 X134.944 Y124.512 E.01553
G1 X134.522 Y124.771 E.01553
G1 X134.07 Y124.973 E.01553
G1 X133.595 Y125.115 E.01553
G1 X133.106 Y125.193 E.01553
G1 X132.655 Y125.209 E.01415
G1 X116.147 Y124.748 E.5178
G1 X115.649 Y124.7 E.01569
G1 X115.143 Y124.58 E.0163
G1 X114.68 Y124.403 E.01553
G1 X114.244 Y124.168 E.01553
G1 X113.843 Y123.877 E.01553
G1 X113.483 Y123.537 E.01553
G1 X113.171 Y123.152 E.01553
G1 X112.912 Y122.731 E.01553
G1 X112.709 Y122.278 E.01553
G1 X112.568 Y121.804 E.01553
G1 X112.506 Y121.416 E.01231
M204 S1000
G1 X112.855 Y120.975 F10800
M204 S800
;TYPE:External perimeter
G1 F1200
G1 X113.756 Y88.472 E1.01948
G1 X113.799 Y88.023 E.01415
G1 X113.9 Y87.589 E.01399
G1 X114.057 Y87.171 E.01399
G1 X114.25 Y86.808 E.0129
G1 X114.526 Y86.415 E.01506
G1 X114.83 Y86.089 E.01399
G1 X115.175 Y85.805 E.01399
G1 X115.553 Y85.569 E.01399
G1 X115.96 Y85.385 E.01399
G1 X116.386 Y85.255 E.01399
G1 X116.826 Y85.182 E.01399
G1 X117.226 Y85.167 E.01255
G1 X133.761 Y85.627 E.51862
G1 X134.21 Y85.67 E.01415
G1 X134.644 Y85.771 E.01399
G1 X135.062 Y85.928 E.01399
G1 X135.455 Y86.138 E.01399
G1 X135.818 Y86.397 E.01399
G1 X136.144 Y86.701 E.01399
G1 X136.428 Y87.046 E.01399
G1 X136.664 Y87.424 E.01399
G1 X136.848 Y87.831 E.01399
G1 X136.978 Y88.257 E.01399
G1 X137.051 Y88.697 E.01399
G1 X137.067 Y89.123 E.01337
G1 X136.162 Y121.525 E1.01633
G1 X136.119 Y121.974 E.01414
M73 P2 R62
G1 X136.018 Y122.409 E.01399
G1 X135.861 Y122.827 E.01399
G1 X135.651 Y123.22 E.01399
G1 X135.392 Y123.583 E.01399
G1 X135.087 Y123.909 E.01399
G1 X134.743 Y124.192 E.01399
G1 X134.365 Y124.428 E.01399
G1 X133.958 Y124.613 E.01399
G1 X133.532 Y124.743 E.01399
G1 X133.092 Y124.816 E.01399
G1 X132.665 Y124.832 E.01337
G1 X116.157 Y124.371 E.5178
G1 X115.708 Y124.327 E.01414
M73 Q2 S64
G1 X115.274 Y124.227 E.01399
G1 X114.856 Y124.07 E.01399
G1 X114.463 Y123.86 E.01399
G1 X114.1 Y123.601 E.01399
G1 X113.774 Y123.296 E.01399
G1 X113.49 Y122.952 E.01399
G1 X113.254 Y122.573 E.01399
G1 X113.07 Y122.167 E.01399
G1 X112.94 Y121.74 E.01399
G1 X112.867 Y121.3 E.01399
G1 X112.857 Y121.035 E.00834
M204 S1000
G1 X112.505 Y120.781 F10800
;WIPE_START
G1 F8640
G1 X112.948 Y117.744 E-.76
;WIPE_END
G1 E-.04 F2100
G1 Z.6 F720
G1 X168.567 Y53.339 F10800
G1 Z.2 F720
G1 E.8 F2100
M204 S800
;TYPE:Solid infill
;WIDTH:0.420312
G1 F1200
G1 X167.978 Y52.75 E.02616
G1 X167.428 Y52.734 E.01724
G1 X168.387 Y53.693 E.04256
G1 X168.373 Y54.212 E.0163
G1 X166.879 Y52.719 E.06628
G1 X166.33 Y52.703 E.01724
G1 X168.358 Y54.732 E.09
G1 X168.344 Y55.251 E.0163
G1 X165.781 Y52.688 E.11372
G1 X165.232 Y52.673 E.01724
G1 X168.329 Y55.77 E.13744
G1 X168.315 Y56.289 E.0163
G1 X164.683 Y52.657 E.16117
G1 X164.134 Y52.642 E.01724
G1 X168.3 Y56.808 E.18489
G1 X168.286 Y57.328 E.0163
G1 X163.585 Y52.627 E.20861
G1 X163.036 Y52.611 E.01724
G1 X168.271 Y57.847 E.23233
G1 X168.257 Y58.366 E.0163
G1 X162.487 Y52.596 E.25606
G1 X161.938 Y52.581 E.01724
G1 X168.242 Y58.885 E.27978
G1 X168.228 Y59.404 E.0163
G1 X161.389 Y52.565 E.3035
G1 X160.84 Y52.55 E.01724
G1 X168.213 Y59.924 E.32722
G1 X168.199 Y60.443 E.0163
G1 X160.291 Y52.535 E.35095
G1 X159.742 Y52.519 E.01724
G1 X168.184 Y60.962 E.37467
G1 X168.17 Y61.481 E.0163
G1 X159.193 Y52.504 E.39839
G1 X158.644 Y52.489 E.01724
G1 X168.155 Y62 E.42211
G1 X168.141 Y62.52 E.0163
G1 X158.095 Y52.473 E.44583
G1 X157.546 Y52.458 E.01724
G1 X168.126 Y63.039 E.46956
G1 X168.112 Y63.558 E.0163
G1 X156.997 Y52.443 E.49328
G1 X156.448 Y52.427 E.01724
G1 X168.097 Y64.077 E.517
G1 X168.083 Y64.596 E.0163
G1 X155.898 Y52.412 E.54072
G1 X155.349 Y52.397 E.01724
G1 X168.068 Y65.116 E.56445
G1 X168.054 Y65.635 E.0163
G1 X154.8 Y52.381 E.58817
G1 X154.251 Y52.366 E.01724
G1 X168.039 Y66.154 E.61189
G1 X168.025 Y66.673 E.0163
G1 X153.702 Y52.351 E.63561
G1 X153.153 Y52.335 E.01724
G1 X168.01 Y67.193 E.65934
G1 X167.996 Y67.712 E.0163
G1 X152.604 Y52.32 E.68306
G1 X152.055 Y52.305 E.01724
G1 X167.981 Y68.231 E.70678
G1 X167.967 Y68.75 E.0163
G1 X151.506 Y52.289 E.7305
G1 X150.957 Y52.274 E.01724
G1 X167.952 Y69.269 E.75422
G1 X167.938 Y69.789 E.0163
G1 X150.408 Y52.259 E.77795
G1 X149.859 Y52.243 E.01724
G1 X167.923 Y70.308 E.80167
G1 X167.909 Y70.827 E.0163
G1 X149.31 Y52.228 E.82539
G1 X148.761 Y52.213 E.01724
G1 X167.894 Y71.346 E.84911
G1 X167.88 Y71.865 E.0163
G1 X148.212 Y52.197 E.87284
G1 X147.663 Y52.182 E.01724
G1 X167.865 Y72.385 E.89656
G1 X167.851 Y72.904 E.0163
G1 X147.114 Y52.167 E.92028
G1 X146.565 Y52.151 E.01724
G1 X167.836 Y73.423 E.944
G1 X167.822 Y73.942 E.0163
G1 X146.016 Y52.136 E.96773
G1 X145.467 Y52.121 E.01724
G1 X167.807 Y74.461 E.99145
G1 X167.793 Y74.981 E.0163
M73 P3 R62
G1 X144.917 Y52.105 E1.01517
G1 X144.368 Y52.09 E.01724
G1 X167.778 Y75.5 E1.03889
G1 X167.764 Y76.019 E.0163
M73 Q3 S64
G1 X143.819 Y52.075 E1.06261
G1 X143.27 Y52.059 E.01724
G1 X167.749 Y76.538 E1.08634
G1 X167.735 Y77.058 E.0163
G1 X142.721 Y52.044 E1.11006
G1 X142.172 Y52.029 E.01724
G1 X167.72 Y77.577 E1.13378
G1 X167.706 Y78.096 E.0163
G1 X141.623 Y52.013 E1.1575
G1 X141.074 Y51.998 E.01724
G1 X167.691 Y78.615 E1.18123
G1 X167.677 Y79.134 E.0163
M73 Q3 S63
G1 X140.525 Y51.983 E1.20495
G1 X139.976 Y51.967 E.01724
M73 P3 R61
G1 X167.662 Y79.654 E1.22867
G1 X167.648 Y80.173 E.0163
G1 X139.427 Y51.952 E1.25239
G1 X138.878 Y51.937 E.01724
G1 X167.633 Y80.692 E1.27612
G1 X167.619 Y81.211 E.0163
G1 X138.329 Y51.921 E1.29984
G1 X137.78 Y51.906 E.01724
G1 X167.604 Y81.73 E1.32356
G1 X167.59 Y82.25 E.0163
G1 X137.231 Y51.891 E1.34728
G1 X136.682 Y51.875 E.01724
G1 X167.575 Y82.769 E1.37101
G1 X167.561 Y83.288 E.0163
G1 X136.133 Y51.86 E1.39473
G1 X135.584 Y51.845 E.01724
G1 X167.546 Y83.807 E1.41845
G1 X167.532 Y84.326 E.0163
G1 X135.035 Y51.829 E1.44217
G1 X134.486 Y51.814 E.01724
M73 P4 R61
G1 X167.517 Y84.846 E1.46589
G1 X167.503 Y85.365 E.0163
G1 X133.936 Y51.799 E1.48962
G1 X133.387 Y51.783 E.01724
M73 Q4 S63
G1 X167.488 Y85.884 E1.51334
G1 X167.474 Y86.403 E.0163
G1 X132.838 Y51.768 E1.53706
G1 X132.289 Y51.753 E.01724
G1 X167.459 Y86.923 E1.56078
G1 X167.445 Y87.442 E.0163
G1 X131.74 Y51.737 E1.58451
G1 X131.191 Y51.722 E.01724
G1 X167.43 Y87.961 E1.60823
G1 X167.416 Y88.48 E.0163
G1 X130.642 Y51.707 E1.63195
G1 X130.093 Y51.691 E.01724
G1 X167.401 Y88.999 E1.65567
G1 X167.387 Y89.519 E.0163
G1 X129.544 Y51.676 E1.6794
G1 X128.995 Y51.661 E.01724
G1 X167.372 Y90.038 E1.70312
G1 X167.358 Y90.557 E.0163
G1 X128.446 Y51.645 E1.72684
G1 X127.897 Y51.63 E.01724
G1 X167.343 Y91.076 E1.75056
G1 X167.329 Y91.595 E.0163
G1 X127.348 Y51.615 E1.77428
G1 X126.799 Y51.599 E.01724
M73 Q4 S62
G1 X167.314 Y92.115 E1.79801
G1 X167.3 Y92.634 E.0163
M73 P5 R60
G1 X126.25 Y51.584 E1.82173
G1 X125.701 Y51.569 E.01724
G1 X167.285 Y93.153 E1.84545
G1 X167.271 Y93.672 E.0163
M73 Q5 S62
G1 X125.152 Y51.553 E1.86917
G1 X124.603 Y51.538 E.01724
G1 X167.256 Y94.191 E1.8929
G1 X167.242 Y94.711 E.0163
G1 X124.054 Y51.523 E1.91662
G1 X123.505 Y51.507 E.01724
G1 X167.227 Y95.23 E1.94034
G1 X167.213 Y95.749 E.0163
G1 X122.956 Y51.492 E1.96406
G1 X122.406 Y51.477 E.01724
G1 X167.198 Y96.268 E1.98779
G1 X167.184 Y96.788 E.0163
G1 X121.857 Y51.461 E2.01151
G1 X121.308 Y51.446 E.01724
G1 X167.169 Y97.307 E2.03523
G1 X167.155 Y97.826 E.0163
G1 X120.759 Y51.431 E2.05895
G1 X120.21 Y51.415 E.01724
G1 X167.14 Y98.345 E2.08267
G1 X167.126 Y98.864 E.0163
M73 P6 R60
G1 X119.661 Y51.4 E2.1064
G1 X119.112 Y51.385 E.01724
G1 X167.111 Y99.384 E2.13012
G1 X167.097 Y99.903 E.0163
M73 Q6 S62
G1 X118.563 Y51.369 E2.15384
G1 X118.014 Y51.354 E.01724
G1 X167.082 Y100.422 E2.17756
G1 X167.068 Y100.941 E.0163
G1 X117.465 Y51.339 E2.20129
G1 X116.916 Y51.323 E.01724
G1 X167.053 Y101.46 E2.22501
G1 X167.039 Y101.98 E.0163
M73 P6 R59
M73 Q6 S61
G1 X116.367 Y51.308 E2.24873
G1 X115.818 Y51.293 E.01724
G1 X167.024 Y102.499 E2.27245
G1 X167.01 Y103.018 E.0163
G1 X115.269 Y51.277 E2.29618
G1 X114.72 Y51.262 E.01724
G1 X166.995 Y103.537 E2.3199
G1 X166.981 Y104.056 E.0163
G1 X114.171 Y51.247 E2.34362
G1 X113.622 Y51.231 E.01724
M73 P7 R59
G1 X166.966 Y104.576 E2.36734
G1 X166.952 Y105.095 E.0163
G1 X113.073 Y51.216 E2.39106
G1 X112.524 Y51.201 E.01724
M73 Q7 S61
G1 X166.937 Y105.614 E2.41479
G1 X166.923 Y106.133 E.0163
G1 X111.975 Y51.185 E2.43851
G1 X111.425 Y51.17 E.01724
G1 X166.908 Y106.653 E2.46223
G1 X166.894 Y107.172 E.0163
G1 X110.876 Y51.155 E2.48595
G1 X110.327 Y51.139 E.01724
G1 X166.879 Y107.691 E2.50968
G1 X166.865 Y108.21 E.0163
G1 X109.778 Y51.124 E2.5334
G1 X109.229 Y51.109 E.01724
G1 X166.85 Y108.729 E2.55712
G1 X166.836 Y109.249 E.0163
G1 X108.68 Y51.093 E2.58084
G1 X108.131 Y51.078 E.01724
M73 P8 R59
M73 Q7 S60
G1 X166.821 Y109.768 E2.60457
G1 X166.807 Y110.287 E.0163
M73 P8 R58
G1 X107.582 Y51.063 E2.62829
G1 X107.033 Y51.047 E.01724
M73 Q8 S60
G1 X166.792 Y110.806 E2.65201
G1 X166.778 Y111.325 E.0163
G1 X106.484 Y51.032 E2.67573
G1 X105.935 Y51.017 E.01724
G1 X166.763 Y111.845 E2.69945
G1 X166.749 Y112.364 E.0163
G1 X105.386 Y51.001 E2.72318
G1 X104.837 Y50.986 E.01724
G1 X166.734 Y112.883 E2.7469
G1 X166.72 Y113.402 E.0163
G1 X104.288 Y50.97 E2.77062
G1 X103.739 Y50.955 E.01724
G1 X166.705 Y113.921 E2.79434
G1 X166.691 Y114.441 E.0163
M73 P9 R58
G1 X103.19 Y50.94 E2.81807
G1 X102.641 Y50.924 E.01724
G1 X166.676 Y114.96 E2.84179
G1 X166.662 Y115.479 E.0163
M73 Q9 S60
G1 X102.092 Y50.909 E2.86551
G1 X101.543 Y50.894 E.01724
G1 X166.647 Y115.998 E2.88923
G1 X166.633 Y116.518 E.0163
G1 X137.257 Y87.142 E1.30363
G1 X136.945 Y86.635 E.01869
M73 Q9 S59
G1 X136.604 Y86.226 E.01671
G1 X136.214 Y85.868 E.01661
G1 X135.777 Y85.56 E.01678
G1 X135.563 Y85.448 E.00756
G1 X100.994 Y50.878 E1.53416
G1 X100.444 Y50.863 E.01724
M73 P9 R57
G1 X134.684 Y85.103 E1.51951
G1 X134.285 Y85.014 E.01283
G1 X134.039 Y84.991 E.00777
G1 X99.895 Y50.848 E1.51523
G1 X99.346 Y50.832 E.01724
G1 X133.473 Y84.959 E1.51448
G1 X132.924 Y84.944 E.01723
G1 X98.797 Y50.817 E1.51448
G1 X98.248 Y50.802 E.01724
G1 X132.375 Y84.928 E1.51449
G1 X131.826 Y84.913 E.01723
M73 P10 R57
G1 X97.699 Y50.786 E1.51449
G1 X97.15 Y50.771 E.01724
G1 X131.277 Y84.898 E1.5145
G1 X130.728 Y84.883 E.01723
G1 X96.601 Y50.756 E1.5145
G1 X96.052 Y50.74 E.01724
G1 X130.179 Y84.868 E1.51451
G1 X129.63 Y84.852 E.01723
G1 X95.503 Y50.725 E1.51451
G1 X94.954 Y50.71 E.01724
M73 Q10 S59
G1 X129.081 Y84.837 E1.51452
G1 X128.532 Y84.822 E.01723
G1 X94.405 Y50.694 E1.51452
G1 X93.856 Y50.679 E.01724
G1 X127.984 Y84.807 E1.51453
G1 X127.435 Y84.791 E.01723
G1 X93.307 Y50.664 E1.51453
G1 X92.758 Y50.648 E.01724
G1 X126.886 Y84.776 E1.51454
G1 X126.337 Y84.761 E.01723
G1 X92.209 Y50.633 E1.51454
G1 X91.66 Y50.618 E.01724
G1 X125.788 Y84.746 E1.51455
G1 X125.239 Y84.731 E.01723
G1 X91.111 Y50.602 E1.51455
G1 X90.562 Y50.587 E.01724
G1 X124.69 Y84.715 E1.51456
G1 X124.141 Y84.7 E.01723
G1 X90.013 Y50.572 E1.51456
G1 X89.464 Y50.556 E.01724
G1 X123.592 Y84.685 E1.51457
G1 X123.043 Y84.67 E.01723
M73 P11 R57
G1 X88.914 Y50.541 E1.51457
G1 X88.365 Y50.526 E.01724
G1 X122.494 Y84.654 E1.51458
G1 X121.945 Y84.639 E.01723
M73 Q10 S58
G1 X87.816 Y50.51 E1.51458
G1 X87.267 Y50.495 E.01724
G1 X121.396 Y84.624 E1.51459
G1 X120.847 Y84.609 E.01723
M73 P11 R56
G1 X86.718 Y50.48 E1.51459
G1 X86.169 Y50.464 E.01724
M73 Q11 S58
G1 X120.298 Y84.594 E1.5146
G1 X119.749 Y84.578 E.01723
G1 X85.62 Y50.449 E1.5146
G1 X85.071 Y50.434 E.01724
G1 X119.201 Y84.563 E1.51461
G1 X118.652 Y84.548 E.01723
G1 X84.522 Y50.418 E1.51461
G1 X84.488 Y50.417 E.00106
G1 X84.475 Y50.905 E.01529
G1 X118.103 Y84.533 E1.49236
G1 X117.554 Y84.517 E.01723
G1 X84.46 Y51.424 E1.46864
G1 X84.446 Y51.943 E.0163
G1 X117.018 Y84.515 E1.44549
G1 X116.729 Y84.528 E.00905
G1 X116.53 Y84.561 E.00634
G1 X84.431 Y52.462 E1.4245
G1 X84.417 Y52.982 E.0163
G1 X116.094 Y84.658 E1.40577
G1 X115.685 Y84.784 E.01341
G1 X84.402 Y53.501 E1.38829
G1 X84.388 Y54.02 E.0163
G1 X115.322 Y84.955 E1.37284
G1 X114.982 Y85.148 E.01229
M73 P12 R56
G1 X84.373 Y54.539 E1.35836
G1 X84.359 Y55.058 E.0163
G1 X114.669 Y85.368 E1.34511
G1 X114.379 Y85.612 E.01189
G1 X84.344 Y55.578 E1.33289
G1 X84.33 Y56.097 E.0163
