; generated by PrusaSlicer 2.5.0+win64 on 2022-12-12 at 02:03:21 UTC


;
;
; 

; external perimeters extrusion width = 0.45mm
; perimeters extrusion width = 0.45mm
; infill extrusion width = 0.45mm
; solid infill extrusion width = 0.45mm
; top infill extrusion width = 0.40mm
; first layer extrusion width = 0.42mm

M73 P0 R39
M73 Q0 S40
M201 X1000 Y1000 Z200 E5000 ; sets maximum accelerations, mm/sec^2
M203 X200 Y200 Z12 E120 ; sets maximum feedrates, mm / sec
M204 P1250 R1250 T1250 ; sets acceleration (P, T) and retract acceleration (R), mm/sec^2
M205 X8.00 Y8.00 Z0.40 E4.50 ; sets the jerk limits, mm/sec
M205 S0 T0 ; sets the minimum extruding and travel feed rate, mm/sec
M107
;TYPE:Custom
M862.3 P "MK3S" ; printer model check
M862.1 P0.4 ; nozzle diameter check
M115 U3.11.0 ; tell printer latest fw version
G90 ; use absolute coordinates
M83 ; extruder relative mode
M104 S215 ; set extruder temp
M140 S60 ; set bed temp
M190 S60 ; wait for bed temp
M109 S215 ; wait for extruder temp
G28 W ; home all without mesh bed level
G80 ; mesh bed leveling

G1 Z0.2 F720
G1 Y-3 F1000 ; go outside print area
G92 E0
G1 X60 E9 F1000 ; intro line
G1 X100 E12.5 F1000 ; intro line

G92 E0
M221 S95

; Don't change E values below. Excessive value can damage the printer.

M907 E538 ; set extruder motor current
G21 ; set units to millimeters
G90 ; use absolute coordinates
M83 ; use relative distances for extrusion
M900 K0.05 ; Filament gcode LA 1.5
M900 K30 ; Filament gcode LA 1.0
M107
;LAYER_CHANGE
;Z:0.2
;HEIGHT:0.2
;BEFORE_LAYER_CHANGE
G92 E0.0
;0.2


G1 E-.8 F2100
G1 Z.4 F720
;AFTER_LAYER_CHANGE
;0.2
G1 X73.028 Y65.316 F10800
G1 Z.2 F720
G1 E.8 F2100
M204 S800
;TYPE:Skirt/Brim
;WIDTH:0.42
G1 F1200
G1 X89.952 Y50.775 E.6996
G1 X91.199 Y50.22 E.04278
G1 X92.695 Y50.522 E.04787
G1 X176.616 Y99.262 E3.04288
G1 X177.55 Y100.257 E.04278
G1 X177.783 Y101.601 E.04278
G1 X177.465 Y102.532 E.03085
G1 X174.588 Y107.257 E.17345
G1 X173.035 Y109.635 E.08907
G1 X169.837 Y114.21 E.17501
G1 X166.481 Y118.608 E.17345
G1 X164.72 Y120.773 E.08751
G1 X161.064 Y124.991 E.17501
G1 X157.234 Y129.051 E.17501
G1 X153.238 Y132.948 E.17501
G1 X149.082 Y136.674 E.17501
G1 X144.774 Y140.223 E.17501
G1 X140.321 Y143.588 E.17501
G1 X135.731 Y146.765 E.17501
M73 P0 R38
G1 X131.013 Y149.746 E.17501
G1 X126.173 Y152.528 E.17501
G1 X121.222 Y155.104 E.17501
G1 X116.167 Y157.472 E.17501
G1 X111.018 Y159.625 E.17501
G1 X109.659 Y159.754 E.04278
G1 X108.454 Y159.114 E.04278
G1 X107.912 Y158.293 E.03085
G1 X72.366 Y67.989 E3.04288
G1 X72.251 Y66.63 E.04278
G1 X72.998 Y65.367 E.04598
M204 S1000
; printing object Sensors-cover.stl id:0 copy 0
;WIPE_START
G1 F8640
G1 X75.492 Y63.22 E-.76
;WIPE_END
G1 E-.04 F2100
G1 Z.6 F720
G1 X75.593 Y67.548 F10800
G1 Z.2 F720
G1 E.8 F2100
M204 S800
;TYPE:Perimeter
;WIDTH:0.419999
G1 F1200
G1 X76.139 Y67.32 E.01857
G1 X77.38 Y66.744 E.0429
G1 X78.598 Y66.12 E.0429
G1 X79.79 Y65.448 E.0429
G1 X80.954 Y64.73 E.0429
M73 P1 R38
G1 X82.09 Y63.967 E.0429
G1 X83.194 Y63.159 E.0429
G1 X84.266 Y62.309 E.0429
G1 X85.304 Y61.417 E.0429
G1 X86.305 Y60.484 E.0429
G1 X87.269 Y59.513 E.0429
G1 X88.195 Y58.505 E.0429
G1 X89.079 Y57.462 E.0429
G1 X89.922 Y56.384 E.0429
G1 X90.722 Y55.274 E.0429
M73 Q1 S40
G1 X91.465 Y54.152 E.0422
G1 X91.773 Y53.646 E.01857
G1 X174.339 Y101.598 E2.99374
G1 X173.349 Y103.264 E.06075
G1 X171.907 Y105.576 E.08543
G1 X170.417 Y107.857 E.08543
G1 X168.88 Y110.107 E.08543
G1 X167.296 Y112.324 E.08543
G1 X165.666 Y114.508 E.08544
G1 X163.991 Y116.656 E.08543
G1 X162.271 Y118.77 E.08543
G1 X160.507 Y120.847 E.08544
G1 X158.701 Y122.886 E.08543
G1 X156.852 Y124.887 E.08543
G1 X154.961 Y126.85 E.08543
G1 X153.03 Y128.772 E.08543
G1 X151.059 Y130.653 E.08543
G1 X149.049 Y132.493 E.08543
G1 X147.001 Y134.29 E.08543
G1 X144.916 Y136.044 E.08543
G1 X142.794 Y137.754 E.08544
G1 X140.638 Y139.419 E.08543
G1 X138.447 Y141.039 E.08544
G1 X136.222 Y142.613 E.08543
G1 X133.965 Y144.139 E.08543
G1 X131.677 Y145.618 E.08543
G1 X129.358 Y147.049 E.08543
G1 X127.01 Y148.431 E.08543
G1 X124.633 Y149.764 E.08543
G1 X122.229 Y151.046 E.08543
G1 X119.799 Y152.278 E.08543
G1 X117.343 Y153.459 E.08543
G1 X114.863 Y154.588 E.08543
G1 X112.36 Y155.666 E.08543
G1 X110.565 Y156.394 E.06075
G1 X75.615 Y67.604 E2.99186
M204 S1000
G1 X75.106 Y67.342 F10800
M204 S800
;TYPE:External perimeter
G1 F1200
G1 X75.98 Y66.978 E.02969
G1 X77.208 Y66.409 E.04244
G1 X78.406 Y65.795 E.0422
G1 X79.592 Y65.127 E.04267
G1 X80.738 Y64.421 E.0422
G1 X81.867 Y63.662 E.04267
G1 X82.96 Y62.864 E.04244
G1 X84.02 Y62.023 E.04244
G1 X85.047 Y61.14 E.04243
G1 X86.032 Y60.224 E.0422
G1 X86.986 Y59.264 E.04244
G1 X87.907 Y58.261 E.04267
G1 X88.778 Y57.235 E.0422
G1 X89.616 Y56.163 E.04267
G1 X90.408 Y55.065 E.04244
G1 X91.151 Y53.943 E.0422
G1 X91.643 Y53.134 E.02969
G1 X174.858 Y101.464 E3.01728
G1 X173.671 Y103.46 E.07282
G1 X172.225 Y105.779 E.08568
G1 X170.731 Y108.067 E.08568
G1 X169.189 Y110.323 E.08568
G1 X167.601 Y112.546 E.08568
G1 X165.966 Y114.736 E.08568
G1 X164.286 Y116.891 E.08568
G1 X162.561 Y119.011 E.08568
G1 X160.792 Y121.094 E.08569
G1 X158.98 Y123.139 E.08568
G1 X157.126 Y125.146 E.08568
G1 X155.23 Y127.114 E.08568
G1 X153.293 Y129.042 E.08568
G1 X151.316 Y130.929 E.08568
G1 X149.301 Y132.774 E.08568
G1 X147.247 Y134.576 E.08568
G1 X145.155 Y136.335 E.08568
G1 X143.028 Y138.05 E.08568
G1 X140.865 Y139.72 E.08568
G1 X138.667 Y141.345 E.08568
G1 X136.437 Y142.923 E.08568
G1 X134.173 Y144.454 E.08568
M73 P2 R38
G1 X131.878 Y145.937 E.08568
G1 X129.553 Y147.372 E.08568
G1 X127.197 Y148.758 E.08568
G1 X124.814 Y150.095 E.08568
G1 X122.403 Y151.381 E.08568
G1 X119.966 Y152.616 E.08568
G1 X117.503 Y153.801 E.08568
G1 X115.016 Y154.933 E.08568
G1 X112.506 Y156.013 E.08568
G1 X110.354 Y156.887 E.07282
G1 X75.128 Y67.398 E3.0154
M204 S1000
G1 X75.503 Y67.393 F10800
;WIPE_START
M73 Q2 S39
G1 F8640
G1 X75.98 Y66.978 E-.21939
G1 X77.208 Y66.409 E-.31251
G1 X78.087 Y65.958 E-.2281
;WIPE_END
G1 E-.04 F2100
G1 Z.6 F720
G1 X119.675 Y92.478 F10800
G1 Z.2 F720
G1 E.8 F2100
M204 S800
;TYPE:Perimeter
G1 F1200
G1 X119.306 Y92.219 E.01413
G1 X119.031 Y91.932 E.0125
G1 X118.809 Y91.6 E.0125
G1 X118.637 Y91.194 E.01383
G1 X118.539 Y90.677 E.01652
G1 X118.554 Y90.152 E.01647
G1 X118.682 Y89.672 E.01557
G1 X118.858 Y89.314 E.0125
G1 X119.142 Y88.945 E.0146
G1 X119.468 Y88.657 E.01365
G1 X119.985 Y88.369 E.01856
G1 X120.682 Y88.224 E.02231
G1 X121.188 Y88.243 E.0159
G1 X121.641 Y88.369 E.01474
G1 X121.999 Y88.545 E.0125
G1 X122.32 Y88.781 E.0125
G1 X122.596 Y89.069 E.0125
G1 X122.817 Y89.4 E.0125
G1 X122.978 Y89.765 E.0125
G1 X123.073 Y90.152 E.0125
G1 X123.099 Y90.549 E.0125
G1 X123.056 Y90.946 E.0125
G1 X122.944 Y91.328 E.01249
G1 X122.768 Y91.686 E.0125
G1 X122.533 Y92.007 E.0125
G1 X122.245 Y92.283 E.0125
G1 X121.913 Y92.504 E.0125
G1 X121.569 Y92.659 E.01185
G1 X121.162 Y92.76 E.01315
G1 X120.764 Y92.786 E.0125
G1 X120.368 Y92.743 E.0125
G1 X119.985 Y92.631 E.0125
G1 X119.729 Y92.505 E.00895
M204 S1000
G1 X119.709 Y92.05 F10800
M204 S800
;TYPE:External perimeter
G1 F1200
G1 X119.573 Y91.953 E.00526
G1 X119.221 Y91.546 E.01685
G1 X119.002 Y91.096 E.01569
G1 X118.914 Y90.644 E.01446
G1 X118.935 Y90.152 E.01543
G1 X119.11 Y89.648 E.01674
G1 X119.361 Y89.26 E.01448
G1 X119.684 Y88.966 E.01371
G1 X120.145 Y88.711 E.0165
G1 X120.749 Y88.595 E.0193
G1 X121.161 Y88.622 E.01294
G1 X121.482 Y88.711 E.01045
G1 X121.783 Y88.854 E.01044
G1 X122.054 Y89.047 E.01044
G1 X122.287 Y89.285 E.01044
G1 X122.476 Y89.559 E.01044
G1 X122.614 Y89.862 E.01044
G1 X122.697 Y90.185 E.01044
G1 X122.723 Y90.516 E.01044
G1 X122.692 Y90.848 E.01044
G1 X122.603 Y91.169 E.01044
G1 X122.459 Y91.469 E.01044
G1 X122.266 Y91.74 E.01044
G1 X122.029 Y91.974 E.01044
G1 X121.754 Y92.162 E.01044
G1 X121.458 Y92.299 E.01023
G1 X121.129 Y92.384 E.01066
G1 X120.797 Y92.41 E.01044
G1 X120.465 Y92.378 E.01044
G1 X120.145 Y92.289 E.01044
G1 X119.844 Y92.146 E.01044
G1 X119.758 Y92.085 E.0033
M204 S1000
G1 X119.56 Y92.126 F10800
;WIPE_START
G1 F8640
G1 X119.573 Y91.953 E-.05258
G1 X119.221 Y91.546 E-.1241
G1 X119.002 Y91.096 E-.11557
G1 X118.914 Y90.644 E-.10645
G1 X118.935 Y90.152 E-.11363
G1 X119.11 Y89.648 E-.12331
G1 X119.361 Y89.26 E-.10666
G1 X119.417 Y89.208 E-.0177
;WIPE_END
G1 E-.04 F2100
G1 Z.6 F720
G1 X119.55 Y78.372 F10800
G1 Z.2 F720
G1 E.8 F2100
M204 S800
;TYPE:Perimeter
G1 F1200
G1 X119.541 Y77.875 E.01561
G1 X119.674 Y77.388 E.01583
G1 X120.006 Y76.875 E.01915
G1 X120.143 Y76.735 E.00616
G1 X120.614 Y76.408 E.01795
G1 X121.2 Y76.241 E.01911
G1 X121.401 Y76.224 E.00634
G1 X122.016 Y76.303 E.01942
G1 X122.511 Y76.534 E.01715
G1 X122.963 Y76.952 E.01931
G1 X123.08 Y77.117 E.00634
G1 X123.293 Y77.574 E.01579
G1 X123.344 Y77.769 E.00634
G1 X123.379 Y78.348 E.01819
G1 X123.234 Y78.899 E.01784
G1 X123.152 Y79.071 E.00598
G1 X122.844 Y79.502 E.0166
G1 X122.373 Y79.851 E.01839
G1 X122.19 Y79.938 E.00634
G1 X121.704 Y80.068 E.01579
G1 X121.544 Y80.087 E.00507
G1 X121.028 Y80.038 E.01622
G1 X120.839 Y79.986 E.00616
G1 X120.37 Y79.759 E.01633
G1 X119.937 Y79.352 E.01864
G1 X119.824 Y79.192 E.00616
G1 X119.611 Y78.735 E.01579
G1 X119.56 Y78.432 E.00965
M204 S1000
G1 X119.942 Y78.427 F10800
M204 S800
;TYPE:External perimeter
G1 F1200
G1 X119.905 Y77.972 E.01431
G1 X120.048 Y77.481 E.01604
G1 X120.336 Y77.064 E.01589
G1 X120.75 Y76.764 E.01603
G1 X121.297 Y76.605 E.01787
G1 X121.839 Y76.646 E.01702
G1 X122.307 Y76.852 E.01604
G1 X122.699 Y77.222 E.0169
G1 X122.951 Y77.733 E.01787
G1 X123.005 Y78.273 E.01702
G1 X122.871 Y78.797 E.01696
G1 X122.586 Y79.222 E.01604
G1 X122.154 Y79.545 E.0169
G1 X121.606 Y79.704 E.01787
G1 X121.051 Y79.661 E.01745
G1 X120.573 Y79.44 E.01654
G1 X120.203 Y79.086 E.01604
G1 X119.979 Y78.632 E.01586
G1 X119.952 Y78.486 E.00465
M204 S1000
G1 X119.565 Y78.292 F10800
;WIPE_START
G1 F8640
G1 X119.905 Y77.972 E-.11918
G1 X120.048 Y77.481 E-.11814
G1 X120.336 Y77.064 E-.11703
G1 X120.75 Y76.764 E-.11805
G1 X121.297 Y76.605 E-.13162
G1 X121.839 Y76.646 E-.12531
G1 X121.96 Y76.699 E-.03066
;WIPE_END
G1 E-.04 F2100
G1 Z.6 F720
G1 X109.215 Y88.62 F10800
G1 Z.2 F720
G1 E.8 F2100
M204 S800
;TYPE:Perimeter
G1 F1200
G1 X109.554 Y88.642 E.01067
G1 X109.738 Y88.692 E.00598
G1 X110.209 Y88.916 E.01635
G1 X110.642 Y89.323 E.01864
G1 X110.845 Y89.672 E.01264
G1 X111.016 Y90.086 E.01405
G1 X111.064 Y90.623 E.01689
G1 X110.928 Y91.233 E.01962
G1 X110.846 Y91.412 E.00616
G1 X110.532 Y91.863 E.01723
G1 X110.023 Y92.237 E.01983
G1 X109.839 Y92.322 E.00634
G1 X109.335 Y92.45 E.01629
G1 X108.74 Y92.417 E.01868
G1 X108.556 Y92.369 E.00598
G1 X108.088 Y92.155 E.01612
G1 X107.62 Y91.727 E.01989
G1 X107.503 Y91.562 E.00634
G1 X107.29 Y91.106 E.01579
G1 X107.239 Y90.91 E.00634
G1 X107.201 Y90.395 E.01621
G1 X107.349 Y89.781 E.01979
G1 X107.431 Y89.609 E.00598
G1 X107.728 Y89.191 E.01607
G1 X108.24 Y88.813 E.01995
G1 X108.423 Y88.729 E.00634
G1 X108.923 Y88.602 E.01615
G1 X109.155 Y88.617 E.0073
M204 S1000
G1 X109.461 Y89.012 F10800
M204 S800
;TYPE:External perimeter
G1 F1200
G1 X109.518 Y89.017 E.0018
G1 X109.979 Y89.22 E.01581
G1 X110.378 Y89.593 E.01713
G1 X110.63 Y90.104 E.01787
G1 X110.686 Y90.615 E.0161
G1 X110.562 Y91.139 E.0169
G1 X110.266 Y91.592 E.01696
G1 X109.806 Y91.929 E.01787
G1 X109.284 Y92.075 E.01702
G1 X108.773 Y92.042 E.01604
G1 X108.278 Y91.828 E.0169
G1 X107.884 Y91.458 E.01696
G1 X107.632 Y90.947 E.01787
G1 X107.578 Y90.407 E.01702
G1 X107.713 Y89.883 E.01696
G1 X107.997 Y89.458 E.01604
G1 X108.456 Y89.122 E.01782
G1 X108.979 Y88.976 E.01702
G1 X109.401 Y89.008 E.01327
M204 S1000
G1 X109.49 Y88.963 F10800
;WIPE_START
G1 F8640
G1 X109.518 Y89.017 E-.02711
G1 X109.979 Y89.22 E-.1164
G1 X110.378 Y89.593 E-.12613
G1 X110.63 Y90.104 E-.13162
G1 X110.686 Y90.615 E-.1186
G1 X110.562 Y91.139 E-.12445
G1 X110.288 Y91.559 E-.1157
;WIPE_END
G1 E-.04 F2100
G1 Z.6 F720
G1 X173.897 Y102.121 F10800
G1 Z.2 F720
G1 E.8 F2100
M204 S800
;TYPE:Solid infill
;WIDTH:0.421208
G1 F1200
G1 X172.815 Y101.04 E.0481
G1 X171.539 Y100.299 E.04642
G1 X173.573 Y102.333 E.09048
G1 X173.374 Y102.669 E.01228
G1 X170.263 Y99.558 E.13837
G1 X168.987 Y98.817 E.04642
G1 X173.174 Y103.004 E.18626
G1 X172.971 Y103.335 E.01223
G1 X167.711 Y98.076 E.23398
G1 X166.435 Y97.335 E.04642
G1 X172.765 Y103.665 E.2816
G1 X172.56 Y103.995 E.01221
G1 X165.159 Y96.593 E.32923
G1 X163.883 Y95.852 E.04642
G1 X172.354 Y104.324 E.37686
G1 X172.149 Y104.654 E.01221
G1 X162.606 Y95.111 E.42448
G1 X161.33 Y94.37 E.04642
G1 X171.943 Y104.983 E.47211
G1 X171.738 Y105.313 E.01221
G1 X160.054 Y93.629 E.51974
G1 X158.778 Y92.888 E.04642
G1 X171.529 Y105.638 E.56719
G1 X171.317 Y105.962 E.01216
G1 X157.502 Y92.147 E.61456
G1 X156.226 Y91.405 E.04642
G1 X171.106 Y106.285 E.66192
G1 X170.895 Y106.609 E.01216
G1 X154.95 Y90.664 E.70929
G1 X153.674 Y89.923 E.04642
G1 X170.683 Y106.933 E.75665
G1 X170.472 Y107.256 E.01216
M73 P3 R38
G1 X152.397 Y89.182 E.80402
G1 X151.121 Y88.441 E.04642
G1 X170.261 Y107.58 E.85139
G1 X170.046 Y107.9 E.01213
M73 Q3 S39
G1 X149.845 Y87.7 E.89859
G1 X148.569 Y86.959 E.04642
G1 X169.828 Y108.218 E.94569
G1 X169.611 Y108.536 E.01211
M73 P3 R37
G1 X147.293 Y86.217 E.9928
G1 X146.017 Y85.476 E.04642
G1 X169.394 Y108.854 E1.03991
G1 X169.177 Y109.171 E.01211
G1 X144.741 Y84.735 E1.08702
G1 X143.465 Y83.994 E.04642
G1 X168.96 Y109.489 E1.13412
G1 X168.743 Y109.807 E.01211
G1 X142.188 Y83.253 E1.18123
G1 X140.912 Y82.512 E.04642
G1 X168.522 Y110.122 E1.22819
G1 X168.299 Y110.434 E.01206
G1 X139.636 Y81.771 E1.27504
G1 X138.36 Y81.029 E.04642
G1 X168.076 Y110.746 E1.32189
G1 X167.853 Y111.058 E.01206
G1 X137.084 Y80.288 E1.36874
G1 X135.808 Y79.547 E.04642
G1 X167.63 Y111.37 E1.41559
G1 X167.408 Y111.682 E.01206
M73 P4 R37
G1 X134.532 Y78.806 E1.46244
G1 X133.256 Y78.065 E.04642
M73 Q4 S39
G1 X167.185 Y111.994 E1.50929
G1 X166.959 Y112.303 E.01204
G1 X131.979 Y77.324 E1.55602
G1 X130.703 Y76.583 E.04642
G1 X166.73 Y112.609 E1.60261
G1 X166.502 Y112.916 E.01202
G1 X129.427 Y75.841 E1.64921
G1 X128.151 Y75.1 E.04642
M73 Q4 S38
G1 X166.273 Y113.222 E1.6958
G1 X166.044 Y113.528 E.01202
G1 X126.875 Y74.359 E1.7424
G1 X125.599 Y73.618 E.04642
G1 X165.816 Y113.835 E1.78899
G1 X165.587 Y114.141 E.01202
G1 X124.323 Y72.877 E1.83559
G1 X123.047 Y72.136 E.04642
M73 P5 R37
G1 X165.356 Y114.445 E1.88209
G1 X165.122 Y114.746 E.01199
M73 Q5 S38
G1 X121.77 Y71.394 E1.92843
G1 X120.494 Y70.653 E.04642
G1 X164.888 Y115.047 E1.97478
G1 X164.653 Y115.347 E.01199
G1 X119.218 Y69.912 E2.02112
G1 X117.942 Y69.171 E.04642
G1 X164.419 Y115.648 E2.06746
G1 X164.184 Y115.948 E.01199
M73 P5 R36
G1 X116.666 Y68.43 E2.1138
G1 X115.39 Y67.689 E.04642
G1 X163.95 Y116.249 E2.16014
G1 X163.714 Y116.548 E.01198
M73 P6 R36
G1 X114.114 Y66.948 E2.20642
G1 X112.838 Y66.206 E.04642
M73 Q6 S38
G1 X163.474 Y116.843 E2.25251
G1 X163.234 Y117.138 E.01196
G1 X123.548 Y77.452 E1.7654
G1 X123.333 Y76.99 E.01602
G1 X123.167 Y76.756 E.00901
G1 X122.817 Y76.413 E.01543
G1 X122.655 Y76.29 E.0064
G1 X122.15 Y76.054 E.01752
G1 X111.561 Y65.465 E.47103
G1 X110.285 Y64.724 E.04642
G1 X121.512 Y75.951 E.49941
G1 X121.42 Y75.942 E.0029
G1 X121.134 Y75.966 E.00904
G1 X121.024 Y75.997 E.00361
G1 X109.009 Y63.983 E.53445
G1 X107.733 Y63.242 E.04642
G1 X120.609 Y76.118 E.57277
G1 X120.491 Y76.152 E.00387
G1 X120.264 Y76.308 E.00865
G1 X106.457 Y62.501 E.6142
G1 X105.181 Y61.76 E.04642
G1 X119.952 Y76.53 E.65706
G1 X119.777 Y76.709 E.00785
G1 X119.704 Y76.818 E.00412
G1 X103.905 Y61.018 E.70281
G1 X102.629 Y60.277 E.04642
G1 X119.489 Y77.138 E.75003
G1 X119.446 Y77.203 E.00247
G1 X119.348 Y77.532 E.01078
G1 X101.352 Y59.536 E.8005
G1 X100.076 Y58.795 E.04642
G1 X119.247 Y77.966 E.85278
G1 X119.276 Y78.529 E.01776
G1 X98.332 Y57.586 E.93165
M204 S1000
;WIPE_START
G1 F8640
M73 P7 R36
G1 X100.66 Y59.913 E-.76
;WIPE_END
G1 E-.04 F2100
G1 Z.6 F720
G1 X123.465 Y77.904 F10800
G1 Z.2 F720
G1 E.8 F2100
M204 S800
G1 F1200
G1 X162.994 Y117.433 E1.75842
G1 X162.754 Y117.728 E.01196
M73 Q6 S37
G1 X123.608 Y78.582 E1.74136
G1 X123.495 Y79.004 E.01373
M73 Q7 S37
G1 X162.514 Y118.023 E1.73573
