; generated by PrusaSlicer 2.5.0+win64 on 2022-12-12 at 06:18:10 UTC


;
;
; 

; external perimeters extrusion width = 0.45mm
; perimeters extrusion width = 0.45mm
; infill extrusion width = 0.45mm
; solid infill extrusion width = 0.45mm
; top infill extrusion width = 0.40mm
; first layer extrusion width = 0.42mm

M73 P0 R32
M73 Q0 S33
M201 X1000 Y1000 Z200 E5000 ; sets maximum accelerations, mm/sec^2
M203 X200 Y200 Z12 E120 ; sets maximum feedrates, mm / sec
M204 P1250 R1250 T1250 ; sets acceleration (P, T) and retract acceleration (R), mm/sec^2
M205 X8.00 Y8.00 Z0.40 E4.50 ; sets the jerk limits, mm/sec
M205 S0 T0 ; sets the minimum extruding and travel feed rate, mm/sec
M107
;TYPE:Custom
M862.3 P "MK3S" ; printer model check
M862.1 P0.4 ; nozzle diameter check
M115 U3.11.0 ; tell printer latest fw version
G90 ; use absolute coordinates
M83 ; extruder relative mode
M104 S215 ; set extruder temp
M140 S60 ; set bed temp
M190 S60 ; wait for bed temp
M109 S215 ; wait for extruder temp
G28 W ; home all without mesh bed level
G80 ; mesh bed leveling

G1 Z0.2 F720
G1 Y-3 F1000 ; go outside print area
G92 E0
G1 X60 E9 F1000 ; intro line
G1 X100 E12.5 F1000 ; intro line

G92 E0
M221 S95

; Don't change E values below. Excessive value can damage the printer.

M907 E538 ; set extruder motor current
G21 ; set units to millimeters
G90 ; use absolute coordinates
M83 ; use relative distances for extrusion
M900 K0.05 ; Filament gcode LA 1.5
M900 K30 ; Filament gcode LA 1.0
M107
;LAYER_CHANGE
;Z:0.2
;HEIGHT:0.2
;BEFORE_LAYER_CHANGE
G92 E0.0
;0.2


G1 E-.8 F2100
G1 Z.4 F720
;AFTER_LAYER_CHANGE
;0.2
G1 X78.296 Y97.363 F10800
G1 Z.2 F720
G1 E.8 F2100
M204 S800
;TYPE:Skirt/Brim
;WIDTH:0.42
G1 F1200
G1 X138.036 Y57.088 E2.25902
G1 X139.339 Y56.682 E.04278
G1 X140.79 Y57.156 E.04787
G1 X171.8 Y80.381 E1.21474
G1 X172.611 Y81.477 E.04278
G1 X172.64 Y83.004 E.04787
G1 X150.799 Y151.661 E2.25902
G1 X150.029 Y152.788 E.04278
G1 X148.767 Y153.306 E.04278
G1 X147.791 Y153.199 E.0308
G1 X142.861 Y151.523 E.16325
G1 X140.356 Y150.588 E.08383
G1 X135.534 Y148.624 E.16325
G1 X133.132 Y147.562 E.08236
G1 X128.35 Y145.277 E.16618
G1 X125.901 Y144.013 E.08641
G1 X121.458 Y141.555 E.1592
G1 X116.963 Y138.836 E.16472
G1 X112.579 Y135.941 E.16471
G1 X108.275 Y132.848 E.16618
G1 X104.17 Y129.646 E.16325
G1 X102.147 Y127.97 E.08236
G1 X98.203 Y124.5 E.16471
G1 X94.398 Y120.878 E.16472
M73 P1 R32
G1 X90.706 Y117.074 E.16618
M73 Q1 S33
G1 X88.934 Y115.136 E.08236
G1 X85.535 Y111.192 E.16325
G1 X82.235 Y107.044 E.16618
G1 X80.587 Y104.836 E.08641
G1 X77.667 Y100.682 E.1592
G1 X77.248 Y99.383 E.04278
G1 X77.613 Y98.068 E.04278
G1 X78.254 Y97.406 E.02892
M204 S1000
; printing object Water-cover.stl id:0 copy 0
;WIPE_START
G1 F8640
G1 X80.983 Y95.565 E-.76
;WIPE_END
G1 E-.04 F2100
G1 Z.6 F720
G1 X169.39 Y82.784 F10800
G1 Z.2 F720
G1 E.8 F2100
M204 S800
;TYPE:Perimeter
;WIDTH:0.419999
G1 F1200
G1 X148.024 Y149.945 E2.20977
G1 X146.336 Y149.389 E.05573
G1 X143.916 Y148.54 E.08041
G1 X141.514 Y147.643 E.0804
G1 X139.129 Y146.699 E.08041
G1 X136.764 Y145.709 E.08041
G1 X134.418 Y144.672 E.0804
G1 X132.094 Y143.589 E.08041
G1 X129.791 Y142.46 E.08041
M73 P1 R31
G1 X127.511 Y141.286 E.08041
G1 X125.254 Y140.068 E.08041
G1 X123.022 Y138.805 E.08041
G1 X120.815 Y137.499 E.08041
G1 X118.635 Y136.149 E.0804
G1 X116.481 Y134.757 E.08041
G1 X114.355 Y133.323 E.0804
G1 X112.258 Y131.847 E.0804
G1 X110.19 Y130.33 E.08041
G1 X108.153 Y128.772 E.08041
G1 X106.147 Y127.175 E.08041
G1 X104.172 Y125.538 E.0804
G1 X102.23 Y123.863 E.08041
G1 X100.322 Y122.151 E.08041
G1 X98.447 Y120.4 E.08041
G1 X96.608 Y118.614 E.08041
G1 X94.804 Y116.791 E.08041
G1 X93.036 Y114.933 E.08041
G1 X91.305 Y113.041 E.08041
G1 X89.612 Y111.115 E.08041
G1 X87.957 Y109.156 E.0804
G1 X86.341 Y107.165 E.08041
G1 X84.764 Y105.142 E.08041
G1 X83.228 Y103.089 E.0804
G1 X81.732 Y101.006 E.08041
G1 X80.724 Y99.542 E.05573
G1 X139.162 Y60.145 E2.20977
G1 X139.711 Y60.934 E.03011
G1 X140.735 Y62.319 E.05401
G1 X141.82 Y63.699 E.05505
G1 X142.923 Y65.022 E.05401
G1 X144.075 Y66.325 E.05453
G1 X145.278 Y67.608 E.05515
G1 X146.806 Y69.127 E.06756
G1 X147.752 Y70.025 E.04088
G1 X149.06 Y71.196 E.05505
G1 X150.376 Y72.307 E.05402
G1 X151.399 Y73.121 E.04098
G1 X153.143 Y74.442 E.06859
G1 X154.565 Y75.444 E.05453
G1 X156.001 Y76.394 E.05401
G1 X157.479 Y77.312 E.05453
G1 X158.982 Y78.186 E.05453
G1 X160.525 Y79.023 E.05505
G1 X162.063 Y79.8 E.05402
G1 X163.637 Y80.54 E.05453
G1 X165.232 Y81.233 E.05453
G1 X166.862 Y81.886 E.05505
G1 X168.479 Y82.479 E.05401
G1 X169.333 Y82.765 E.02823
M204 S1000
G1 X169.862 Y82.544 F10800
M204 S800
;TYPE:External perimeter
G1 F1200
G1 X148.268 Y150.422 E2.23336
G1 X146.215 Y149.746 E.06778
M73 P2 R31
G1 X143.788 Y148.895 E.08064
G1 X141.378 Y147.995 E.08064
G1 X138.987 Y147.049 E.08064
G1 X136.615 Y146.055 E.08064
G1 X134.263 Y145.015 E.08064
M73 Q2 S33
G1 X131.931 Y143.929 E.08064
G1 X129.622 Y142.797 E.08064
G1 X127.335 Y141.62 E.08064
G1 X125.072 Y140.398 E.08064
G1 X122.833 Y139.131 E.08064
G1 X120.62 Y137.821 E.08064
G1 X118.433 Y136.468 E.08064
G1 X116.273 Y135.072 E.08065
G1 X114.141 Y133.633 E.08064
G1 X112.038 Y132.153 E.08064
G1 X109.964 Y130.631 E.08065
G1 X107.921 Y129.069 E.08064
G1 X105.909 Y127.468 E.08064
G1 X103.929 Y125.826 E.08064
G1 X101.981 Y124.147 E.08064
G1 X100.067 Y122.429 E.08064
G1 X98.187 Y120.673 E.08064
G1 X96.342 Y118.881 E.08064
G1 X94.533 Y117.054 E.08064
G1 X92.76 Y115.19 E.08064
G1 X91.024 Y113.293 E.08064
G1 X89.326 Y111.361 E.08064
G1 X87.666 Y109.397 E.08064
G1 X86.046 Y107.399 E.08064
G1 X84.464 Y105.371 E.08064
G1 X82.924 Y103.312 E.08063
G1 X81.424 Y101.223 E.08064
G1 X80.197 Y99.442 E.06779
G1 X139.259 Y59.625 E2.23336
G1 X140.014 Y60.709 E.04142
M73 Q2 S32
G1 X141.038 Y62.094 E.05401
G1 X142.109 Y63.458 E.05436
G1 X143.213 Y64.781 E.05401
G1 X144.357 Y66.075 E.05419
G1 X145.544 Y67.341 E.05439
G1 X147.072 Y68.86 E.06756
G1 X148.011 Y69.751 E.04061
G1 X149.303 Y70.908 E.05436
G1 X150.62 Y72.019 E.05402
G1 X151.634 Y72.826 E.04064
G1 X153.36 Y74.134 E.0679
G1 X154.773 Y75.129 E.05419
G1 X156.209 Y76.08 E.05401
G1 X157.678 Y76.991 E.05419
G1 X159.172 Y77.86 E.05419
G1 X160.696 Y78.687 E.05436
G1 X162.233 Y79.464 E.05402
G1 X163.797 Y80.199 E.05418
G1 X165.382 Y80.887 E.05419
G1 X166.992 Y81.532 E.05436
G1 X168.609 Y82.125 E.05401
G1 X169.805 Y82.525 E.03954
M204 S1000
G1 X169.563 Y82.81 F10800
;WIPE_START
G1 F8640
G1 X168.81 Y85.662 E-.76
;WIPE_END
G1 E-.04 F2100
G1 Z.6 F720
G1 X169.064 Y83.436 F10800
G1 Z.2 F720
G1 E.8 F2100
M204 S800
;TYPE:Solid infill
;WIDTH:0.420161
G1 F1200
G1 X168.367 Y82.739 E.03091
G1 X167.524 Y82.43 E.02816
G1 X168.8 Y83.706 E.05658
G1 X168.671 Y84.11 E.01332
G1 X166.677 Y82.116 E.08846
G1 X165.787 Y81.76 E.03006
G1 X168.542 Y84.515 E.12221
G1 X168.414 Y84.92 E.01332
G1 X164.884 Y81.39 E.15657
G1 X163.94 Y80.98 E.03228
G1 X168.285 Y85.325 E.19272
G1 X168.156 Y85.729 E.01332
G1 X162.962 Y80.535 E.23041
G1 X161.956 Y80.063 E.03487
G1 X168.027 Y86.134 E.26933
G1 X167.899 Y86.539 E.01332
G1 X160.878 Y79.518 E.31143
G1 X159.751 Y78.924 E.03998
G1 X167.77 Y86.943 E.35574
G1 X167.641 Y87.348 E.01332
G1 X158.56 Y78.267 E.40283
G1 X157.281 Y77.522 E.04643
G1 X167.512 Y87.753 E.45385
G1 X167.384 Y88.158 E.01332
G1 X155.875 Y76.649 E.51052
G1 X154.286 Y75.594 E.05984
G1 X167.255 Y88.562 E.57531
G1 X167.126 Y88.967 E.01332
G1 X151.493 Y73.334 E.69349
M204 S1000
;WIPE_START
G1 F8640
G1 X153.82 Y75.662 E-.76
;WIPE_END
G1 E-.04 F2100
G1 Z.6 F720
G1 X141.007 Y62.848 F10800
G1 Z.2 F720
G1 E.8 F2100
M204 S800
G1 F1200
G1 X138.853 Y60.695 E.09552
G1 X138.535 Y60.909 E.01206
G1 X142.09 Y64.465 E.15773
G1 X142.707 Y65.204 E.0302
G1 X143.879 Y66.53 E.0555
M73 P3 R31
G1 X145.078 Y67.807 E.05496
G1 X146.608 Y69.329 E.06767
G1 X147.558 Y70.231 E.04111
G1 X148.86 Y71.397 E.05481
G1 X149.9 Y72.275 E.04269
G1 X166.997 Y89.372 E.75845
G1 X166.869 Y89.777 E.01332
M73 Q3 S32
G1 X138.216 Y61.124 E1.27104
G1 X137.897 Y61.339 E.01206
G1 X166.74 Y90.181 E1.27947
G1 X166.611 Y90.586 E.01332
G1 X137.579 Y61.554 E1.28789
G1 X137.26 Y61.769 E.01206
G1 X166.482 Y90.991 E1.29632
G1 X166.353 Y91.396 E.01332
G1 X136.941 Y61.984 E1.30474
G1 X136.623 Y62.198 E.01206
G1 X166.225 Y91.8 E1.31317
G1 X166.096 Y92.205 E.01332
G1 X136.304 Y62.413 E1.32159
G1 X135.985 Y62.628 E.01206
G1 X165.967 Y92.61 E1.33001
G1 X165.838 Y93.015 E.01332
G1 X135.667 Y62.843 E1.33844
G1 X135.348 Y63.058 E.01206
M73 P4 R31
G1 X165.71 Y93.419 E1.34686
G1 X165.581 Y93.824 E.01332
M73 Q4 S32
G1 X135.029 Y63.273 E1.35529
G1 X134.711 Y63.487 E.01206
G1 X165.452 Y94.229 E1.36371
G1 X165.323 Y94.634 E.01332
G1 X134.392 Y63.702 E1.37214
G1 X134.073 Y63.917 E.01206
M73 P4 R30
G1 X165.195 Y95.038 E1.38056
G1 X165.066 Y95.443 E.01332
G1 X133.755 Y64.132 E1.38899
G1 X133.436 Y64.347 E.01206
G1 X164.937 Y95.848 E1.39741
G1 X164.808 Y96.253 E.01332
G1 X133.117 Y64.562 E1.40583
G1 X132.799 Y64.776 E.01206
G1 X164.68 Y96.657 E1.41426
G1 X164.551 Y97.062 E.01332
M73 P5 R30
G1 X132.48 Y64.991 E1.42268
G1 X132.161 Y65.206 E.01206
M73 Q5 S32
G1 X164.422 Y97.467 E1.43111
G1 X164.293 Y97.872 E.01332
G1 X131.843 Y65.421 E1.43953
G1 X131.524 Y65.636 E.01206
M73 Q5 S31
G1 X164.165 Y98.276 E1.44796
G1 X164.036 Y98.681 E.01332
G1 X131.205 Y65.851 E1.45638
G1 X130.887 Y66.065 E.01206
G1 X163.907 Y99.086 E1.46481
G1 X163.778 Y99.49 E.01332
G1 X130.568 Y66.28 E1.47323
G1 X130.249 Y66.495 E.01206
G1 X163.65 Y99.895 E1.48166
G1 X163.521 Y100.3 E.01332
M73 P6 R30
G1 X129.931 Y66.71 E1.49008
G1 X129.612 Y66.925 E.01206
G1 X163.392 Y100.705 E1.4985
G1 X163.263 Y101.109 E.01332
M73 Q6 S31
G1 X129.293 Y67.139 E1.50693
G1 X128.975 Y67.354 E.01206
G1 X163.135 Y101.514 E1.51535
G1 X163.006 Y101.919 E.01332
G1 X128.656 Y67.569 E1.52378
G1 X128.337 Y67.784 E.01206
G1 X162.877 Y102.324 E1.5322
G1 X162.748 Y102.728 E.01332
G1 X128.019 Y67.999 E1.54063
G1 X127.7 Y68.214 E.01206
G1 X162.62 Y103.133 E1.54905
G1 X162.491 Y103.538 E.01332
M73 P7 R30
G1 X127.381 Y68.428 E1.55748
G1 X127.063 Y68.643 E.01206
G1 X162.362 Y103.943 E1.5659
G1 X162.233 Y104.347 E.01332
M73 Q7 S31
G1 X126.744 Y68.858 E1.57433
G1 X126.425 Y69.073 E.01206
G1 X162.104 Y104.752 E1.58275
G1 X161.976 Y105.157 E.01332
M73 P7 R29
G1 X126.107 Y69.288 E1.59117
G1 X125.788 Y69.503 E.01206
G1 X161.847 Y105.562 E1.5996
G1 X161.718 Y105.966 E.01332
G1 X125.469 Y69.717 E1.60802
G1 X125.151 Y69.932 E.01206
G1 X161.589 Y106.371 E1.61645
G1 X161.461 Y106.776 E.01332
M73 P8 R29
G1 X124.832 Y70.147 E1.62487
G1 X124.513 Y70.362 E.01206
G1 X161.332 Y107.181 E1.6333
G1 X161.203 Y107.585 E.01332
M73 Q8 S31
G1 X124.195 Y70.577 E1.64172
G1 X123.876 Y70.792 E.01206
M73 Q8 S30
G1 X161.074 Y107.99 E1.65015
G1 X160.946 Y108.395 E.01332
G1 X123.557 Y71.006 E1.65857
G1 X123.239 Y71.221 E.01206
G1 X160.817 Y108.8 E1.66699
G1 X160.688 Y109.204 E.01332
G1 X122.92 Y71.436 E1.67542
G1 X122.601 Y71.651 E.01206
M73 P9 R29
G1 X160.559 Y109.609 E1.68384
G1 X160.431 Y110.014 E.01332
G1 X122.283 Y71.866 E1.69227
G1 X121.964 Y72.081 E.01206
M73 Q9 S30
G1 X160.302 Y110.419 E1.70069
G1 X160.173 Y110.823 E.01332
G1 X121.645 Y72.295 E1.70912
G1 X121.327 Y72.51 E.01206
G1 X160.044 Y111.228 E1.71754
G1 X159.916 Y111.633 E.01332
G1 X121.008 Y72.725 E1.72597
G1 X120.689 Y72.94 E.01206
G1 X159.787 Y112.037 E1.73439
G1 X159.658 Y112.442 E.01332
M73 P10 R29
G1 X120.371 Y73.155 E1.74282
G1 X120.052 Y73.37 E.01206
G1 X159.529 Y112.847 E1.75124
G1 X159.401 Y113.252 E.01332
G1 X119.733 Y73.584 E1.75966
G1 X119.415 Y73.799 E.01206
M73 Q10 S30
G1 X159.272 Y113.656 E1.76809
G1 X159.143 Y114.061 E.01332
M73 P10 R28
G1 X119.096 Y74.014 E1.77651
G1 X118.777 Y74.229 E.01206
G1 X159.014 Y114.466 E1.78494
G1 X158.886 Y114.871 E.01332
G1 X118.459 Y74.444 E1.79336
G1 X118.14 Y74.659 E.01206
M73 P11 R28
G1 X158.757 Y115.275 E1.80179
G1 X158.628 Y115.68 E.01332
G1 X117.821 Y74.873 E1.81021
G1 X117.503 Y75.088 E.01206
G1 X158.499 Y116.085 E1.81864
G1 X158.371 Y116.49 E.01332
M73 Q11 S29
G1 X117.184 Y75.303 E1.82706
G1 X116.865 Y75.518 E.01206
G1 X158.242 Y116.894 E1.83549
G1 X158.113 Y117.299 E.01332
G1 X116.547 Y75.733 E1.84391
G1 X116.228 Y75.948 E.01206
M73 P12 R28
G1 X157.984 Y117.704 E1.85233
G1 X157.855 Y118.109 E.01332
G1 X115.909 Y76.162 E1.86076
G1 X115.591 Y76.377 E.01206
G1 X157.727 Y118.513 E1.86918
G1 X157.598 Y118.918 E.01332
M73 Q12 S29
G1 X115.272 Y76.592 E1.87761
G1 X114.953 Y76.807 E.01206
G1 X157.469 Y119.323 E1.88603
G1 X157.34 Y119.728 E.01332
G1 X114.635 Y77.022 E1.89446
G1 X114.316 Y77.237 E.01206
G1 X157.212 Y120.132 E1.90288
G1 X157.083 Y120.537 E.01332
M73 P13 R28
G1 X113.997 Y77.451 E1.91131
G1 X113.679 Y77.666 E.01206
G1 X156.954 Y120.942 E1.91973
G1 X156.825 Y121.347 E.01332
G1 X113.36 Y77.881 E1.92815
G1 X113.041 Y78.096 E.01206
M73 Q13 S29
G1 X156.697 Y121.751 E1.93658
G1 X156.568 Y122.156 E.01332
M73 P13 R27
G1 X112.723 Y78.311 E1.945
G1 X112.404 Y78.526 E.01206
G1 X156.439 Y122.561 E1.95343
G1 X156.31 Y122.965 E.01332
M73 P14 R27
G1 X112.085 Y78.74 E1.96185
G1 X111.767 Y78.955 E.01206
G1 X156.182 Y123.37 E1.97028
G1 X156.053 Y123.775 E.01332
G1 X111.448 Y79.17 E1.9787
G1 X111.129 Y79.385 E.01206
M73 Q14 S29
G1 X155.924 Y124.18 E1.98713
G1 X155.795 Y124.584 E.01332
M73 Q14 S28
G1 X110.811 Y79.6 E1.99555
G1 X110.492 Y79.815 E.01206
G1 X155.667 Y124.989 E2.00398
G1 X155.538 Y125.394 E.01332
M73 P15 R27
G1 X110.173 Y80.029 E2.0124
G1 X109.855 Y80.244 E.01206
G1 X155.409 Y125.799 E2.02082
G1 X155.28 Y126.203 E.01332
G1 X109.536 Y80.459 E2.02925
G1 X109.217 Y80.674 E.01206
G1 X155.152 Y126.608 E2.03767
G1 X155.023 Y127.013 E.01332
M73 Q15 S28
G1 X108.899 Y80.889 E2.0461
G1 X108.58 Y81.104 E.01206
G1 X154.894 Y127.418 E2.05452
G1 X154.765 Y127.822 E.01332
M73 P16 R27
G1 X108.261 Y81.318 E2.06295
G1 X107.943 Y81.533 E.01206
G1 X154.637 Y128.227 E2.07137
G1 X154.508 Y128.632 E.01332
G1 X107.624 Y81.748 E2.0798
G1 X107.305 Y81.963 E.01206
G1 X154.379 Y129.037 E2.08822
G1 X154.25 Y129.441 E.01332
M73 Q16 S28
G1 X106.987 Y82.178 E2.09665
G1 X106.668 Y82.393 E.01206
M73 P16 R26
G1 X154.122 Y129.846 E2.10507
G1 X153.993 Y130.251 E.01332
M73 P17 R26
G1 X106.349 Y82.607 E2.11349
G1 X106.031 Y82.822 E.01206
G1 X153.864 Y130.656 E2.12192
G1 X153.735 Y131.06 E.01332
G1 X105.712 Y83.037 E2.13034
G1 X105.393 Y83.252 E.01206
G1 X153.606 Y131.465 E2.13877
G1 X153.478 Y131.87 E.01332
M73 Q17 S27
G1 X105.075 Y83.467 E2.14719
G1 X104.756 Y83.682 E.01206
G1 X153.349 Y132.275 E2.15562
G1 X153.22 Y132.679 E.01332
M73 P18 R26
G1 X104.437 Y83.896 E2.16404
G1 X104.119 Y84.111 E.01206
G1 X153.091 Y133.084 E2.17247
G1 X152.963 Y133.489 E.01332
G1 X103.8 Y84.326 E2.18089
G1 X103.481 Y84.541 E.01206
G1 X152.834 Y133.894 E2.18931
G1 X152.705 Y134.298 E.01332
M73 Q18 S27
G1 X103.163 Y84.756 E2.19774
G1 X102.844 Y84.971 E.01206
M73 P19 R26
G1 X152.576 Y134.703 E2.20616
G1 X152.448 Y135.108 E.01332
G1 X102.525 Y85.185 E2.21459
G1 X102.207 Y85.4 E.01206
G1 X152.319 Y135.512 E2.22301
G1 X152.19 Y135.917 E.01332
G1 X101.888 Y85.615 E2.23144
G1 X101.569 Y85.83 E.01206
M73 Q19 S27
G1 X152.061 Y136.322 E2.23986
G1 X151.933 Y136.727 E.01332
M73 P19 R25
G1 X101.251 Y86.045 E2.24829
G1 X100.932 Y86.26 E.01206
M73 P20 R25
G1 X151.804 Y137.131 E2.25671
G1 X151.675 Y137.536 E.01332
G1 X100.613 Y86.474 E2.26514
G1 X100.295 Y86.689 E.01206
G1 X151.546 Y137.941 E2.27356
G1 X151.418 Y138.346 E.01332
G1 X99.976 Y86.904 E2.28198
G1 X99.657 Y87.119 E.01206
M73 Q20 S26
G1 X151.289 Y138.75 E2.29041
G1 X151.16 Y139.155 E.01332
M73 P21 R25
G1 X99.339 Y87.334 E2.29883
G1 X99.02 Y87.549 E.01206
G1 X151.031 Y139.56 E2.30726
G1 X150.903 Y139.965 E.01332
G1 X98.701 Y87.763 E2.31568
G1 X98.383 Y87.978 E.01206
G1 X150.774 Y140.369 E2.32411
G1 X150.645 Y140.774 E.01332
M73 Q21 S26
G1 X98.064 Y88.193 E2.33253
G1 X97.745 Y88.408 E.01206
M73 P22 R25
G1 X150.516 Y141.179 E2.34096
G1 X150.388 Y141.584 E.01332
G1 X97.427 Y88.623 E2.34938
G1 X97.108 Y88.838 E.01206
G1 X150.259 Y141.988 E2.35781
G1 X150.13 Y142.393 E.01332
G1 X96.789 Y89.052 E2.36623
G1 X96.471 Y89.267 E.01206
G1 X150.001 Y142.798 E2.37465
G1 X149.872 Y143.203 E.01332
M73 P23 R24
